P3
200 112
255
220 235 255
220 235 255
220 235 255
220 235 255
220 235 255
220 235 255
220 235 255
220 235 255
220 235 255
220 235 255
220 235 255
220 235 255
220 235 255
220 235 255
220 235 255
220 235 255
220 235 255
220 235 255
220 235 255
220 235 255
220 235 255
220 235 255
220 235 255
220 235 255
220 235 255
220 235 255
220 235 255
220 235 255
220 235 255
220 235 255
220 235 255
220 235 255
220 235 255
220 235 255
220 235 255
220 235 255
220 235 255
220 235 255
220 235 255
220 235 255
220 235 255
220 235 255
220 235 255
220 235 255
220 235 255
220 235 255
220 235 255
220 235 255
220 235 255
220 235 255
220 235 255
220 235 255
220 235 255
220 235 255
220 235 255
220 235 255
220 235 255
220 235 255
220 235 255
220 235 255
220 235 255
220 235 255
220 235 255
220 235 255
220 235 255
220 235 255
220 235 255
220 235 255
220 235 255
220 235 255
220 235 255
220 235 255
220 235 255
220 235 255
220 235 255
220 235 255
220 235 255
220 235 255
220 235 255
220 235 255
220 235 255
220 235 255
220 235 255
220 235 255
220 235 255
220 235 255
220 235 255
220 235 255
220 235 255
220 235 255
220 235 255
220 235 255
220 235 255
220 235 255
220 235 255
220 235 255
220 235 255
220 235 255
220 235 255
220 235 255
220 235 255
220 235 255
220 235 255
220 235 255
220 235 255
220 235 255
220 235 255
220 235 255
220 235 255
220 235 255
220 235 255
220 235 255
220 235 255
220 235 255
220 235 255
220 235 255
220 235 255
220 235 255
220 235 255
220 235 255
220 235 255
220 235 255
220 235 255
220 235 255
220 235 255
220 235 255
220 235 255
220 235 255
220 235 255
220 235 255
220 235 255
220 235 255
220 235 255
220 235 255
220 235 255
220 235 255
220 235 255
220 235 255
220 235 255
220 235 255
220 235 255
220 235 255
220 235 255
220 235 255
220 235 255
220 235 255
220 235 255
220 235 255
220 235 255
220 235 255
220 235 255
220 235 255
220 235 255
220 235 255
220 235 255
220 235 255
220 235 255
220 235 255
220 235 255
220 235 255
220 235 255
220 235 255
220 235 255
220 235 255
220 235 255
220 235 255
220 235 255
220 235 255
220 235 255
220 235 255
220 235 255
220 235 255
220 235 255
220 235 255
220 235 255
220 235 255
220 235 255
220 235 255
220 235 255
220 235 255
220 235 255
220 235 255
220 235 255
220 235 255
220 235 255
220 235 255
220 235 255
220 235 255
220 235 255
220 235 255
220 235 255
220 235 255
220 235 255
220 235 255
220 235 255
220 235 255
220 235 255
220 235 255
220 235 255
220 235 255
220 235 255
220 235 255
220 235 255
220 235 255
220 235 255
220 235 255
220 235 255
220 235 255
220 235 255
220 235 255
220 235 255
220 235 255
220 235 255
220 235 255
220 235 255
220 235 255
220 235 255
220 235 255
220 235 255
220 235 255
220 235 255
220 235 255
220 235 255
220 235 255
220 235 255
220 235 255
220 235 255
220 235 255
220 235 255
220 235 255
220 235 255
220 235 255
220 235 255
220 235 255
220 235 255
220 235 255
220 235 255
220 235 255
220 235 255
220 235 255
220 235 255
220 235 255
220 235 255
220 235 255
220 235 255
220 235 255
220 235 255
220 235 255
220 235 255
220 235 255
220 235 255
220 235 255
220 235 255
220 235 255
220 235 255
220 235 255
220 235 255
220 235 255
220 235 255
220 235 255
220 235 255
220 235 255
220 235 255
220 235 255
220 235 255
220 235 255
220 235 255
220 235 255
220 235 255
220 235 255
220 235 255
220 235 255
220 235 255
220 235 255
220 235 255
220 235 255
220 235 255
220 235 255
220 235 255
220 235 255
220 235 255
220 235 255
220 235 255
220 235 255
220 235 255
220 235 255
220 235 255
220 235 255
220 235 255
220 235 255
220 235 255
220 235 255
220 235 255
220 235 255
220 235 255
220 235 255
220 235 255
220 235 255
220 235 255
220 235 255
220 235 255
220 235 255
220 235 255
220 235 255
220 235 255
220 235 255
220 235 255
220 235 255
220 235 255
220 235 255
220 235 255
220 235 255
220 235 255
220 235 255
220 235 255
220 235 255
220 235 255
220 235 255
220 235 255
220 235 255
220 235 255
220 235 255
220 235 255
220 235 255
220 235 255
220 235 255
220 235 255
220 235 255
220 235 255
220 235 255
220 235 255
220 235 255
220 235 255
220 235 255
220 235 255
220 235 255
220 235 255
220 235 255
220 235 255
220 235 255
220 235 255
220 235 255
220 235 255
220 235 255
220 235 255
220 235 255
220 235 255
220 235 255
220 235 255
220 235 255
220 235 255
220 235 255
220 235 255
220 235 255
220 235 255
220 235 255
220 235 255
220 235 255
220 235 255
220 235 255
220 235 255
220 235 255
220 235 255
220 235 255
220 235 255
220 235 255
220 235 255
220 235 255
220 235 255
220 235 255
220 235 255
220 235 255
220 235 255
220 235 255
220 235 255
220 235 255
220 235 255
220 235 255
220 235 255
220 235 255
220 235 255
220 235 255
220 235 255
220 235 255
220 235 255
220 235 255
220 235 255
220 235 255
220 235 255
220 235 255
220 235 255
220 235 255
220 235 255
220 235 255
220 235 255
220 235 255
220 235 255
220 235 255
220 235 255
220 235 255
220 235 255
220 235 255
220 235 255
220 235 255
220 235 255
220 235 255
220 235 255
220 235 255
220 235 255
220 235 255
220 235 255
220 235 255
220 235 255
220 235 255
220 235 255
220 235 255
220 235 255
220 235 255
221 235 255
220 235 255
220 235 255
220 235 255
220 235 255
220 235 255
220 235 255
220 235 255
220 235 255
220 235 255
220 235 255
220 235 255
220 235 255
220 235 255
220 235 255
220 235 255
220 235 255
220 235 255
220 235 255
220 235 255
220 235 255
220 235 255
220 235 255
220 235 255
220 235 255
220 235 255
220 235 255
221 235 255
220 235 255
220 235 255
220 235 255
220 235 255
220 235 255
220 235 255
220 235 255
220 235 255
220 235 255
220 235 255
220 235 255
220 235 255
220 235 255
220 235 255
220 235 255
220 235 255
220 235 255
220 235 255
220 235 255
220 235 255
220 235 255
220 235 255
220 235 255
220 235 255
220 235 255
220 235 255
220 235 255
220 235 255
220 235 255
220 235 255
220 235 255
220 235 255
220 235 255
220 235 255
220 235 255
220 235 255
220 235 255
220 235 255
220 235 255
220 235 255
220 235 255
220 235 255
220 235 255
220 235 255
220 235 255
220 235 255
220 235 255
220 235 255
220 235 255
220 235 255
220 235 255
220 235 255
220 235 255
220 235 255
220 235 255
220 235 255
220 235 255
220 235 255
220 235 255
220 235 255
220 235 255
220 235 255
220 235 255
220 235 255
220 235 255
220 235 255
220 235 255
220 235 255
220 235 255
220 235 255
220 235 255
220 235 255
220 235 255
220 235 255
220 235 255
220 235 255
220 235 255
220 235 255
220 235 255
220 235 255
220 235 255
220 235 255
220 235 255
220 235 255
220 235 255
220 235 255
221 235 255
220 235 255
220 235 255
220 235 255
220 235 255
220 235 255
220 235 255
220 235 255
220 235 255
220 235 255
220 235 255
220 235 255
220 235 255
220 235 255
220 235 255
220 235 255
220 235 255
220 235 255
220 235 255
220 235 255
220 235 255
220 235 255
220 235 255
220 235 255
220 235 255
220 235 255
220 235 255
220 235 255
220 235 255
220 235 255
220 235 255
220 235 255
220 235 255
220 235 255
220 235 255
220 235 255
220 235 255
220 235 255
220 235 255
220 235 255
220 235 255
220 235 255
220 235 255
220 235 255
220 235 255
220 235 255
220 235 255
220 235 255
220 235 255
220 235 255
220 235 255
220 235 255
220 235 255
220 235 255
220 235 255
220 235 255
220 235 255
220 235 255
220 235 255
220 235 255
220 235 255
220 235 255
220 235 255
220 235 255
220 235 255
220 235 255
220 235 255
220 235 255
221 235 255
221 235 255
221 235 255
221 235 255
221 235 255
221 235 255
221 235 255
221 235 255
221 235 255
221 235 255
221 235 255
221 235 255
221 235 255
221 235 255
221 235 255
221 235 255
221 235 255
221 235 255
221 235 255
221 235 255
221 235 255
221 235 255
221 235 255
221 235 255
221 235 255
221 235 255
221 235 255
221 235 255
221 235 255
221 235 255
221 235 255
221 235 255
221 235 255
221 235 255
221 235 255
221 235 255
221 235 255
221 235 255
221 235 255
220 235 255
221 235 255
221 235 255
221 235 255
221 235 255
221 235 255
221 235 255
221 235 255
221 235 255
221 235 255
221 235 255
221 235 255
221 235 255
221 235 255
221 235 255
221 235 255
221 235 255
221 235 255
221 235 255
221 235 255
220 235 255
221 235 255
221 235 255
221 235 255
221 235 255
221 235 255
221 235 255
221 235 255
221 235 255
221 235 255
221 235 255
221 235 255
221 235 255
221 235 255
221 235 255
221 235 255
221 235 255
221 235 255
221 235 255
220 235 255
221 235 255
221 235 255
221 235 255
221 235 255
221 235 255
221 235 255
221 235 255
221 235 255
221 235 255
221 235 255
221 235 255
221 235 255
221 235 255
221 235 255
221 235 255
221 235 255
220 235 255
221 235 255
221 235 255
221 235 255
221 235 255
221 235 255
221 235 255
221 235 255
221 235 255
221 235 255
221 235 255
221 235 255
221 235 255
221 235 255
220 235 255
221 235 255
221 235 255
221 235 255
221 235 255
220 235 255
221 235 255
220 235 255
221 235 255
221 235 255
221 235 255
221 235 255
221 235 255
221 235 255
221 235 255
221 235 255
221 235 255
221 235 255
221 235 255
221 235 255
220 235 255
221 235 255
221 235 255
221 235 255
221 235 255
221 235 255
221 235 255
221 235 255
221 235 255
221 235 255
221 235 255
221 235 255
221 235 255
221 235 255
221 235 255
221 235 255
221 235 255
220 235 255
221 235 255
221 235 255
220 235 255
221 235 255
221 235 255
221 235 255
221 235 255
221 235 255
221 235 255
221 235 255
221 235 255
221 235 255
221 235 255
221 235 255
221 235 255
221 235 255
221 235 255
221 235 255
220 235 255
221 235 255
221 235 255
221 235 255
221 235 255
221 235 255
221 235 255
221 235 255
221 235 255
221 235 255
221 235 255
220 235 255
221 235 255
221 235 255
221 235 255
221 235 255
221 235 255
221 235 255
221 235 255
221 235 255
221 235 255
221 235 255
221 235 255
221 235 255
221 235 255
221 235 255
221 235 255
221 235 255
221 235 255
221 235 255
221 235 255
221 235 255
221 235 255
221 235 255
221 235 255
221 235 255
221 235 255
221 235 255
221 235 255
221 235 255
221 235 255
221 235 255
221 235 255
221 235 255
221 235 255
221 235 255
221 235 255
221 235 255
221 235 255
221 235 255
221 235 255
221 235 255
221 235 255
221 235 255
221 235 255
221 235 255
221 235 255
221 235 255
221 235 255
221 235 255
221 235 255
221 235 255
221 235 255
221 235 255
221 235 255
221 235 255
221 235 255
221 235 255
221 235 255
221 235 255
221 235 255
221 235 255
221 235 255
221 235 255
221 235 255
221 235 255
221 235 255
221 235 255
221 235 255
221 235 255
221 235 255
221 235 255
221 235 255
221 235 255
221 235 255
221 235 255
221 235 255
221 235 255
221 235 255
221 235 255
221 235 255
221 235 255
221 235 255
221 235 255
221 235 255
221 235 255
221 235 255
221 235 255
221 235 255
221 235 255
221 235 255
221 235 255
221 235 255
221 235 255
221 235 255
221 235 255
221 235 255
221 235 255
221 235 255
221 235 255
221 235 255
221 235 255
221 235 255
221 235 255
221 235 255
221 235 255
221 235 255
221 235 255
221 235 255
221 235 255
221 235 255
221 235 255
221 235 255
221 235 255
221 235 255
221 235 255
221 235 255
221 235 255
221 235 255
221 235 255
221 235 255
221 235 255
221 235 255
221 235 255
221 235 255
221 235 255
221 235 255
221 235 255
221 235 255
221 235 255
221 235 255
221 235 255
221 235 255
221 235 255
221 235 255
221 235 255
221 235 255
221 235 255
221 235 255
221 235 255
221 235 255
221 235 255
221 235 255
221 235 255
221 235 255
221 235 255
221 235 255
221 235 255
221 235 255
221 235 255
221 235 255
221 235 255
221 235 255
221 235 255
221 235 255
221 235 255
221 235 255
221 235 255
221 235 255
221 235 255
221 235 255
221 235 255
221 235 255
221 235 255
221 235 255
221 235 255
221 235 255
221 235 255
221 235 255
221 235 255
221 235 255
221 235 255
221 235 255
221 235 255
221 235 255
221 235 255
221 235 255
221 235 255
221 235 255
221 235 255
221 235 255
221 235 255
221 235 255
221 235 255
221 235 255
221 235 255
221 235 255
221 235 255
221 235 255
221 235 255
221 235 255
221 235 255
221 235 255
221 235 255
221 235 255
221 235 255
221 235 255
221 235 255
221 235 255
221 235 255
221 235 255
221 235 255
221 235 255
221 235 255
221 235 255
221 235 255
221 235 255
221 235 255
221 235 255
221 235 255
221 235 255
221 235 255
221 235 255
221 235 255
221 235 255
221 235 255
221 235 255
221 235 255
221 235 255
221 235 255
221 235 255
221 235 255
221 235 255
221 235 255
221 235 255
221 235 255
221 235 255
221 235 255
221 235 255
221 235 255
221 235 255
221 235 255
221 235 255
221 235 255
221 235 255
221 235 255
221 235 255
221 235 255
221 235 255
221 235 255
221 235 255
221 235 255
221 235 255
221 235 255
221 235 255
221 235 255
221 235 255
221 235 255
221 235 255
221 235 255
221 235 255
221 235 255
221 235 255
221 235 255
221 235 255
221 235 255
221 235 255
221 235 255
221 235 255
221 235 255
221 235 255
221 235 255
221 235 255
221 235 255
221 235 255
221 235 255
221 235 255
221 235 255
221 235 255
221 235 255
221 235 255
221 235 255
221 235 255
221 235 255
221 235 255
221 235 255
221 235 255
221 235 255
221 235 255
221 235 255
221 235 255
221 235 255
221 235 255
221 235 255
221 235 255
221 235 255
221 235 255
221 235 255
221 235 255
221 235 255
221 235 255
221 235 255
221 235 255
221 235 255
221 235 255
221 235 255
221 235 255
221 235 255
221 235 255
221 235 255
221 235 255
221 235 255
221 235 255
221 235 255
221 235 255
221 235 255
221 235 255
221 235 255
221 235 255
221 235 255
221 235 255
221 235 255
221 235 255
221 235 255
221 235 255
221 235 255
221 235 255
221 235 255
221 235 255
221 235 255
221 235 255
221 235 255
221 235 255
221 235 255
221 235 255
221 235 255
221 235 255
221 235 255
221 235 255
221 235 255
221 235 255
221 235 255
221 235 255
221 235 255
221 235 255
221 235 255
221 235 255
221 235 255
221 235 255
221 235 255
221 235 255
221 235 255
221 235 255
221 235 255
221 235 255
221 235 255
221 235 255
221 235 255
221 235 255
221 235 255
221 235 255
221 235 255
221 235 255
221 235 255
221 235 255
221 235 255
221 235 255
221 235 255
221 235 255
221 235 255
221 235 255
221 235 255
221 235 255
221 235 255
221 235 255
221 235 255
221 235 255
221 235 255
221 235 255
221 235 255
221 235 255
221 235 255
221 235 255
221 235 255
221 235 255
221 235 255
221 235 255
221 235 255
221 235 255
221 235 255
221 235 255
221 235 255
221 235 255
221 235 255
221 235 255
221 235 255
221 235 255
221 235 255
221 235 255
221 235 255
221 235 255
221 235 255
221 235 255
221 235 255
221 235 255
221 235 255
221 235 255
221 235 255
221 235 255
221 235 255
221 235 255
221 235 255
221 235 255
221 235 255
221 235 255
221 235 255
221 235 255
221 235 255
221 235 255
221 235 255
221 235 255
221 235 255
221 235 255
221 235 255
221 235 255
221 235 255
221 235 255
221 235 255
221 235 255
221 235 255
221 235 255
221 235 255
221 235 255
221 235 255
221 235 255
221 235 255
221 235 255
221 235 255
221 235 255
221 235 255
221 235 255
221 235 255
221 235 255
221 235 255
221 235 255
221 235 255
221 235 255
221 235 255
221 235 255
221 235 255
221 235 255
221 235 255
221 235 255
221 235 255
221 235 255
221 235 255
221 235 255
221 235 255
221 235 255
221 235 255
221 235 255
221 235 255
221 235 255
221 235 255
221 235 255
221 235 255
221 235 255
221 235 255
221 235 255
221 235 255
221 235 255
221 235 255
221 235 255
221 235 255
221 235 255
221 235 255
221 235 255
221 235 255
221 235 255
221 235 255
221 235 255
221 235 255
221 235 255
221 235 255
221 235 255
221 235 255
221 235 255
221 235 255
221 235 255
221 235 255
221 235 255
221 235 255
221 235 255
221 235 255
221 235 255
221 235 255
221 235 255
221 235 255
221 235 255
221 235 255
221 235 255
221 235 255
221 235 255
221 235 255
221 235 255
221 235 255
221 235 255
221 235 255
221 235 255
221 235 255
221 235 255
221 235 255
221 235 255
221 235 255
221 235 255
221 235 255
221 235 255
221 235 255
221 235 255
221 235 255
221 235 255
221 235 255
221 235 255
221 235 255
221 235 255
221 235 255
221 235 255
221 235 255
221 235 255
221 235 255
221 235 255
221 235 255
221 235 255
221 235 255
221 235 255
221 235 255
221 235 255
221 235 255
221 235 255
221 235 255
221 235 255
221 235 255
221 235 255
221 235 255
221 235 255
221 235 255
221 235 255
221 235 255
221 235 255
221 235 255
221 235 255
221 235 255
221 235 255
221 235 255
221 235 255
221 235 255
221 235 255
221 235 255
221 235 255
221 235 255
221 235 255
221 235 255
221 235 255
221 235 255
221 235 255
221 235 255
221 235 255
221 235 255
221 235 255
221 235 255
221 235 255
221 235 255
221 235 255
221 235 255
221 235 255
221 235 255
221 235 255
221 235 255
221 235 255
221 235 255
221 235 255
221 235 255
221 235 255
221 235 255
221 235 255
221 235 255
221 235 255
221 235 255
221 235 255
221 235 255
221 235 255
221 235 255
221 235 255
221 235 255
221 235 255
221 235 255
221 235 255
221 235 255
221 235 255
221 235 255
221 235 255
221 235 255
221 235 255
221 235 255
221 235 255
221 235 255
221 235 255
221 235 255
221 235 255
221 235 255
221 235 255
221 235 255
221 235 255
221 235 255
221 235 255
221 235 255
221 235 255
221 235 255
221 235 255
221 235 255
221 235 255
221 235 255
221 235 255
221 235 255
221 235 255
221 235 255
221 235 255
221 235 255
221 235 255
221 235 255
221 235 255
221 235 255
221 235 255
221 235 255
221 235 255
221 235 255
221 235 255
221 235 255
221 235 255
221 235 255
221 235 255
221 235 255
221 235 255
221 235 255
221 235 255
221 235 255
221 235 255
221 235 255
221 235 255
221 235 255
221 235 255
221 235 255
221 235 255
221 235 255
221 235 255
221 235 255
221 235 255
221 235 255
221 235 255
221 235 255
221 235 255
221 235 255
221 235 255
221 235 255
221 235 255
221 235 255
221 235 255
221 235 255
221 235 255
221 235 255
221 235 255
221 235 255
221 235 255
221 235 255
221 235 255
221 235 255
221 235 255
221 235 255
221 235 255
221 235 255
221 235 255
221 235 255
221 235 255
221 235 255
221 235 255
221 235 255
221 235 255
221 235 255
221 235 255
221 235 255
221 235 255
221 235 255
221 235 255
221 235 255
221 235 255
221 235 255
221 235 255
221 235 255
221 235 255
221 235 255
221 235 255
221 235 255
221 235 255
221 235 255
221 235 255
221 235 255
221 235 255
221 235 255
221 235 255
221 235 255
221 235 255
221 235 255
221 235 255
221 235 255
221 235 255
221 235 255
221 235 255
221 235 255
221 235 255
221 235 255
221 235 255
221 235 255
221 235 255
221 235 255
221 235 255
221 235 255
221 235 255
221 235 255
221 235 255
221 235 255
221 235 255
221 235 255
221 235 255
221 235 255
221 235 255
221 235 255
221 235 255
221 235 255
221 235 255
221 235 255
221 235 255
221 235 255
221 235 255
221 235 255
221 235 255
221 235 255
221 235 255
221 235 255
221 235 255
221 235 255
221 235 255
221 235 255
221 235 255
221 235 255
221 235 255
221 235 255
221 235 255
221 235 255
221 235 255
221 235 255
221 235 255
221 235 255
221 235 255
221 235 255
221 235 255
221 235 255
221 235 255
221 235 255
221 235 255
221 235 255
221 235 255
221 235 255
221 235 255
221 235 255
221 235 255
221 235 255
221 235 255
221 235 255
221 235 255
221 235 255
221 235 255
221 235 255
221 235 255
221 235 255
221 235 255
221 235 255
221 235 255
221 235 255
221 235 255
221 235 255
221 235 255
221 235 255
221 235 255
221 235 255
221 235 255
221 235 255
221 235 255
221 235 255
221 235 255
221 235 255
221 235 255
221 235 255
221 235 255
221 235 255
221 235 255
221 235 255
221 235 255
221 235 255
221 235 255
221 235 255
221 235 255
221 235 255
221 235 255
221 235 255
221 235 255
221 235 255
221 235 255
221 235 255
221 235 255
221 235 255
221 235 255
221 235 255
221 235 255
221 235 255
221 235 255
221 235 255
221 235 255
221 235 255
221 235 255
221 235 255
221 235 255
221 235 255
221 235 255
221 235 255
221 235 255
221 235 255
221 235 255
221 235 255
221 235 255
221 235 255
221 235 255
221 235 255
221 235 255
221 235 255
221 235 255
221 235 255
221 235 255
221 235 255
221 235 255
221 235 255
221 235 255
221 235 255
221 235 255
221 235 255
221 235 255
221 235 255
221 235 255
221 235 255
221 235 255
221 235 255
221 235 255
221 235 255
221 235 255
221 235 255
221 235 255
221 235 255
221 235 255
221 235 255
221 235 255
221 235 255
221 235 255
221 235 255
221 235 255
221 235 255
221 235 255
221 236 255
221 235 255
221 235 255
221 235 255
221 235 255
221 235 255
221 235 255
221 235 255
221 235 255
221 235 255
221 235 255
221 235 255
221 235 255
221 235 255
221 235 255
221 235 255
221 235 255
221 235 255
221 235 255
221 235 255
221 235 255
221 235 255
221 235 255
221 235 255
221 235 255
221 235 255
221 235 255
221 235 255
221 235 255
221 235 255
221 235 255
221 235 255
221 235 255
221 235 255
221 235 255
221 235 255
221 235 255
221 235 255
221 235 255
221 235 255
221 235 255
221 235 255
221 235 255
213 225 244
213 225 244
221 235 255
221 235 255
221 235 255
221 235 255
221 235 255
221 235 255
221 235 255
221 235 255
221 235 255
221 235 255
221 235 255
221 235 255
221 235 255
221 235 255
221 235 255
221 235 255
221 235 255
221 235 255
221 235 255
221 235 255
221 235 255
221 235 255
221 235 255
221 235 255
221 235 255
221 235 255
221 235 255
221 235 255
221 235 255
221 235 255
221 235 255
221 235 255
221 235 255
221 236 255
221 235 255
221 235 255
221 235 255
221 235 255
221 235 255
221 235 255
221 235 255
221 235 255
221 235 255
221 235 255
221 235 255
221 235 255
221 235 255
221 235 255
221 235 255
221 235 255
221 235 255
221 235 255
221 235 255
221 235 255
221 235 255
221 235 255
221 235 255
221 235 255
221 235 255
221 235 255
221 235 255
221 235 255
221 235 255
221 235 255
221 235 255
221 235 255
221 235 255
221 235 255
221 235 255
221 235 255
221 235 255
221 235 255
221 235 255
221 235 255
221 235 255
221 235 255
221 235 255
221 235 255
221 235 255
221 235 255
221 235 255
221 235 255
221 235 255
221 235 255
221 235 255
221 235 255
221 235 255
221 235 255
221 235 255
221 235 255
221 235 255
221 235 255
221 235 255
221 235 255
221 235 255
221 235 255
221 235 255
221 235 255
221 235 255
221 235 255
221 235 255
221 235 255
221 235 255
221 235 255
221 235 255
221 235 255
221 235 255
221 235 255
221 235 255
221 235 255
221 235 255
221 235 255
221 235 255
221 235 255
221 235 255
221 236 255
221 236 255
221 236 255
221 236 255
221 236 255
221 236 255
221 236 255
221 236 255
221 236 255
221 236 255
221 236 255
221 236 255
221 236 255
221 236 255
221 236 255
221 236 255
221 236 255
221 236 255
221 236 255
221 236 255
221 236 255
221 236 255
221 235 255
221 236 255
221 236 255
221 236 255
221 236 255
221 235 255
221 236 255
221 236 255
221 236 255
221 236 255
221 236 255
221 236 255
221 236 255
221 236 255
221 236 255
221 236 255
221 236 255
221 236 255
221 236 255
221 236 255
221 236 255
221 236 255
221 236 255
221 236 255
221 236 255
221 236 255
221 236 255
221 236 255
221 235 255
221 236 255
221 236 255
221 236 255
221 236 255
221 236 255
221 236 255
221 236 255
221 236 255
221 236 255
221 236 255
221 236 255
221 236 255
221 236 255
221 236 255
221 236 255
221 236 255
221 236 255
221 236 255
221 236 255
221 236 255
221 236 255
221 236 255
221 236 255
221 236 255
221 236 255
221 236 255
197 204 218
205 215 231
146 137 135
169 167 173
168 167 173
169 167 173
180 181 189
197 204 218
178 180 189
205 215 231
212 225 243
221 236 255
221 236 255
221 236 255
221 236 255
221 235 255
209 223 243
220 235 255
201 214 223
199 215 230
211 227 244
210 224 231
208 225 237
195 210 212
202 217 237
188 202 222
206 221 242
212 227 249
221 235 255
221 236 255
221 236 255
221 236 255
221 236 255
221 236 255
221 236 255
221 236 255
221 236 255
221 236 255
221 236 255
221 236 255
221 236 255
221 235 255
221 236 255
221 236 255
221 236 255
221 236 255
210 221 236
214 226 242
205 215 228
205 215 228
197 204 214
204 214 228
182 185 189
182 185 189
191 197 206
186 191 198
184 186 189
209 220 236
210 221 236
217 231 249
221 236 255
221 236 255
221 236 255
221 236 255
221 236 255
221 236 255
221 236 255
221 236 255
221 236 255
221 236 255
221 236 255
221 236 255
221 236 255
221 236 255
221 236 255
221 236 255
221 236 255
221 236 255
221 236 255
221 236 255
221 236 255
221 236 255
221 236 255
221 236 255
221 236 255
221 236 255
221 236 255
221 236 255
221 236 255
221 236 255
221 236 255
221 236 255
221 236 255
221 236 255
221 236 255
221 236 255
221 236 255
221 236 255
221 236 255
221 236 255
221 236 255
221 236 255
221 236 255
221 236 255
221 236 255
221 235 255
221 236 255
221 236 255
221 235 255
221 236 255
221 236 255
221 236 255
221 236 255
221 236 255
221 236 255
221 236 255
221 236 255
221 236 255
221 236 255
221 236 255
221 236 255
221 236 255
221 236 255
221 236 255
221 236 255
221 236 255
221 236 255
221 236 255
221 236 255
221 236 255
221 236 255
221 236 255
221 236 255
221 236 255
221 236 255
221 236 255
221 236 255
221 236 255
221 236 255
221 236 255
221 236 255
221 236 255
221 236 255
221 236 255
221 236 255
221 236 255
221 236 255
221 236 255
221 236 255
221 236 255
221 236 255
221 236 255
221 236 255
221 236 255
221 236 255
221 236 255
221 236 255
221 236 255
221 236 255
221 236 255
221 236 255
221 236 255
221 236 255
221 236 255
221 236 255
221 236 255
221 236 255
221 236 255
221 236 255
221 236 255
221 236 255
221 236 255
221 236 255
221 236 255
221 236 255
221 236 255
221 236 255
221 236 255
221 236 255
221 236 255
221 236 255
221 236 255
221 236 255
221 236 255
221 236 255
221 236 255
221 236 255
221 236 255
221 236 255
221 236 255
221 236 255
221 236 255
221 236 255
221 236 255
221 236 255
221 236 255
221 236 255
221 236 255
187 192 204
167 166 172
150 138 135
130 116 110
123 99 80
121 97 78
121 98 80
125 98 78
122 98 80
122 98 80
122 98 80
124 99 80
136 118 110
159 153 155
189 193 204
214 229 249
194 211 230
196 211 223
201 216 221
176 192 188
195 214 227
188 207 220
147 161 175
156 170 193
146 166 186
155 173 187
133 147 159
145 159 171
144 159 179
130 146 166
173 189 210
200 218 242
191 206 225
220 235 255
221 236 255
221 236 255
221 236 255
221 236 255
221 236 255
221 236 255
221 236 255
221 236 255
221 236 255
221 236 255
221 236 255
206 215 228
196 203 214
181 184 189
176 178 181
172 176 181
172 176 181
171 175 181
170 174 181
169 174 181
168 174 181
169 174 181
169 174 181
170 175 181
170 175 181
172 176 181
173 176 181
174 177 181
182 185 189
192 197 206
209 220 236
214 226 242
221 236 255
221 236 255
221 236 255
221 236 255
221 236 255
221 236 255
221 236 255
221 236 255
221 236 255
221 236 255
221 236 255
221 236 255
221 236 255
221 236 255
221 236 255
221 236 255
221 236 255
221 236 255
221 236 255
221 236 255
221 236 255
221 236 255
221 236 255
221 236 255
221 236 255
221 236 255
221 236 255
221 236 255
221 236 255
221 236 255
221 236 255
221 236 255
221 236 255
221 236 255
221 236 255
221 236 255
221 236 255
221 236 255
221 236 255
221 236 255
221 236 255
221 236 255
221 236 255
221 236 255
221 236 255
221 236 255
221 236 255
221 236 255
221 236 255
221 236 255
221 236 255
221 236 255
221 236 255
221 236 255
221 236 255
221 236 255
221 236 255
221 236 255
221 236 255
221 236 255
221 236 255
221 236 255
222 236 255
221 236 255
221 236 255
221 236 255
221 236 255
221 236 255
221 236 255
221 236 255
221 236 255
221 236 255
221 236 255
221 236 255
221 236 255
221 236 255
221 236 255
222 236 255
221 236 255
221 236 255
221 236 255
221 236 255
221 236 255
221 236 255
221 236 255
221 236 255
221 236 255
221 236 255
221 236 255
221 236 255
221 236 255
221 236 255
221 236 255
221 236 255
221 236 255
221 236 255
221 236 255
221 236 255
221 236 255
221 236 255
221 236 255
221 236 255
221 236 255
221 236 255
221 236 255
221 236 255
221 236 255
221 236 255
221 236 255
222 236 255
221 236 255
221 236 255
221 236 255
221 236 255
221 236 255
221 236 255
221 236 255
222 236 255
221 236 255
221 236 255
221 236 255
221 236 255
221 236 255
221 236 255
221 236 255
221 236 255
221 236 255
221 236 255
221 236 255
221 236 255
221 236 255
213 226 244
197 204 218
142 134 133
139 121 111
123 98 80
126 100 80
122 98 80
122 98 80
121 97 78
124 99 80
117 93 76
125 99 80
125 99 80
127 100 80
116 92 74
123 99 80
124 106 95
136 139 149
135 157 182
118 135 145
160 181 207
126 142 171
140 161 189
140 156 177
133 152 174
139 156 181
125 143 168
129 150 176
131 148 172
145 167 193
115 134 156
146 165 189
109 120 142
136 155 181
147 164 190
172 191 219
188 205 229
213 228 249
213 228 249
221 236 255
221 236 255
221 236 255
221 236 255
221 236 255
221 236 255
210 220 236
187 191 198
181 184 189
172 176 181
170 175 181
168 174 181
167 173 181
167 173 181
165 172 181
164 172 181
164 172 181
165 172 181
163 171 181
163 171 181
164 172 181
164 172 181
164 172 181
165 172 181
167 173 181
168 174 181
169 174 181
171 175 181
172 176 181
181 184 189
197 203 214
210 220 236
221 236 255
221 236 255
221 236 255
221 236 255
221 236 255
221 236 255
221 236 255
221 236 255
221 236 255
221 236 255
221 236 255
221 236 255
221 236 255
221 236 255
221 236 255
221 236 255
221 236 255
221 236 255
221 236 255
221 236 255
221 236 255
221 236 255
222 236 255
221 236 255
221 236 255
221 236 255
221 236 255
221 236 255
221 236 255
221 236 255
221 236 255
221 236 255
221 236 255
221 236 255
221 236 255
221 236 255
221 236 255
221 236 255
221 236 255
221 236 255
221 236 255
221 236 255
221 236 255
221 236 255
221 236 255
221 236 255
221 236 255
221 236 255
221 236 255
221 236 255
221 236 255
221 236 255
221 236 255
221 236 255
221 236 255
221 236 255
221 236 255
222 236 255
222 236 255
222 236 255
222 236 255
222 236 255
222 236 255
222 236 255
222 236 255
222 236 255
222 236 255
222 236 255
222 236 255
222 236 255
222 236 255
222 236 255
222 236 255
222 236 255
222 236 255
222 236 255
222 236 255
222 236 255
222 236 255
222 236 255
222 236 255
222 236 255
222 236 255
222 236 255
222 236 255
222 236 255
222 236 255
222 236 255
222 236 255
222 236 255
222 236 255
222 236 255
222 236 255
222 236 255
222 236 255
222 236 255
222 236 255
222 236 255
222 236 255
222 236 255
222 236 255
222 236 255
222 236 255
222 236 255
222 236 255
222 236 255
222 236 255
222 236 255
222 236 255
222 236 255
222 236 255
222 236 255
222 236 255
222 236 255
222 236 255
222 236 255
222 236 255
222 236 255
221 236 255
221 236 255
222 236 255
222 236 255
222 236 255
222 236 255
222 236 255
222 236 255
222 236 255
222 236 255
188 193 204
171 168 173
122 96 76
126 98 78
126 100 80
125 99 80
114 91 77
127 100 80
117 94 77
129 101 80
124 99 80
118 95 77
127 100 80
126 100 80
119 96 78
138 126 122
122 102 92
131 140 156
141 154 174
165 185 210
149 170 198
139 157 181
123 140 162
129 150 176
144 165 191
137 152 171
132 148 173
123 132 147
128 140 166
129 148 171
141 159 184
130 147 177
144 163 191
138 158 185
143 163 189
131 147 165
147 169 198
139 157 181
158 174 195
183 199 221
217 233 255
221 235 255
222 236 255
222 236 255
202 210 221
176 178 181
174 176 181
170 175 181
168 174 181
168 173 181
165 172 181
164 172 181
163 171 181
162 171 181
161 170 181
161 170 181
160 170 181
160 170 181
160 170 181
159 169 181
160 170 181
160 170 181
161 170 181
161 170 181
163 171 181
163 171 181
164 172 181
166 173 181
166 173 181
169 174 181
170 175 181
172 176 181
186 191 198
201 209 221
222 236 255
222 236 255
222 236 255
222 236 255
222 236 255
222 236 255
222 236 255
222 236 255
222 236 255
222 236 255
222 236 255
222 236 255
222 236 255
222 236 255
222 236 255
222 236 255
221 236 255
222 236 255
222 236 255
222 236 255
222 236 255
222 236 255
222 236 255
222 236 255
222 236 255
222 236 255
222 236 255
222 236 255
222 236 255
222 236 255
222 236 255
222 236 255
222 236 255
222 236 255
222 236 255
222 236 255
222 236 255
222 236 255
222 236 255
222 236 255
222 236 255
222 236 255
222 236 255
222 236 255
222 236 255
222 236 255
222 236 255
222 236 255
222 236 255
222 236 255
222 236 255
222 236 255
222 236 255
222 236 255
222 236 255
222 236 255
222 236 255
222 236 255
222 236 255
222 236 255
222 236 255
222 236 255
222 236 255
222 236 255
222 236 255
222 236 255
222 236 255
222 236 255
222 236 255
222 236 255
222 236 255
222 236 255
222 236 255
222 236 255
222 236 255
222 236 255
222 236 255
222 236 255
222 236 255
222 236 255
222 236 255
222 236 255
222 236 255
222 236 255
222 236 255
222 236 255
222 236 255
222 236 255
222 236 255
222 236 255
222 236 255
222 236 255
222 236 255
222 236 255
222 236 255
222 236 255
222 236 255
222 236 255
222 236 255
222 236 255
222 236 255
222 236 255
222 236 255
222 236 255
222 236 255
222 236 255
222 236 255
222 236 255
222 236 255
222 236 255
222 236 255
222 236 255
222 236 255
222 236 255
222 236 255
222 236 255
222 236 255
222 236 255
222 236 255
222 236 255
222 236 255
222 236 255
222 236 255
222 236 255
222 236 255
213 226 244
149 138 135
122 97 78
121 95 76
125 99 80
115 91 74
122 97 78
114 92 76
123 99 80
122 97 78
119 95 74
126 100 80
125 99 80
121 94 75
123 99 80
143 133 133
155 168 182
163 182 206
167 187 214
138 156 176
147 165 190
134 154 181
110 125 143
145 164 190
128 142 162
121 139 162
134 150 172
134 153 183
126 141 162
116 126 142
150 175 206
123 134 156
133 153 176
111 121 144
114 126 149
145 164 189
151 173 202
143 163 190
127 142 162
127 143 164
143 162 185
137 151 172
166 183 206
194 202 214
176 178 181
174 177 181
170 175 181
168 174 181
166 173 181
164 172 181
163 171 181
162 171 181
160 170 181
159 169 181
159 169 181
158 169 181
158 169 181
157 168 181
157 168 181
157 168 181
157 168 181
157 168 181
158 169 181
158 169 181
158 169 181
159 169 181
159 169 181
161 170 181
162 171 181
163 171 181
165 172 181
166 173 181
167 173 181
170 175 181
173 176 181
187 191 198
210 220 236
222 236 255
222 236 255
222 236 255
222 236 255
222 236 255
222 236 255
222 236 255
222 236 255
222 236 255
222 236 255
222 236 255
222 236 255
222 236 255
222 236 255
222 236 255
222 236 255
222 236 255
222 236 255
222 236 255
222 236 255
222 236 255
222 236 255
222 236 255
222 236 255
222 236 255
222 236 255
222 236 255
222 236 255
222 236 255
222 236 255
222 236 255
222 236 255
222 236 255
222 236 255
222 236 255
222 236 255
222 236 255
222 236 255
222 236 255
222 236 255
222 236 255
222 236 255
222 236 255
222 236 255
222 236 255
222 236 255
222 236 255
222 236 255
222 236 255
222 236 255
222 236 255
222 236 255
222 236 255
222 236 255
222 236 255
222 236 255
222 236 255
222 236 255
222 236 255
222 236 255
222 236 255
222 236 255
222 236 255
222 236 255
222 236 255
222 236 255
222 236 255
222 236 255
222 236 255
222 236 255
222 236 255
222 236 255
222 236 255
222 236 255
222 236 255
222 236 255
222 236 255
222 236 255
222 236 255
222 236 255
222 236 255
222 236 255
222 236 255
222 236 255
222 236 255
222 236 255
222 236 255
222 236 255
222 236 255
222 236 255
222 236 255
222 236 255
222 236 255
222 236 255
222 236 255
222 236 255
222 236 255
222 236 255
222 236 255
222 236 255
222 236 255
222 236 255
222 236 255
222 236 255
222 236 255
222 236 255
222 236 255
222 236 255
222 236 255
222 236 255
222 236 255
222 236 255
222 236 255
222 236 255
222 236 255
222 236 255
222 236 255
222 236 255
222 236 255
222 236 255
222 236 255
222 236 255
191 194 204
146 136 134
120 96 77
127 100 80
120 96 78
114 93 76
122 97 78
123 97 78
127 99 78
119 96 78
117 94 76
117 92 74
122 96 76
115 91 73
121 97 78
135 128 130
152 167 184
176 195 221
138 157 181
137 152 172
141 162 189
143 159 181
140 162 189
139 157 181
124 136 160
132 148 172
137 156 181
127 142 162
127 140 169
132 148 173
124 139 164
120 132 155
121 138 163
112 121 144
79 80 98
131 141 167
123 139 162
142 162 187
140 156 185
127 140 165
118 135 156
149 170 198
130 150 176
180 187 198
174 177 181
170 175 181
168 174 181
166 173 181
164 172 181
162 171 181
161 170 181
160 170 181
159 169 181
158 169 181
157 168 181
157 168 181
156 168 181
156 168 181
155 167 181
155 167 181
155 167 181
155 167 181
155 167 181
155 168 181
156 168 181
156 168 181
157 168 181
157 168 181
158 169 181
159 169 181
160 170 181
161 170 181
162 171 181
164 172 181
166 172 181
168 174 181
170 174 181
173 176 181
183 185 189
203 210 221
222 236 255
222 236 255
222 236 255
222 236 255
222 236 255
222 236 255
222 236 255
222 236 255
222 236 255
222 236 255
222 236 255
222 236 255
222 236 255
222 236 255
222 236 255
222 236 255
222 236 255
222 236 255
222 236 255
222 236 255
222 236 255
222 236 255
222 236 255
222 236 255
222 236 255
222 236 255
222 236 255
222 236 255
222 236 255
222 236 255
222 236 255
222 236 255
222 236 255
222 236 255
222 236 255
222 236 255
222 236 255
222 236 255
222 236 255
222 236 255
222 236 255
222 236 255
222 236 255
222 236 255
222 236 255
222 236 255
222 236 255
222 236 255
222 236 255
222 236 255
222 236 255
222 236 255
222 236 255
222 236 255
222 236 255
222 236 255
222 236 255
222 236 255
222 236 255
222 236 255
222 236 255
222 236 255
222 236 255
222 236 255
222 236 255
222 236 255
222 236 255
222 236 255
222 236 255
222 236 255
222 236 255
222 236 255
222 236 255
222 236 255
222 236 255
222 236 255
222 236 255
222 236 255
222 236 255
222 236 255
222 236 255
222 236 255
222 236 255
222 236 255
222 236 255
222 236 255
222 236 255
222 236 255
222 236 255
222 236 255
222 236 255
222 236 255
222 236 255
222 236 255
222 236 255
222 236 255
222 236 255
222 236 255
222 236 255
222 236 255
222 236 255
222 236 255
222 236 255
222 236 255
222 236 255
222 236 255
222 236 255
222 236 255
222 236 255
222 236 255
222 236 255
222 236 255
222 236 255
222 236 255
222 236 255
222 236 255
222 236 255
222 236 255
222 236 255
204 214 231
138 119 110
125 100 80
109 89 74
110 89 73
116 92 74
128 101 80
116 92 74
129 101 80
123 97 78
118 95 76
121 97 78
113 92 76
125 97 77
134 117 109
137 137 137
172 186 208
140 159 182
116 131 153
139 158 182
127 140 165
128 145 167
145 159 186
126 141 163
134 153 175
133 151 176
133 150 171
125 130 157
118 133 153
130 148 172
136 155 181
88 90 108
110 121 145
96 78 112
95 36 106
74 53 90
82 67 91
103 87 127
98 95 122
130 148 172
116 124 145
124 140 162
155 160 173
176 177 181
172 175 181
169 174 181
167 173 181
164 172 181
163 171 181
161 170 181
160 170 181
159 169 181
158 169 181
157 168 181
156 168 181
155 168 181
155 167 181
154 167 181
154 167 181
154 167 181
154 167 181
154 167 181
153 167 181
153 167 181
154 167 181
154 167 181
154 167 181
155 167 181
156 168 181
156 168 181
157 168 181
158 169 181
159 169 181
160 170 181
162 171 181
163 171 181
165 172 181
167 173 181
169 174 181
172 176 181
181 184 189
202 210 221
218 231 249
222 236 255
222 236 255
222 236 255
222 236 255
222 236 255
222 236 255
222 236 255
222 236 255
222 236 255
222 236 255
222 236 255
222 236 255
222 236 255
222 236 255
222 236 255
222 236 255
222 236 255
222 236 255
222 236 255
222 236 255
222 236 255
222 236 255
222 236 255
222 236 255
222 236 255
222 236 255
222 236 255
222 236 255
222 236 255
222 236 255
222 236 255
222 236 255
222 236 255
222 236 255
222 236 255
222 236 255
222 236 255
222 236 255
222 236 255
222 236 255
222 236 255
222 236 255
222 236 255
222 236 255
222 236 255
222 236 255
222 236 255
222 236 255
222 236 255
222 236 255
222 236 255
222 236 255
222 236 255
222 236 255
222 236 255
222 236 255
222 236 255
222 236 255
222 236 255
222 236 255
222 236 255
222 236 255
222 236 255
222 236 255
222 236 255
222 236 255
222 236 255
222 236 255
222 236 255
222 236 255
222 236 255
222 236 255
222 236 255
222 236 255
222 236 255
222 236 255
222 236 255
222 236 255
222 236 255
222 236 255
222 236 255
222 236 255
222 236 255
222 236 255
222 236 255
222 236 255
222 236 255
222 236 255
222 236 255
222 236 255
222 236 255
222 236 255
222 236 255
222 236 255
222 236 255
222 236 255
222 236 255
222 236 255
222 236 255
222 236 255
222 236 255
222 236 255
222 236 255
222 236 255
222 236 255
222 236 255
222 236 255
222 236 255
222 236 255
222 236 255
222 236 255
222 236 255
222 236 255
222 236 255
222 236 255
222 236 255
214 226 244
158 151 153
112 91 71
116 90 73
120 95 76
122 96 76
111 89 71
130 101 80
111 88 73
121 95 76
130 101 80
122 96 76
120 94 76
108 84 66
122 96 76
127 124 124
161 174 193
126 144 166
139 156 176
132 152 172
123 143 165
127 142 162
143 165 191
150 171 198
120 138 162
146 165 189
97 110 129
125 136 154
99 101 129
120 138 161
127 133 162
119 131 154
144 163 190
87 88 107
99 35 110
86 31 94
118 100 149
120 101 151
133 130 172
107 60 119
97 60 109
90 87 114
155 159 168
174 177 181
171 175 181
169 174 181
166 173 181
164 172 181
163 171 181
161 170 181
160 170 181
159 169 181
157 168 181
156 168 181
155 168 181
155 167 181
154 167 181
153 167 181
153 166 181
153 166 181
153 166 181
152 166 181
152 166 181
152 166 181
152 166 181
153 166 181
153 166 181
153 166 181
154 167 181
154 167 181
155 167 181
156 168 181
156 168 181
157 168 181
158 169 181
160 170 181
161 170 181
163 171 181
165 172 181
166 173 181
168 174 181
172 175 181
175 177 181
183 185 189
218 231 249
222 236 255
222 236 255
222 236 255
222 236 255
222 236 255
222 236 255
222 236 255
222 236 255
222 236 255
222 236 255
222 236 255
222 236 255
222 236 255
222 236 255
222 236 255
222 236 255
222 236 255
222 236 255
222 236 255
222 236 255
222 236 255
222 236 255
222 236 255
222 236 255
222 236 255
222 236 255
222 236 255
222 236 255
222 236 255
222 236 255
222 236 255
222 236 255
222 236 255
222 236 255
222 236 255
222 236 255
222 236 255
222 236 255
222 236 255
222 236 255
222 236 255
222 236 255
222 236 255
222 236 255
222 236 255
222 236 255
222 236 255
222 236 255
222 236 255
222 236 255
222 236 255
222 236 255
222 236 255
222 236 255
222 236 255
222 236 255
222 236 255
222 236 255
222 236 255
222 236 255
222 236 255
222 236 255
222 236 255
222 236 255
222 236 255
222 236 255
222 236 255
222 236 255
222 236 255
222 236 255
222 236 255
222 236 255
222 236 255
222 236 255
222 236 255
222 236 255
222 236 255
222 236 255
222 236 255
222 236 255
222 236 255
222 236 255
222 236 255
222 236 255
222 236 255
222 236 255
222 236 255
222 236 255
222 236 255
222 236 255
222 236 255
222 236 255
222 236 255
222 236 255
222 236 255
222 236 255
222 236 255
222 236 255
222 236 255
222 236 255
222 236 255
222 236 255
222 236 255
222 236 255
222 236 255
222 236 255
222 236 255
222 236 255
222 236 255
222 236 255
222 236 255
222 236 255
222 236 255
222 236 255
222 236 255
179 180 188
122 99 76
124 98 78
123 96 76
112 89 71
117 92 77
117 93 76
111 88 71
129 101 80
113 89 72
127 100 80
126 100 80
114 90 73
121 97 78
169 175 188
122 145 157
134 151 172
139 160 184
136 156 181
144 164 189
136 156 184
126 143 163
136 151 172
138 156 182
122 133 155
121 139 162
130 148 175
141 158 181
118 137 162
131 140 171
125 141 162
130 135 161
142 158 181
117 130 154
115 76 136
120 77 142
94 34 108
107 39 120
98 33 100
94 33 104
151 148 177
172 170 173
174 177 181
170 175 181
167 173 181
165 172 181
164 172 181
162 171 181
161 170 181
159 169 181
158 169 181
157 168 181
156 168 181
155 167 181
155 167 181
154 167 181
153 166 181
153 166 181
152 166 181
152 166 181
152 166 181
152 166 181
152 166 181
152 166 181
152 166 181
152 166 181
152 166 181
153 166 181
153 166 181
153 167 181
154 167 181
155 167 181
155 167 181
156 168 181
157 168 181
158 169 181
159 169 181
161 170 181
162 171 181
164 172 181
166 173 181
168 174 181
171 175 181
174 177 181
183 185 189
215 226 242
222 236 255
222 236 255
222 236 255
222 236 255
222 236 255
222 236 255
222 236 255
222 236 255
222 236 255
222 236 255
222 236 255
222 236 255
222 236 255
222 236 255
222 236 255
222 236 255
222 236 255
222 236 255
222 236 255
222 236 255
222 236 255
222 236 255
222 236 255
222 236 255
222 236 255
222 236 255
222 236 255
222 236 255
222 236 255
222 236 255
222 236 255
222 236 255
222 236 255
222 236 255
222 236 255
222 236 255
222 236 255
222 236 255
222 236 255
222 236 255
222 236 255
222 236 255
222 236 255
222 236 255
222 236 255
222 236 255
222 236 255
222 236 255
222 236 255
222 236 255
222 236 255
222 236 255
222 236 255
222 236 255
222 236 255
222 236 255
222 236 255
222 236 255
222 236 255
222 236 255
222 236 255
222 236 255
222 236 255
222 236 255
222 236 255
222 236 255
222 236 255
222 236 255
222 236 255
222 236 255
222 236 255
222 236 255
222 236 255
222 236 255
222 236 255
222 236 255
222 236 255
222 236 255
222 236 255
222 236 255
222 236 255
222 236 255
222 236 255
222 236 255
222 236 255
222 236 255
222 236 255
222 236 255
222 236 255
222 236 255
222 236 255
222 236 255
222 236 255
222 236 255
222 236 255
222 236 255
222 236 255
222 236 255
222 236 255
222 236 255
222 236 255
222 236 255
222 236 255
222 236 255
222 236 255
222 236 255
222 236 255
222 236 255
222 236 255
222 236 255
222 236 255
222 236 255
222 236 255
186 191 203
134 117 108
127 100 80
112 89 72
116 91 73
117 92 74
104 83 68
108 87 75
115 90 74
113 92 73
124 97 76
115 92 74
120 95 76
126 98 77
118 104 102
88 117 127
124 148 168
154 173 198
127 148 173
137 156 181
134 150 172
116 135 152
136 155 181
116 125 145
129 143 163
118 132 156
129 147 171
124 140 162
125 143 166
129 143 162
114 130 151
129 147 172
124 127 152
126 125 162
93 84 109
121 121 158
119 101 149
107 60 126
116 90 143
111 77 136
133 104 139
178 178 181
174 177 181
171 175 181
168 173 181
166 173 181
164 172 181
163 171 181
161 170 181
159 169 181
158 169 181
157 168 181
156 168 181
155 168 181
155 167 181
154 167 181
153 166 181
153 166 181
152 166 181
152 166 181
152 166 181
151 166 181
151 166 181
151 166 181
151 166 181
151 166 181
151 166 181
152 166 181
152 166 181
152 166 181
153 166 181
153 167 181
154 167 181
155 167 181
155 168 181
156 168 181
157 169 181
158 169 181
160 170 181
161 170 181
163 171 181
164 172 181
166 173 181
168 174 181
170 175 181
174 177 181
177 178 181
207 215 228
222 236 255
222 236 255
222 236 255
222 236 255
222 236 255
222 236 255
222 236 255
222 236 255
222 236 255
222 236 255
222 236 255
222 236 255
222 236 255
222 236 255
222 236 255
222 236 255
222 236 255
222 236 255
222 236 255
222 236 255
222 236 255
222 236 255
222 236 255
222 236 255
222 236 255
222 236 255
222 236 255
222 236 255
222 236 255
222 236 255
222 236 255
222 236 255
222 236 255
222 236 255
222 236 255
222 236 255
222 236 255
222 236 255
222 236 255
222 236 255
222 236 255
222 236 255
222 236 255
222 236 255
222 236 255
222 236 255
222 236 255
222 236 255
222 236 255
222 236 255
222 236 255
222 236 255
222 236 255
222 236 255
222 236 255
222 236 255
222 236 255
222 236 255
222 236 255
222 236 255
222 236 255
222 236 255
222 236 255
222 236 255
222 236 255
222 236 255
222 236 255
222 236 255
222 236 255
222 236 255
222 236 255
222 236 255
222 236 255
222 236 255
222 236 255
222 236 255
222 236 255
222 236 255
222 236 255
222 236 255
222 236 255
222 236 255
222 236 255
222 236 255
222 236 255
222 236 255
222 236 255
222 236 255
222 236 255
222 236 255
222 236 255
222 236 255
222 236 255
222 236 255
222 236 255
222 236 255
222 236 255
222 236 255
222 236 255
222 236 255
222 236 255
222 236 255
222 236 255
222 236 255
222 236 255
222 236 255
222 236 255
222 236 255
222 236 255
222 236 255
222 236 255
214 226 244
161 154 155
104 79 63
114 89 72
116 91 71
118 94 76
119 94 76
101 77 65
116 93 74
96 78 62
98 79 66
105 84 67
108 87 72
120 95 78
131 116 107
165 177 193
106 142 159
127 151 171
140 157 181
141 158 181
132 149 172
130 151 175
132 149 173
136 156 181
130 150 173
123 133 163
123 140 162
119 133 153
126 142 163
118 131 158
126 140 164
130 147 182
120 125 153
123 135 153
124 140 163
125 139 158
118 118 141
124 139 164
103 77 120
107 39 123
115 77 130
178 179 181
174 177 181
171 175 181
168 174 181
166 173 181
165 172 181
163 171 181
161 170 181
160 170 181
158 169 181
157 168 181
157 168 181
156 168 181
155 167 181
154 167 181
153 167 181
153 166 181
152 166 181
152 166 181
152 166 181
151 166 181
151 166 181
151 165 181
151 165 181
151 165 181
151 165 181
151 166 181
151 166 181
152 166 181
152 166 181
152 166 181
153 166 181
153 167 181
154 167 181
155 167 181
156 168 181
157 168 181
158 169 181
158 169 181
160 170 181
161 170 181
163 171 181
164 172 181
166 173 181
168 174 181
171 175 181
174 177 181
179 179 181
207 215 228
222 236 255
222 236 255
222 236 255
222 236 255
222 236 255
222 236 255
222 236 255
222 236 255
222 236 255
222 236 255
222 236 255
222 236 255
222 236 255
222 236 255
222 236 255
222 236 255
222 236 255
222 236 255
222 236 255
222 236 255
222 236 255
222 236 255
222 236 255
222 236 255
222 236 255
222 236 255
222 236 255
222 236 255
222 236 255
222 236 255
222 236 255
222 236 255
222 236 255
222 236 255
222 236 255
222 236 255
222 236 255
222 236 255
222 236 255
222 236 255
222 236 255
222 236 255
222 236 255
222 236 255
222 236 255
222 236 255
222 236 255
222 236 255
222 236 255
222 236 255
222 236 255
222 236 255
222 236 255
222 236 255
222 236 255
222 236 255
222 236 255
222 236 255
222 236 255
222 236 255
222 236 255
222 236 255
222 236 255
222 236 255
222 236 255
222 236 255
222 236 255
222 236 255
222 236 255
222 236 255
222 236 255
223 236 255
222 236 255
223 236 255
223 236 255
222 236 255
222 236 255
222 236 255
222 236 255
222 236 255
222 236 255
222 236 255
222 236 255
222 236 255
222 236 255
222 236 255
222 236 255
222 236 255
222 236 255
222 236 255
222 236 255
223 236 255
222 236 255
222 236 255
222 236 255
222 236 255
222 236 255
222 236 255
222 236 255
223 236 255
222 236 255
222 236 255
222 236 255
222 236 255
222 236 255
222 236 255
223 236 255
222 236 255
223 236 255
223 236 255
215 226 244
112 88 73
127 100 80
123 97 78
120 96 78
92 74 65
118 94 75
122 95 76
118 93 74
113 91 75
115 90 71
114 90 74
101 80 68
117 89 71
172 184 200
143 173 193
164 182 207
138 155 176
120 140 161
144 160 181
133 150 172
145 164 189
126 141 163
141 162 194
116 132 152
122 131 153
130 147 168
91 100 123
78 78 98
126 140 161
112 123 147
114 125 142
130 146 163
118 133 153
108 116 132
108 121 140
110 116 133
108 121 142
100 110 131
147 157 173
174 174 176
175 177 181
172 176 181
169 174 181
166 173 181
165 172 181
163 171 181
162 171 181
160 170 181
159 169 181
158 169 181
157 168 181
156 168 181
155 168 181
155 167 181
154 167 181
153 167 181
153 166 181
152 166 181
152 166 181
152 166 181
151 166 181
151 166 181
151 165 181
151 165 181
151 165 181
151 165 181
151 166 181
151 166 181
152 166 181
152 166 181
152 166 181
153 166 181
154 167 181
154 167 181
155 167 181
155 168 181
156 168 181
157 168 181
158 169 181
160 170 181
161 170 181
162 171 181
164 171 181
165 172 181
167 173 181
169 174 181
171 175 181
174 177 181
178 179 181
215 226 242
222 236 255
222 236 255
222 236 255
222 236 255
222 236 255
222 236 255
222 236 255
223 236 255
222 236 255
222 236 255
222 236 255
222 236 255
222 236 255
222 236 255
222 236 255
222 236 255
222 236 255
222 236 255
222 236 255
223 236 255
222 236 255
222 236 255
223 236 255
222 236 255
222 236 255
222 236 255
222 236 255
222 236 255
222 236 255
222 236 255
222 236 255
222 236 255
223 236 255
222 236 255
222 236 255
222 236 255
222 236 255
222 236 255
222 236 255
222 236 255
222 236 255
222 236 255
222 236 255
222 236 255
223 236 255
223 236 255
223 236 255
223 236 255
223 236 255
223 236 255
223 236 255
223 236 255
223 236 255
223 236 255
223 236 255
223 236 255
223 236 255
223 236 255
223 236 255
223 236 255
223 236 255
223 236 255
223 236 255
223 236 255
223 236 255
223 236 255
223 236 255
223 236 255
223 236 255
223 236 255
223 236 255
223 236 255
223 236 255
223 236 255
223 236 255
223 236 255
223 236 255
223 236 255
223 236 255
223 236 255
223 236 255
223 236 255
223 236 255
223 236 255
223 236 255
223 236 255
223 236 255
223 236 255
223 236 255
223 236 255
223 236 255
223 236 255
223 236 255
223 236 255
223 236 255
223 236 255
223 236 255
223 236 255
223 236 255
223 236 255
223 236 255
223 236 255
223 236 255
223 236 255
223 236 255
223 236 255
223 236 255
223 236 255
223 236 255
164 161 169
109 86 70
112 87 70
116 89 71
118 91 71
104 82 65
114 89 70
103 83 66
123 94 74
116 89 71
120 95 76
104 82 66
125 97 76
138 130 130
137 162 181
87 118 133
128 148 172
136 155 181
121 139 163
122 143 167
122 141 161
134 150 173
114 129 147
127 142 163
123 135 153
130 148 174
93 101 133
113 124 148
124 140 165
78 79 94
106 120 145
115 125 148
122 134 154
122 136 148
126 141 162
119 135 157
114 125 144
115 125 142
105 112 127
151 149 154
176 177 181
173 176 181
170 175 181
168 174 181
166 173 181
164 172 181
163 171 181
161 170 181
160 170 181
159 169 181
158 169 181
157 168 181
156 168 181
155 167 181
155 167 181
154 167 181
153 167 181
153 166 181
153 166 181
152 166 181
152 166 181
152 166 181
152 166 181
151 166 181
151 166 181
151 166 181
151 166 181
152 166 181
152 166 181
152 166 181
152 166 181
153 166 181
153 166 181
154 167 181
154 167 181
155 167 181
156 168 181
156 168 181
157 168 181
158 169 181
159 169 181
160 170 181
161 170 181
163 171 181
164 172 181
166 173 181
168 174 181
170 175 181
172 176 181
175 177 181
179 179 181
215 226 242
223 236 255
223 236 255
223 236 255
223 236 255
223 236 255
223 236 255
223 236 255
223 236 255
223 236 255
223 236 255
223 236 255
223 236 255
223 236 255
223 236 255
223 236 255
223 236 255
223 236 255
223 236 255
223 236 255
223 236 255
223 236 255
223 236 255
223 236 255
223 236 255
223 236 255
223 236 255
223 236 255
223 236 255
223 236 255
223 236 255
223 236 255
223 236 255
223 236 255
223 236 255
223 236 255
223 236 255
223 236 255
223 236 255
223 236 255
223 236 255
223 236 255
223 236 255
223 236 255
223 236 255
223 236 255
223 236 255
223 236 255
223 236 255
223 236 255
223 236 255
223 236 255
223 236 255
223 236 255
223 236 255
223 236 255
223 236 255
223 236 255
223 236 255
223 236 255
223 236 255
223 236 255
223 236 255
223 236 255
223 236 255
223 236 255
223 236 255
223 236 255
223 236 255
223 236 255
223 236 255
223 236 255
223 236 255
223 236 255
223 236 255
223 236 255
223 236 255
223 236 255
223 236 255
223 236 255
223 236 255
223 236 255
223 236 255
223 236 255
223 236 255
223 236 255
223 236 255
223 236 255
223 236 255
223 236 255
223 236 255
223 236 255
223 236 255
223 236 255
223 236 255
223 236 255
223 236 255
223 236 255
223 236 255
223 236 255
223 236 255
223 236 255
223 236 255
223 236 255
223 236 255
223 236 255
223 236 255
223 236 255
213 225 243
151 147 151
120 93 74
124 99 76
105 86 67
115 90 73
110 87 72
115 88 70
108 83 67
109 89 72
99 78 59
104 80 67
112 89 72
120 94 74
135 144 157
113 155 176
133 154 181
123 135 152
136 156 182
123 140 162
122 140 163
128 148 173
134 154 186
119 136 157
118 131 157
139 156 186
124 140 165
91 100 136
59 52 120
68 69 122
88 93 125
93 102 120
100 111 139
100 112 137
97 98 114
123 139 162
102 116 136
117 127 144
113 124 143
161 161 162
176 178 181
173 176 181
171 175 181
168 174 181
167 173 181
165 172 181
164 172 181
163 171 181
161 170 181
160 170 181
159 169 181
158 169 181
157 168 181
156 168 181
156 168 181
155 167 181
154 167 181
154 167 181
153 167 181
153 166 181
153 166 181
152 166 181
152 166 181
152 166 181
152 166 181
152 166 181
152 166 181
152 166 181
152 166 181
152 166 181
152 166 181
153 166 181
153 166 181
153 167 181
154 167 181
155 167 181
155 167 181
156 168 181
156 168 181
157 168 181
158 169 181
159 169 181
160 170 181
161 170 181
162 171 181
163 171 181
165 172 181
167 173 181
169 174 181
171 175 181
173 176 181
177 178 181
189 192 198
223 236 255
223 236 255
223 236 255
223 236 255
223 236 255
223 236 255
223 236 255
223 236 255
223 236 255
223 236 255
223 236 255
223 236 255
223 236 255
223 236 255
223 236 255
223 236 255
223 236 255
223 236 255
223 236 255
223 236 255
223 236 255
223 236 255
223 236 255
223 236 255
223 236 255
223 236 255
223 236 255
223 236 255
223 236 255
223 236 255
223 236 255
223 236 255
223 236 255
223 236 255
223 236 255
223 236 255
223 236 255
223 236 255
223 236 255
223 236 255
223 236 255
223 236 255
223 236 255
223 236 255
223 236 255
223 236 255
223 236 255
223 236 255
223 236 255
223 236 255
223 236 255
223 236 255
223 236 255
223 236 255
223 236 255
223 236 255
223 236 255
223 236 255
223 236 255
223 236 255
223 236 255
223 236 255
223 236 255
223 236 255
223 236 255
223 236 255
223 236 255
223 236 255
223 236 255
223 236 255
223 236 255
223 236 255
223 236 255
223 236 255
223 236 255
223 236 255
223 236 255
223 236 255
223 236 255
223 236 255
223 236 255
223 236 255
223 236 255
223 236 255
223 236 255
223 236 255
223 236 255
223 236 255
223 236 255
223 236 255
223 236 255
223 236 255
223 236 255
223 236 255
223 236 255
223 236 255
223 236 255
223 236 255
223 236 255
223 236 255
223 236 255
223 236 255
223 236 255
223 236 255
223 236 255
223 236 255
223 236 255
207 216 231
112 87 69
120 93 74
113 89 70
107 78 62
124 98 78
126 96 77
109 86 68
122 97 74
112 87 69
113 91 75
118 90 73
100 79 64
146 116 108
140 166 188
130 159 183
123 141 161
119 139 158
107 124 140
78 90 104
44 61 75
80 92 105
128 146 168
132 149 172
113 129 155
131 148 177
83 86 135
37 4 118
75 70 153
73 69 154
71 69 129
125 140 167
92 101 120
72 76 87
103 113 135
133 148 172
119 133 157
139 157 181
161 163 166
177 178 181
174 177 181
172 176 181
170 175 181
168 174 181
167 173 181
165 172 181
163 171 181
162 171 181
161 170 181
160 170 181
159 169 181
158 169 181
157 169 181
157 168 181
156 168 181
155 167 181
155 167 181
154 167 181
154 167 181
154 167 181
153 166 181
153 166 181
153 166 181
153 166 181
153 166 181
152 166 181
153 166 181
153 166 181
153 166 181
153 166 181
153 166 181
153 167 181
154 167 181
154 167 181
155 167 181
155 167 181
155 168 181
156 168 181
157 168 181
157 168 181
158 169 181
159 169 181
160 170 181
161 170 181
163 171 181
163 171 181
165 172 181
166 173 181
168 174 181
170 175 181
172 175 181
175 177 181
178 178 181
202 210 221
223 236 255
223 236 255
223 236 255
223 236 255
223 236 255
223 236 255
223 236 255
223 236 255
223 236 255
223 236 255
223 236 255
223 236 255
223 236 255
223 236 255
223 236 255
223 236 255
223 236 255
223 236 255
223 236 255
223 236 255
223 236 255
223 236 255
223 236 255
223 236 255
223 236 255
223 236 255
223 236 255
223 236 255
223 236 255
223 236 255
223 236 255
223 236 255
223 236 255
223 236 255
223 236 255
223 236 255
223 236 255
223 236 255
223 236 255
223 236 255
223 236 255
223 236 255
223 236 255
223 236 255
223 236 255
223 236 255
223 236 255
223 236 255
223 236 255
223 236 255
223 236 255
223 236 255
223 236 255
223 236 255
223 236 255
223 236 255
223 236 255
223 236 255
223 236 255
223 236 255
223 236 255
223 237 255
223 236 255
223 236 255
223 236 255
223 236 255
223 236 255
223 236 255
223 236 255
223 236 255
223 236 255
223 236 255
223 236 255
223 236 255
223 236 255
223 236 255
223 236 255
223 236 255
223 236 255
223 236 255
209 223 242
223 237 255
223 236 255
223 236 255
215 229 249
223 236 255
223 237 255
223 237 255
216 230 249
223 236 255
223 236 255
223 236 255
223 237 255
223 236 255
223 237 255
223 236 255
223 236 255
223 237 255
223 237 255
223 237 255
223 236 255
223 236 255
216 230 249
223 237 255
216 230 249
223 236 255
184 189 201
115 90 72
95 77 63
111 89 72
110 88 71
107 86 74
89 73 60
113 89 71
131 101 78
110 86 68
123 98 77
109 85 67
99 76 61
157 137 146
150 167 190
142 159 181
131 150 168
111 125 138
116 135 153
64 87 103
9 45 69
136 156 181
138 156 184
143 163 189
132 149 177
132 149 173
66 51 150
46 5 137
52 6 157
35 4 111
45 5 131
137 156 181
139 157 181
144 164 190
137 153 165
123 136 155
100 112 129
119 131 147
172 171 171
176 177 181
173 176 181
171 175 181
170 174 181
168 173 181
166 173 181
165 172 181
164 171 181
162 171 181
161 170 181
160 170 181
160 170 181
159 169 181
158 169 181
157 168 181
157 168 181
156 168 181
156 168 181
155 167 181
155 167 181
154 167 181
154 167 181
154 167 181
154 167 181
153 167 181
153 167 181
153 167 181
153 167 181
153 167 181
153 167 181
154 167 181
154 167 181
154 167 181
154 167 181
155 167 181
155 167 181
155 168 181
156 168 181
157 168 181
157 168 181
158 169 181
159 169 181
160 170 181
160 170 181
162 170 181
162 171 181
163 171 181
165 172 181
166 173 181
168 173 181
169 174 181
171 175 181
173 176 181
176 177 181
180 180 181
216 227 242
223 237 255
223 236 255
223 236 255
223 237 255
223 236 255
223 236 255
223 236 255
223 237 255
223 236 255
223 236 255
223 236 255
223 236 255
223 236 255
223 236 255
223 236 255
223 236 255
223 236 255
223 236 255
223 236 255
223 236 255
223 236 255
223 236 255
223 236 255
223 236 255
223 236 255
223 236 255
223 236 255
223 236 255
223 236 255
223 236 255
223 236 255
223 236 255
223 236 255
223 236 255
223 236 255
223 236 255
223 236 255
223 236 255
223 236 255
223 236 255
223 236 255
216 230 249
223 237 255
223 237 255
216 230 249
216 230 249
217 230 249
217 230 249
208 222 242
223 237 255
223 237 255
223 237 255
210 223 242
223 237 255
210 224 242
210 223 242
209 223 242
223 237 255
216 230 249
223 237 255
223 237 255
209 223 242
202 216 236
223 237 255
223 237 255
223 237 255
217 230 249
208 222 242
223 237 255
194 208 228
208 222 242
208 223 242
196 210 228
216 230 249
202 216 236
208 222 242
186 201 221
178 193 214
202 216 236
209 223 242
193 208 228
201 216 236
201 215 236
208 222 242
208 223 242
200 215 236
192 208 228
185 200 221
167 183 206
216 230 249
202 216 236
200 215 236
216 230 249
203 217 236
215 229 249
209 223 242
202 216 236
193 208 228
193 208 228
208 223 242
201 215 236
210 223 242
216 229 249
194 208 228
183 199 221
161 157 162
112 88 70
107 81 65
104 83 62
113 93 72
114 87 69
119 93 72
105 83 67
119 94 70
116 94 72
101 82 62
107 82 67
137 118 108
152 163 178
140 153 178
134 150 171
127 154 170
108 133 145
77 103 122
13 63 84
6 50 66
127 146 164
116 129 153
125 140 162
124 140 165
119 123 200
51 6 157
53 8 175
53 6 159
75 71 144
77 69 155
166 190 221
150 171 198
142 158 181
134 151 174
115 131 161
128 141 165
171 173 176
177 178 181
175 177 181
173 176 181
171 175 181
169 174 181
167 173 181
166 173 181
165 172 181
164 172 181
163 171 181
162 171 181
161 170 181
160 170 181
159 169 181
158 169 181
158 169 181
157 168 181
157 168 181
157 168 181
156 168 181
156 168 181
155 167 181
155 167 181
155 167 181
155 167 181
154 167 181
155 167 181
154 167 181
154 167 181
154 167 181
154 167 181
155 167 181
155 167 181
155 167 181
155 167 181
155 167 181
156 168 181
156 168 181
157 168 181
157 168 181
158 169 181
159 169 181
159 169 181
160 170 181
161 170 181
162 171 181
163 171 181
164 172 181
165 172 181
166 173 181
168 173 181
169 174 181
171 175 181
172 176 181
175 177 181
177 178 181
178 178 181
208 219 236
195 209 228
208 223 242
200 215 236
209 223 242
217 230 249
215 229 249
210 223 242
196 210 228
209 223 242
201 216 236
200 215 236
208 223 242
216 230 249
216 230 249
223 237 255
216 230 249
216 230 249
216 230 249
223 237 255
223 237 255
216 230 249
216 230 249
215 229 249
223 237 255
223 237 255
223 237 255
216 230 249
223 237 255
215 229 249
200 215 236
193 208 228
223 237 255
202 216 236
223 237 255
209 223 242
223 237 255
223 237 255
223 237 255
223 236 255
223 237 255
186 201 221
178 193 214
200 215 236
216 230 249
184 200 221
192 207 228
203 217 236
155 174 198
169 185 206
179 194 214
185 200 221
186 201 221
186 201 221
176 192 214
195 209 228
170 185 206
177 193 214
184 200 221
176 192 214
186 201 221
169 184 206
186 201 221
168 184 206
186 201 221
159 175 198
184 200 221
185 200 221
167 184 206
177 192 214
157 175 198
178 193 214
160 176 198
145 164 189
158 175 198
164 178 198
175 192 214
158 175 198
171 186 206
158 175 198
176 192 214
158 175 198
134 154 181
163 178 198
159 175 198
178 193 214
185 200 221
177 192 214
165 183 206
177 192 214
157 175 198
159 176 198
149 166 189
159 175 198
159 176 198
145 164 189
148 166 189
160 176 198
168 184 206
155 174 198
149 166 189
187 201 221
156 174 198
170 185 206
167 184 206
113 119 133
101 82 64
108 86 67
108 84 66
108 85 68
115 90 72
120 93 75
111 88 70
99 78 67
114 86 71
108 83 66
113 90 72
146 142 144
121 136 152
142 154 173
118 140 154
146 182 189
121 137 157
66 99 120
11 43 59
107 127 150
111 122 137
117 125 137
129 147 171
111 117 131
113 123 165
57 7 180
57 7 179
58 6 174
81 70 167
177 191 211
199 218 243
166 190 198
157 174 198
136 155 181
121 139 162
126 133 141
179 179 181
176 178 181
174 177 181
172 176 181
171 175 181
169 174 181
168 173 181
166 173 181
165 172 181
164 172 181
163 171 181
162 171 181
162 170 181
161 170 181
160 170 181
159 169 181
159 169 181
158 169 181
158 169 181
157 168 181
157 168 181
157 168 181
156 168 181
156 168 181
156 168 181
156 168 181
155 168 181
156 168 181
155 167 181
155 168 181
155 168 181
156 168 181
156 168 181
156 168 181
156 168 181
156 168 181
157 168 181
157 168 181
157 168 181
158 169 181
158 169 181
159 169 181
159 169 181
160 170 181
161 170 181
161 170 181
162 171 181
163 171 181
164 172 181
165 172 181
166 173 181
168 173 181
169 174 181
171 175 181
172 176 181
174 177 181
176 178 181
179 179 181
177 185 198
169 184 206
177 193 214
175 191 214
166 183 206
157 175 198
169 184 206
178 193 214
146 164 189
188 202 221
158 175 198
185 200 221
149 167 189
184 200 221
184 200 221
194 208 228
157 174 198
193 208 228
148 166 189
168 184 206
193 208 228
177 192 214
187 201 221
209 223 242
193 208 228
176 192 214
199 215 236
216 230 249
185 200 221
177 193 214
200 215 236
176 192 214
187 202 221
156 174 198
184 200 221
185 200 221
183 199 221
192 208 228
209 223 242
201 216 236
166 183 206
149 166 189
168 184 206
147 165 189
139 157 181
136 155 181
137 156 181
148 166 189
139 157 181
142 158 181
139 157 181
158 175 198
133 154 181
136 155 181
137 156 181
159 176 198
135 155 181
138 156 181
150 167 189
150 167 189
139 157 181
142 158 181
139 157 181
150 167 189
140 157 181
137 156 181
137 156 181
140 158 181
136 155 181
139 157 181
140 158 181
140 157 181
141 158 181
135 155 181
133 154 181
141 158 181
133 154 181
136 156 181
134 154 181
141 158 181
136 155 181
138 157 181
139 157 181
146 165 189
139 157 181
138 157 181
138 156 181
136 155 181
138 156 181
141 158 181
137 156 181
145 160 181
134 155 181
135 155 181
137 156 181
138 157 181
136 155 181
132 153 181
141 158 181
140 158 181
138 156 181
134 155 181
137 156 181
137 156 181
140 153 173
121 113 114
113 90 69
102 77 61
124 96 76
98 79 67
115 90 72
109 84 68
106 84 69
87 66 53
120 92 74
108 84 68
104 80 64
143 146 157
108 125 119
153 154 169
139 166 188
160 208 226
122 136 155
67 96 116
49 83 98
134 156 164
99 105 117
107 104 107
120 133 152
119 134 156
121 138 173
70 50 176
74 49 192
95 94 163
97 131 146
121 131 150
97 109 122
112 127 140
152 159 189
105 141 146
86 112 108
173 171 172
178 179 181
176 177 181
173 176 181
172 176 181
171 175 181
169 174 181
168 174 181
167 173 181
166 173 181
165 172 181
164 172 181
163 171 181
162 171 181
162 171 181
161 170 181
160 170 181
160 170 181
159 169 181
159 169 181
158 169 181
158 169 181
158 169 181
157 168 181
157 168 181
157 168 181
157 168 181
157 168 181
157 168 181
156 168 181
157 168 181
156 168 181
157 168 181
157 168 181
157 168 181
157 168 181
157 168 181
158 169 181
158 169 181
158 169 181
159 169 181
159 169 181
160 170 181
160 170 181
161 170 181
162 171 181
162 171 181
163 171 181
164 172 181
165 172 181
166 173 181
167 173 181
168 174 181
169 174 181
170 175 181
172 176 181
174 177 181
176 177 181
179 179 181
178 178 181
155 169 189
151 168 189
147 165 189
136 156 181
140 157 181
138 157 181
137 156 181
137 156 181
138 156 181
148 166 189
140 157 181
139 157 181
136 156 181
140 158 181
137 156 181
140 158 181
135 155 181
139 157 181
169 185 206
150 167 189
137 156 181
136 156 181
140 158 181
158 175 198
144 160 181
148 166 189
136 155 181
139 157 181
134 154 181
139 157 181
158 175 198
141 158 181
149 166 189
148 166 189
149 167 189
160 176 198
141 158 181
146 164 189
148 166 189
133 154 181
137 156 181
135 155 181
132 153 181
139 157 181
136 155 181
137 156 181
140 158 181
137 156 181
142 158 181
137 156 181
139 157 181
135 155 181
138 156 181
136 156 181
134 155 181
135 155 181
138 156 181
139 157 181
140 157 181
137 156 181
134 154 181
140 158 181
136 156 181
138 156 181
139 157 181
140 158 181
138 156 181
138 156 181
136 155 181
135 155 181
138 156 181
138 156 181
140 157 181
139 157 181
135 155 181
136 156 181
134 154 181
138 156 181
135 155 181
135 155 181
137 156 181
140 158 181
138 156 181
135 155 181
139 157 181
136 155 181
138 157 181
140 158 181
138 157 181
137 156 181
140 157 181
137 156 181
138 156 181
134 154 181
136 155 181
139 157 181
137 156 181
138 156 181
140 157 181
139 157 181
137 156 181
137 156 181
139 157 181
136 151 172
112 109 114
109 84 67
111 86 70
102 78 63
107 84 68
99 80 62
106 84 66
119 93 75
115 88 70
105 82 65
118 92 73
98 78 65
184 194 209
135 142 141
170 171 189
151 179 197
133 166 192
110 131 157
133 162 163
134 156 170
134 146 163
93 72 51
136 126 125
116 128 143
126 146 172
130 148 171
117 134 152
122 139 161
87 99 107
125 141 169
129 145 167
131 148 172
93 109 143
132 150 171
66 126 84
166 167 171
180 180 181
178 179 181
175 177 181
174 177 181
172 176 181
171 175 181
170 174 181
169 174 181
167 173 181
166 173 181
165 172 181
165 172 181
164 172 181
163 171 181
163 171 181
162 171 181
161 170 181
161 170 181
160 170 181
160 170 181
160 170 181
159 169 181
159 169 181
159 169 181
158 169 181
158 169 181
158 169 181
158 169 181
158 169 181
158 169 181
158 169 181
158 169 181
158 169 181
158 169 181
158 169 181
158 169 181
159 169 181
159 169 181
159 169 181
159 169 181
160 170 181
160 170 181
161 170 181
161 170 181
162 171 181
163 171 181
163 171 181
164 172 181
165 172 181
166 172 181
167 173 181
167 173 181
168 174 181
169 174 181
171 175 181
172 176 181
174 177 181
175 177 181
177 178 181
180 180 181
160 168 181
137 156 181
137 156 181
134 155 181
139 157 181
135 155 181
138 156 181
137 156 181
137 156 181
138 156 181
136 155 181
138 156 181
136 156 181
137 156 181
140 157 181
140 158 181
138 156 181
138 156 181
137 156 181
140 157 181
135 155 181
138 157 181
138 157 181
137 156 181
136 155 181
136 155 181
138 157 181
140 157 181
137 156 181
136 155 181
138 156 181
140 158 181
139 157 181
140 157 181
134 154 181
137 156 181
139 157 181
135 155 181
140 158 181
132 153 181
138 157 181
135 155 181
138 156 181
139 157 181
138 156 181
138 156 181
134 154 181
140 158 181
137 156 181
134 154 181
140 157 181
138 156 181
138 156 181
136 155 181
137 156 181
141 158 181
140 157 181
137 156 181
141 158 181
137 156 181
135 155 181
134 155 181
138 156 181
137 156 181
135 155 181
140 157 181
137 156 181
138 156 181
139 157 181
137 156 181
138 156 181
137 156 181
134 154 181
138 157 181
137 156 181
140 158 181
136 155 181
140 157 181
140 157 181
136 156 181
136 156 181
138 156 181
139 157 181
139 157 181
135 155 181
137 156 181
137 156 181
133 154 181
136 155 181
137 156 181
136 155 181
138 156 181
138 157 181
134 154 181
139 157 181
136 155 181
136 155 181
139 157 181
136 155 181
136 155 181
134 154 181
135 155 181
138 157 181
135 155 181
115 115 122
109 86 68
104 81 64
109 85 67
108 85 68
106 83 67
111 84 66
114 87 68
116 85 69
104 80 65
88 67 55
107 81 76
138 134 150
132 134 172
115 130 143
111 128 145
116 152 201
96 133 184
159 187 196
139 153 158
118 124 136
148 126 109
106 82 60
129 132 151
144 163 185
91 115 123
113 134 144
85 104 81
73 94 57
102 118 114
142 161 186
136 155 181
111 121 137
116 128 148
92 134 112
177 176 176
179 179 181
177 178 181
176 177 181
174 177 181
172 176 181
171 175 181
170 175 181
169 174 181
168 174 181
167 173 181
166 173 181
166 172 181
165 172 181
164 172 181
164 172 181
163 171 181
162 171 181
162 171 181
162 170 181
161 170 181
161 170 181
160 170 181
160 170 181
160 170 181
160 170 181
159 169 181
160 169 181
159 169 181
159 169 181
159 169 181
159 169 181
159 169 181
159 169 181
159 169 181
159 169 181
160 170 181
160 170 181
160 170 181
160 170 181
161 170 181
161 170 181
162 170 181
162 171 181
163 171 181
163 171 181
164 171 181
164 172 181
165 172 181
166 173 181
166 173 181
167 173 181
168 174 181
169 174 181
170 175 181
171 175 181
173 176 181
174 177 181
175 177 181
177 178 181
179 179 181
178 178 181
135 155 181
138 156 181
138 157 181
142 174 183
142 164 181
142 164 181
138 162 181
141 158 181
136 155 181
140 157 181
135 155 181
133 154 181
136 155 181
137 156 181
141 158 181
138 156 181
125 154 172
139 157 181
94 150 153
110 152 163
129 147 171
133 149 174
127 141 166
134 145 166
132 149 174
143 159 181
142 158 181
136 155 181
142 150 187
148 115 210
147 105 216
143 151 187
139 157 181
136 155 181
125 146 124
123 142 139
138 156 174
137 155 174
136 155 181
132 153 181
137 156 181
137 156 181
137 156 181
137 156 181
140 158 181
134 155 181
137 156 181
140 157 181
138 157 181
139 157 181
139 157 181
136 155 181
138 156 181
136 155 181
139 157 181
140 158 181
137 156 181
140 157 181
138 156 181
138 156 181
137 156 181
135 155 181
139 157 181
134 154 181
137 156 181
139 157 181
135 155 181
138 156 181
141 158 181
139 157 181
129 152 173
137 156 181
135 155 181
141 158 181
139 157 181
138 156 181
135 155 181
135 155 181
140 157 181
135 155 181
138 156 181
138 156 181
139 157 181
136 155 181
142 162 187
139 157 181
136 155 181
134 155 181
144 159 181
136 155 181
139 157 181
137 156 181
134 154 181
136 155 181
136 155 181
134 154 181
136 155 181
141 158 181
135 155 181
141 163 182
130 148 171
131 153 173
135 155 181
130 139 155
111 87 70
77 63 49
104 82 65
115 89 70
107 80 63
95 72 58
114 88 70
97 71 61
108 84 68
104 84 67
124 108 103
145 141 176
137 147 167
133 158 165
94 124 118
138 165 200
121 140 172
144 160 181
148 109 135
103 95 127
142 122 106
131 125 114
121 135 151
94 109 128
110 143 141
105 134 141
92 113 81
78 98 40
90 110 81
143 160 181
140 159 181
101 122 130
92 53 77
115 102 115
181 180 181
179 179 181
177 178 181
176 178 181
174 177 181
173 176 181
172 176 181
171 175 181
170 174 181
169 174 181
168 174 181
167 173 181
167 173 181
166 172 181
165 172 181
165 172 181
164 172 181
164 171 181
163 171 181
163 171 181
162 171 181
162 171 181
162 171 181
162 171 181
161 170 181
161 170 181
161 170 181
161 170 181
161 170 181
160 170 181
160 170 181
161 170 181
161 170 181
161 170 181
161 170 181
161 170 181
161 170 181
161 170 181
162 171 181
162 171 181
162 171 181
162 171 181
163 171 181
163 171 181
164 172 181
164 172 181
165 172 181
165 172 181
166 173 181
166 173 181
167 173 181
168 174 181
169 174 181
170 174 181
171 175 181
172 176 181
173 176 181
174 177 181
176 178 181
177 178 181
179 179 181
182 181 181
158 160 175
136 155 181
143 170 182
157 204 188
152 197 187
148 191 186
148 177 183
139 157 181
137 156 181
141 158 181
123 149 183
116 146 185
127 151 182
140 157 181
133 154 181
124 155 172
98 148 148
40 124 111
45 142 126
43 134 119
103 146 154
116 124 141
108 93 113
120 115 133
122 123 142
134 154 181
139 157 181
143 134 199
147 64 213
151 45 224
134 70 198
99 113 137
118 120 161
118 136 133
116 127 116
133 151 142
128 147 165
137 156 181
129 147 171
137 156 181
137 156 181
140 158 181
141 158 181
137 156 181
140 158 181
141 158 181
140 158 181
136 156 181
137 156 181
127 152 175
131 155 175
117 152 165
130 148 171
139 157 181
132 154 175
135 155 181
137 156 181
137 156 181
137 156 181
138 156 181
138 156 181
138 157 181
135 155 181
139 165 185
139 168 187
139 169 187
133 154 174
139 161 183
111 141 157
108 140 149
123 144 164
110 140 148
137 156 181
136 155 181
136 155 181
142 158 181
135 155 181
137 156 181
142 159 181
137 156 181
141 158 181
136 155 181
152 172 193
162 187 211
165 192 217
149 178 201
140 163 188
139 157 181
140 158 181
137 156 181
136 155 181
140 158 181
133 154 181
136 156 181
136 155 181
137 156 181
139 157 181
135 155 181
125 146 171
129 151 170
133 190 189
137 188 192
141 179 188
137 164 156
112 95 88
94 72 58
107 82 66
114 88 69
80 61 53
97 72 55
93 73 60
65 50 41
102 80 66
100 78 63
99 86 80
173 178 188
105 105 128
134 160 170
121 150 148
90 142 185
121 131 164
140 122 160
121 39 80
101 52 133
113 122 139
103 119 75
79 100 63
111 142 138
143 185 178
123 143 145
111 124 113
75 100 6
142 158 162
137 156 181
84 95 102
74 108 74
101 65 73
169 150 159
181 180 181
179 179 181
177 178 181
176 178 181
175 177 181
173 176 181
172 176 181
172 175 181
170 175 181
170 175 181
169 174 181
168 174 181
168 173 181
167 173 181
167 173 181
166 173 181
166 173 181
165 172 181
165 172 181
164 172 181
164 172 181
164 172 181
163 171 181
163 171 181
163 171 181
163 171 181
162 171 181
162 171 181
162 171 181
162 171 181
162 171 181
162 171 181
162 171 181
162 171 181
162 171 181
163 171 181
162 171 181
163 171 181
163 171 181
163 171 181
164 171 181
164 172 181
164 172 181
165 172 181
165 172 181
165 172 181
166 173 181
166 173 181
167 173 181
168 173 181
168 174 181
169 174 181
170 175 181
171 175 181
172 175 181
172 176 181
173 176 181
175 177 181
176 178 181
177 178 181
179 179 181
181 180 181
166 157 167
150 133 153
149 158 157
157 202 175
160 213 189
169 218 189
145 184 170
135 163 175
117 144 178
104 140 186
79 128 183
99 139 187
89 136 189
127 151 182
139 157 181
117 150 165
68 117 117
41 122 137
42 132 118
31 100 91
60 106 99
135 127 156
168 153 198
144 125 162
166 151 192
149 150 179
135 155 181
131 115 176
134 40 195
108 39 162
76 53 112
51 61 89
49 59 87
49 61 92
96 111 77
119 136 158
134 149 179
130 144 157
142 160 182
136 155 181
139 157 181
141 158 181
137 156 181
125 142 140
130 146 151
129 150 171
137 154 171
139 157 181
126 149 166
73 142 135
63 138 122
39 116 100
77 140 132
94 142 147
111 145 159
93 139 147
101 135 148
135 155 181
139 157 181
137 156 181
136 156 181
138 156 181
141 167 185
145 190 197
138 192 201
138 189 199
145 187 195
89 129 128
61 118 107
8 108 81
7 103 77
99 137 141
137 156 181
137 156 181
142 158 181
142 163 181
154 183 183
151 181 183
147 171 182
139 157 181
136 155 181
151 171 192
186 212 233
178 211 238
141 182 206
135 181 206
129 172 194
129 164 185
139 160 182
141 158 181
138 156 181
136 155 181
141 158 181
139 157 181
137 156 181
139 157 181
134 153 176
99 123 145
83 111 133
94 121 144
90 129 141
126 181 183
141 198 194
141 181 175
107 86 65
83 60 53
96 72 57
77 64 49
107 82 65
87 62 52
99 77 62
101 79 61
93 71 54
94 75 56
123 121 126
166 176 209
170 164 189
103 93 109
136 133 159
123 157 185
99 86 104
148 150 192
130 88 140
149 86 186
131 131 157
81 93 76
104 122 123
138 169 174
109 172 182
117 119 161
135 132 166
100 119 147
110 111 136
90 128 106
48 57 37
61 121 64
105 131 104
183 181 181
181 180 181
179 179 181
178 179 181
176 178 181
176 177 181
174 177 181
173 176 181
173 176 181
172 175 181
171 175 181
170 175 181
170 174 181
169 174 181
168 174 181
168 174 181
167 173 181
167 173 181
167 173 181
166 173 181
166 172 181
166 172 181
165 172 181
165 172 181
164 172 181
164 172 181
164 172 181
164 172 181
164 172 181
164 172 181
164 172 181
164 172 181
164 172 181
164 172 181
164 172 181
164 172 181
164 172 181
164 172 181
164 172 181
165 172 181
165 172 181
165 172 181
166 172 181
166 172 181
166 172 181
166 173 181
167 173 181
167 173 181
168 173 181
168 174 181
169 174 181
169 174 181
170 175 181
171 175 181
172 175 181
172 176 181
173 176 181
174 177 181
175 177 181
176 178 181
178 179 181
179 179 181
181 180 181
183 181 181
156 70 122
157 153 147
142 171 154
151 195 169
143 186 163
144 184 170
124 158 172
93 122 173
125 102 148
105 96 148
60 111 180
68 118 176
107 140 181
138 156 181
110 133 162
64 88 169
40 113 154
35 98 151
43 133 118
99 104 121
143 127 165
190 177 232
190 177 232
193 179 232
164 161 200
149 105 158
143 58 174
140 36 186
94 45 139
40 48 76
48 58 83
50 60 88
62 74 100
93 102 116
133 140 134
124 122 80
114 118 106
112 110 107
131 156 186
138 157 181
136 154 171
115 131 99
107 118 57
109 121 57
110 122 57
123 139 128
140 158 181
93 141 140
46 130 111
40 114 98
41 123 102
61 133 123
73 125 128
43 118 111
44 123 116
101 133 146
103 137 156
137 151 180
136 155 181
136 155 181
135 155 177
142 182 187
126 183 177
146 197 201
136 183 188
146 197 201
102 148 142
6 88 61
7 103 77
7 99 72
43 109 94
98 132 138
130 150 172
140 157 181
167 202 184
169 213 186
156 160 185
158 125 177
133 79 154
130 122 163
138 156 176
153 178 192
155 189 208
113 159 179
119 160 193
110 162 185
108 152 173
128 163 185
135 155 181
137 156 181
129 150 182
101 128 189
108 135 187
115 139 186
132 152 182
124 141 162
84 97 117
85 87 100
101 77 79
68 84 114
67 104 131
129 174 177
113 154 153
104 120 122
88 67 56
104 82 64
85 66 54
97 75 57
113 89 70
109 82 64
99 78 62
92 73 61
98 75 61
124 124 138
198 206 227
208 220 236
179 195 214
166 181 198
174 188 210
159 149 175
110 143 174
170 167 180
139 135 159
142 150 174
58 65 71
145 164 189
114 146 175
137 173 211
100 73 124
144 156 188
60 81 167
168 170 200
69 141 88
115 121 132
126 136 153
135 140 138
183 181 181
181 180 181
179 179 181
178 179 181
177 178 181
176 178 181
175 177 181
174 177 181
173 176 181
173 176 181
172 176 181
171 175 181
171 175 181
170 175 181
170 174 181
169 174 181
168 174 181
168 174 181
168 174 181
167 173 181
167 173 181
167 173 181
167 173 181
167 173 181
166 173 181
166 173 181
165 172 181
166 173 181
166 172 181
166 172 181
165 172 181
166 172 181
165 172 181
165 172 181
165 172 181
165 172 181
166 172 181
166 173 181
166 173 181
166 173 181
166 173 181
167 173 181
167 173 181
167 173 181
167 173 181
168 173 181
168 174 181
169 174 181
169 174 181
169 174 181
170 175 181
171 175 181
171 175 181
172 175 181
172 176 181
173 176 181
174 177 181
175 177 181
176 178 181
177 178 181
178 179 181
179 179 181
181 180 181
183 182 181
171 132 151
134 50 104
124 97 112
107 145 125
105 144 115
102 134 141
131 146 157
146 89 110
106 69 99
63 78 116
34 76 111
67 89 137
110 131 159
113 133 166
91 111 177
26 51 139
28 57 158
31 62 173
75 91 164
112 125 151
161 152 204
183 167 214
186 166 215
183 164 208
186 162 207
140 11 125
155 20 149
135 21 140
121 33 119
80 47 92
44 56 80
40 49 71
67 72 78
102 102 82
106 103 53
103 97 49
125 118 60
125 118 60
118 159 202
118 141 181
129 132 149
109 103 51
99 107 8
95 104 8
105 115 9
105 118 81
125 146 156
58 121 109
37 104 86
41 112 94
41 118 94
37 105 95
41 111 105
61 112 138
52 102 122
74 69 159
85 84 149
104 99 177
130 143 180
114 174 158
125 155 161
106 182 152
100 203 149
127 179 168
114 152 151
114 158 158
51 98 90
5 85 58
7 97 72
7 98 72
8 107 77
78 114 114
127 147 172
136 180 165
118 192 163
161 179 182
165 122 188
150 48 179
149 48 177
161 49 184
159 143 190
141 163 190
152 182 219
155 189 241
156 189 241
140 181 222
106 149 171
115 153 175
139 157 181
132 151 182
63 101 179
25 100 196
20 88 192
48 88 165
85 107 146
124 134 161
102 77 79
96 60 54
97 66 77
64 65 123
34 71 133
10 68 156
71 100 151
115 140 157
97 79 60
80 64 57
78 58 45
105 80 63
92 75 59
91 63 53
103 79 63
93 72 57
98 75 61
99 81 104
190 198 217
202 216 236
207 223 242
219 224 248
222 236 255
222 236 255
202 219 234
222 236 255
208 222 242
211 226 244
215 229 249
201 216 236
208 222 242
201 215 237
194 209 230
196 210 229
170 194 207
216 230 249
193 208 228
194 210 226
188 202 221
179 184 193
183 181 181
181 180 181
180 180 181
179 179 181
178 179 181
177 178 181
176 178 181
175 177 181
174 177 181
174 177 181
173 176 181
172 176 181
172 176 181
171 175 181
171 175 181
170 175 181
170 175 181
170 175 181
169 174 181
169 174 181
168 174 181
168 174 181
168 174 181
168 174 181
168 173 181
168 173 181
167 173 181
167 173 181
167 173 181
167 173 181
167 173 181
167 173 181
167 173 181
167 173 181
167 173 181
167 173 181
168 173 181
168 173 181
167 173 181
168 174 181
168 174 181
168 174 181
168 174 181
168 174 181
169 174 181
169 174 181
170 174 181
170 175 181
170 175 181
171 175 181
171 175 181
172 175 181
172 176 181
173 176 181
174 176 181
174 177 181
175 177 181
176 178 181
177 178 181
178 178 181
179 179 181
180 180 181
181 180 181
183 181 181
164 164 163
127 35 96
125 120 132
95 126 111
102 136 119
142 175 178
122 130 133
127 125 126
37 72 104
35 69 100
33 67 97
34 66 96
81 104 131
95 114 157
26 54 148
26 51 147
28 59 167
32 62 174
50 68 144
92 97 145
138 127 164
134 116 158
140 123 177
126 93 160
100 54 137
104 40 133
132 22 129
135 11 122
129 11 111
67 28 72
56 65 86
41 49 66
83 84 75
99 93 51
105 95 49
99 94 49
106 102 52
98 94 46
99 130 190
122 81 144
130 80 124
110 81 73
127 87 74
118 81 68
95 97 33
110 123 81
98 113 99
101 132 141
34 91 86
31 90 76
30 87 73
30 83 76
44 91 97
61 70 125
72 50 155
85 57 175
70 52 141
75 53 156
95 120 155
106 174 148
92 163 134
75 150 115
69 174 118
56 177 108
80 119 118
70 101 104
80 117 111
4 71 52
6 85 62
7 94 69
43 77 71
78 145 133
56 166 133
35 169 128
86 188 148
105 183 153
142 125 188
170 167 233
167 129 215
158 141 212
155 98 187
146 159 197
164 194 241
154 188 241
153 188 241
146 179 225
144 175 221
93 127 150
124 152 173
117 160 182
39 134 185
43 143 179
38 128 158
29 102 163
25 75 147
80 86 113
98 64 59
95 59 55
91 67 94
10 68 156
10 65 143
19 90 122
17 81 116
62 108 100
76 74 48
89 68 54
92 67 53
112 81 62
97 76 57
86 74 51
105 74 62
102 77 61
103 81 64
132 134 146
194 206 227
213 228 249
220 235 255
213 228 249
210 223 243
214 223 251
219 235 255
221 235 255
214 228 249
221 236 255
221 235 255
200 212 232
221 236 255
221 235 255
210 225 243
222 236 255
207 221 240
214 229 249
216 230 249
216 230 249
207 215 237
180 181 177
183 181 181
182 181 181
180 180 181
179 179 181
179 179 181
178 179 181
177 178 181
176 178 181
175 177 181
175 177 181
174 177 181
174 177 181
173 176 181
173 176 181
172 176 181
172 176 181
172 176 181
171 175 181
171 175 181
171 175 181
170 175 181
170 174 181
170 175 181
170 174 181
169 174 181
169 174 181
169 174 181
169 174 181
169 174 181
168 174 181
168 174 181
169 174 181
169 174 181
168 174 181
169 174 181
169 174 181
169 174 181
169 174 181
169 174 181
169 174 181
169 174 181
170 174 181
170 175 181
170 175 181
171 175 181
171 175 181
171 175 181
171 175 181
171 175 181
172 176 181
172 176 181
173 176 181
174 177 181
174 177 181
175 177 181
175 177 181
176 178 181
177 178 181
178 179 181
178 179 181
179 179 181
180 180 181
181 180 181
183 181 181
173 172 171
96 59 93
129 140 157
136 157 173
130 155 170
141 174 175
145 175 175
142 195 188
112 156 157
31 63 88
35 70 101
32 66 97
77 101 133
77 100 159
21 33 95
27 55 153
23 47 130
24 51 144
68 86 155
97 100 135
111 109 137
110 103 145
92 84 156
67 59 158
62 55 147
65 57 151
87 52 122
105 36 88
135 21 115
113 72 127
98 107 130
113 131 154
106 113 127
94 97 102
96 90 45
82 79 40
96 92 47
91 77 47
117 40 98
124 38 99
129 41 107
139 42 107
155 40 102
148 38 99
140 44 92
132 74 79
133 139 154
140 158 181
80 116 120
58 107 95
52 101 96
63 93 103
44 93 101
56 54 119
69 49 139
78 51 155
69 43 132
73 68 139
77 76 129
75 100 98
94 96 112
84 107 108
80 146 112
72 186 118
72 186 121
103 127 141
111 134 149
84 115 122
96 116 130
87 116 123
98 147 147
82 159 140
31 151 117
33 168 125
36 173 132
99 174 173
170 179 238
158 191 249
160 192 249
164 194 249
151 130 198
148 175 200
146 182 221
165 192 235
133 165 197
161 188 234
137 155 196
122 150 183
126 160 181
103 143 159
51 163 179
47 154 165
49 161 175
38 122 146
27 96 124
59 38 38
81 51 47
76 54 74
12 55 120
8 57 125
19 90 121
26 110 71
27 116 18
30 125 19
58 102 43
79 61 48
82 66 49
102 77 60
84 54 41
92 69 57
110 77 60
82 56 45
95 73 60
137 138 147
194 208 229
190 212 221
218 234 255
219 234 255
219 234 255
205 221 242
220 235 255
213 228 249
202 218 243
220 235 255
220 235 255
220 235 255
203 216 236
213 223 244
213 228 249
221 235 255
221 235 255
221 235 255
221 235 255
204 217 236
201 205 214
185 182 181
183 181 181
182 181 181
181 180 181
180 180 181
179 179 181
179 179 181
178 179 181
177 178 181
177 178 181
176 178 181
176 178 181
175 177 181
175 177 181
174 177 181
174 177 181
173 176 181
173 176 181
173 176 181
173 176 181
172 176 181
172 176 181
172 176 181
171 175 181
171 175 181
171 175 181
171 175 181
171 175 181
171 175 181
171 175 181
170 175 181
171 175 181
170 175 181
170 175 181
170 175 181
171 175 181
171 175 181
171 175 181
171 175 181
171 175 181
171 175 181
171 175 181
171 175 181
171 175 181
172 176 181
172 176 181
172 176 181
173 176 181
173 176 181
173 176 181
174 176 181
174 177 181
174 177 181
175 177 181
175 177 181
176 178 181
176 178 181
177 178 181
178 179 181
178 179 181
179 179 181
180 180 181
181 180 181
182 181 181
183 181 181
185 182 181
101 77 104
115 132 160
119 156 154
94 135 117
115 174 150
121 178 162
147 204 198
151 204 199
127 170 164
81 113 121
30 58 82
70 86 106
90 106 134
86 99 129
26 53 147
20 39 110
25 50 145
78 94 149
102 117 159
107 111 138
100 100 150
61 54 145
68 58 155
62 51 121
53 42 59
69 47 74
67 52 50
67 53 52
95 94 111
103 115 140
122 133 162
125 139 157
109 116 118
75 71 37
70 66 33
83 60 52
116 70 73
97 28 77
129 42 108
126 38 97
147 40 101
145 36 94
135 35 87
127 31 109
131 32 115
115 73 164
123 142 163
111 138 156
117 134 152
87 112 122
107 127 144
78 102 110
69 48 150
66 42 130
69 67 132
67 73 108
82 109 98
90 117 99
80 95 89
86 92 103
82 83 98
77 79 92
68 144 99
89 163 132
111 152 152
119 142 164
141 158 181
90 111 119
97 115 130
102 151 150
53 145 118
32 156 120
33 160 123
28 140 109
120 167 186
174 200 249
164 194 249
156 185 216
149 174 204
149 175 204
129 167 184
146 175 197
110 134 157
130 160 196
127 150 187
99 118 150
121 139 166
112 111 172
73 99 149
96 75 167
84 57 138
55 117 138
46 149 160
33 113 151
108 122 137
85 66 70
78 55 67
36 52 107
7 50 114
21 99 93
25 107 51
27 112 17
27 114 17
34 92 23
62 79 36
99 78 58
85 65 52
75 52 39
87 65 53
96 77 62
87 65 51
103 78 61
88 65 53
179 201 209
188 206 227
206 222 242
200 215 236
218 234 255
218 234 255
218 234 255
211 231 245
212 227 249
208 223 244
219 234 255
219 234 255
220 235 255
211 229 244
212 229 244
207 226 246
220 235 255
210 223 244
210 224 244
214 223 244
199 206 217
185 182 181
184 182 181
183 181 181
182 181 181
181 180 181
180 180 181
180 180 181
179 179 181
179 179 181
178 179 181
177 178 181
177 178 181
177 178 181
176 178 181
176 177 181
175 177 181
175 177 181
175 177 181
174 177 181
174 177 181
174 177 181
173 176 181
173 176 181
173 176 181
173 176 181
173 176 181
173 176 181
172 176 181
172 176 181
172 176 181
172 176 181
172 176 181
172 176 181
172 176 181
172 176 181
172 176 181
172 176 181
172 176 181
173 176 181
173 176 181
173 176 181
173 176 181
173 176 181
173 176 181
173 176 181
173 176 181
174 177 181
174 177 181
174 177 181
174 177 181
175 177 181
175 177 181
176 178 181
176 178 181
177 178 181
177 178 181
177 178 181
178 179 181
179 179 181
179 179 181
180 180 181
181 180 181
182 181 181
183 181 181
184 182 181
185 182 181
129 146 172
113 139 145
75 114 96
82 143 95
71 138 77
125 175 164
139 189 193
139 188 203
143 188 192
92 128 146
87 116 127
66 84 108
83 103 142
75 89 129
86 101 138
77 92 138
88 104 149
105 123 164
115 132 156
132 146 174
88 90 148
56 52 133
63 53 140
65 53 99
66 52 50
63 49 47
66 50 48
68 52 49
67 52 51
115 126 143
128 147 171
123 142 165
105 120 141
109 123 140
117 130 142
121 75 91
151 68 95
111 36 92
102 31 79
115 32 84
144 37 94
128 33 101
121 28 149
117 24 167
89 12 170
89 14 162
98 51 187
96 94 150
112 135 155
123 141 162
124 143 164
112 126 152
98 111 130
60 52 119
71 85 103
84 113 92
89 121 100
86 116 95
81 106 87
81 105 92
83 89 99
74 75 87
89 91 104
87 113 117
127 158 169
128 147 171
129 149 169
129 150 174
131 150 173
109 139 150
82 137 127
32 155 117
29 132 108
82 128 131
103 136 159
158 179 218
168 190 227
165 188 218
145 173 194
136 162 185
133 154 175
138 163 185
145 173 190
95 118 148
105 128 165
108 129 158
105 117 146
107 12 162
88 10 136
92 62 131
98 11 150
85 78 154
65 103 129
83 142 158
107 124 139
126 141 162
60 40 35
36 50 105
75 95 138
13 61 72
26 107 16
23 99 15
23 93 14
21 85 13
66 96 38
98 87 60
83 63 48
91 70 54
98 73 56
97 75 60
91 60 51
82 55 46
85 67 54
169 182 202
205 225 247
202 219 242
216 233 255
211 227 249
206 221 242
209 223 244
217 233 255
217 233 255
211 227 249
218 233 255
211 227 249
218 234 255
219 234 255
218 234 255
218 234 255
219 234 255
218 234 255
211 227 252
219 234 255
183 191 202
185 182 181
184 182 181
183 181 181
183 181 181
182 181 181
181 180 181
181 180 181
180 180 181
180 180 181
179 179 181
179 179 181
178 179 181
178 179 181
177 178 181
177 178 181
177 178 181
176 178 181
176 178 181
176 178 181
175 177 181
175 177 181
175 177 181
175 177 181
175 177 181
174 177 181
174 177 181
175 177 181
174 177 181
174 177 181
174 177 181
174 177 181
174 177 181
174 177 181
174 177 181
174 177 181
174 177 181
174 177 181
174 177 181
174 177 181
174 177 181
175 177 181
174 177 181
174 177 181
175 177 181
175 177 181
175 177 181
176 178 181
176 178 181
176 178 181
176 178 181
176 178 181
177 178 181
177 178 181
177 178 181
178 179 181
178 179 181
179 179 181
179 179 181
180 180 181
180 180 181
181 180 181
182 181 181
182 181 181
183 181 181
184 182 181
185 183 181
111 131 139
107 130 134
58 119 69
55 114 62
109 158 139
122 166 162
141 189 203
136 186 203
136 186 203
146 192 203
125 159 171
120 139 163
108 121 150
115 123 148
117 133 160
115 132 159
129 148 174
131 149 174
115 131 158
120 136 166
66 59 126
54 47 130
54 47 115
58 45 56
65 51 48
57 45 43
60 45 44
60 46 44
63 49 48
76 69 72
113 138 171
104 129 163
103 136 178
134 154 180
124 141 162
133 76 97
121 54 75
83 26 70
94 31 79
116 31 81
124 32 82
126 31 115
91 16 156
96 13 178
97 13 183
77 11 151
86 12 165
97 49 176
120 121 179
138 156 181
117 133 155
132 150 172
118 132 161
114 131 150
85 112 98
85 113 92
85 113 94
83 111 90
78 105 83
83 109 87
77 93 88
81 87 101
109 117 134
132 159 175
134 153 176
117 138 156
140 157 181
132 149 167
139 157 181
133 149 170
76 128 123
23 113 82
27 133 103
26 129 99
73 108 120
109 130 161
101 115 154
156 179 194
145 166 185
94 45 47
103 49 50
121 126 141
124 118 129
102 115 129
102 118 144
114 128 167
100 70 144
99 100 128
95 128 97
93 101 95
106 168 81
97 114 130
84 94 153
57 112 127
117 138 156
110 122 141
83 88 102
101 117 135
50 61 94
19 83 56
21 93 25
23 100 15
16 71 10
21 83 12
25 100 15
72 63 87
80 64 46
87 69 55
90 74 54
72 58 45
87 64 49
104 81 65
69 44 39
148 144 149
206 224 249
214 231 255
215 232 255
198 214 236
216 232 255
216 233 255
198 214 240
194 209 241
210 226 249
216 233 255
210 227 249
218 233 255
217 233 255
217 233 255
218 233 255
211 227 249
218 233 255
217 233 255
218 234 255
172 176 178
186 183 181
185 182 181
184 182 181
184 182 181
183 181 181
182 181 181
182 181 181
182 181 181
181 180 181
180 180 181
180 180 181
180 180 181
179 179 181
179 179 181
179 179 181
178 179 181
178 179 181
178 179 181
177 178 181
177 178 181
177 178 181
177 178 181
177 178 181
177 178 181
176 178 181
176 178 181
176 178 181
176 178 181
176 178 181
176 177 181
176 178 181
176 177 181
176 178 181
176 178 181
176 178 181
176 178 181
176 178 181
176 178 181
176 178 181
176 178 181
176 178 181
176 178 181
176 178 181
177 178 181
176 178 181
177 178 181
177 178 181
177 178 181
177 178 181
178 179 181
178 179 181
178 179 181
179 179 181
179 179 181
180 180 181
180 180 181
180 180 181
180 180 181
181 180 181
182 181 181
182 181 181
183 181 181
183 181 181
184 182 181
185 182 181
186 183 181
129 140 150
77 114 96
58 113 64
71 120 87
120 167 152
139 182 200
123 164 195
129 172 194
146 192 203
142 187 198
148 188 196
124 150 164
139 157 181
123 138 162
128 148 176
117 132 157
123 140 164
127 139 167
120 131 159
132 149 175
76 81 115
86 95 127
65 60 96
65 50 58
72 66 53
67 57 49
58 45 43
62 47 45
54 54 66
77 112 153
84 124 172
81 118 163
79 117 163
94 130 173
108 108 144
122 61 78
105 48 66
74 40 75
101 31 81
103 30 77
123 32 83
112 24 138
87 12 164
84 12 166
95 13 183
87 11 165
83 11 158
82 11 157
99 71 167
121 140 164
110 124 147
109 131 158
134 154 181
87 98 127
87 108 102
83 111 90
76 100 83
85 113 92
78 104 84
99 127 115
87 104 104
130 146 167
134 155 181
136 155 181
138 156 174
128 147 173
118 140 161
130 157 168
131 174 141
125 145 163
117 150 147
21 113 82
62 105 102
47 108 94
85 113 132
106 121 157
104 115 146
121 128 141
107 73 75
101 48 48
100 47 47
78 35 34
84 39 39
85 66 77
99 115 131
123 147 158
107 155 99
112 171 96
120 190 92
115 175 82
118 185 89
115 175 98
94 129 104
122 144 167
113 129 152
115 130 152
110 126 142
113 123 141
133 137 151
105 106 106
108 102 69
22 96 14
41 63 49
22 94 14
55 68 83
58 28 92
72 36 106
92 68 77
94 71 56
79 65 49
68 50 42
101 79 63
74 53 46
100 87 102
162 173 192
212 231 255
193 211 236
208 225 249
194 209 230
208 225 249
205 221 243
215 232 255
216 232 255
216 232 255
209 226 249
216 232 255
211 227 249
216 233 255
216 233 255
216 232 255
210 227 249
217 233 255
206 224 243
163 188 195
164 160 165
186 183 181
185 182 181
184 182 181
184 182 181
183 182 181
183 181 181
183 181 181
182 181 181
182 181 181
181 180 181
181 180 181
181 180 181
180 180 181
180 180 181
180 180 181
180 180 181
179 179 181
179 179 181
179 179 181
179 179 181
179 179 181
178 179 181
178 179 181
178 179 181
178 179 181
178 179 181
178 179 181
178 178 181
177 178 181
178 179 181
177 178 181
178 179 181
177 178 181
178 179 181
178 179 181
178 178 181
178 179 181
178 179 181
178 179 181
178 179 181
178 179 181
178 179 181
178 179 181
178 179 181
179 179 181
179 179 181
179 179 181
179 179 181
179 179 181
180 180 181
180 180 181
180 180 181
180 180 181
181 180 181
181 180 181
182 181 181
182 181 181
182 181 181
183 181 181
183 181 181
184 182 181
184 182 181
185 182 181
185 183 181
181 178 176
92 100 110
87 122 110
50 102 56
49 100 56
10 68 206
70 103 180
10 68 201
10 67 196
59 91 188
63 101 185
114 146 153
121 147 163
129 148 172
132 153 177
136 155 181
131 149 175
139 157 181
130 147 175
127 147 167
138 156 181
121 139 164
78 84 119
72 75 76
99 105 70
97 98 66
94 97 66
105 97 111
100 91 111
110 125 163
80 118 163
92 131 177
78 114 159
83 120 164
87 126 172
76 109 149
109 114 143
101 45 64
101 110 133
112 120 142
85 74 89
129 100 130
101 23 123
76 10 141
77 10 145
79 11 157
81 11 157
75 10 150
82 11 162
103 70 178
115 130 157
113 124 148
136 156 181
128 147 171
108 124 143
80 109 90
61 83 66
76 100 83
68 92 75
108 131 137
112 140 154
157 183 207
137 163 189
143 163 189
130 148 172
134 154 181
128 166 129
122 187 65
121 187 65
126 198 34
120 180 86
122 183 86
106 132 146
98 127 135
76 109 112
102 127 142
107 123 151
112 123 146
98 94 106
105 49 50
102 48 47
92 42 43
94 44 44
83 39 41
74 34 34
111 105 118
125 137 173
105 167 81
101 161 76
120 187 89
107 169 81
98 152 73
100 143 68
101 126 107
131 154 173
117 139 160
113 135 158
113 132 151
124 127 136
147 130 128
163 134 113
143 89 101
106 45 129
107 51 129
117 50 138
94 75 129
83 27 152
62 27 102
58 40 66
78 61 47
67 51 40
68 51 41
54 37 32
89 68 54
89 69 58
145 150 162
177 196 221
212 230 255
202 219 242
212 231 255
207 225 249
208 225 249
213 231 255
214 231 255
196 218 231
208 228 245
215 232 255
215 232 255
207 227 243
215 232 255
215 232 255
215 232 255
216 232 255
209 226 249
134 158 162
92 94 100
131 135 123
186 183 181
185 183 181
185 182 181
184 182 181
184 182 181
183 182 181
183 181 181
183 181 181
183 181 181
182 181 181
182 181 181
182 181 181
182 181 181
182 181 181
181 180 181
181 180 181
181 180 181
181 180 181
180 180 181
180 180 181
180 180 181
180 180 181
180 180 181
180 179 181
179 179 181
180 180 181
179 179 181
179 179 181
179 179 181
180 179 181
179 179 181
179 179 181
179 179 181
180 180 181
179 179 181
179 179 181
179 179 181
179 179 181
179 179 181
179 179 181
180 180 181
179 179 181
180 180 181
180 180 181
180 180 181
181 180 181
180 180 181
181 180 181
181 180 181
181 180 181
181 180 181
182 181 181
182 181 181
182 181 181
183 181 181
183 181 181
183 181 181
183 182 181
184 182 181
184 182 181
185 182 181
185 183 181
168 167 166
134 123 124
107 98 106
126 64 75
82 100 93
41 92 122
19 69 186
9 60 180
79 83 146
70 75 133
82 88 149
89 88 121
96 110 130
127 147 166
131 148 173
130 148 175
130 148 171
138 156 181
132 149 172
129 139 166
134 155 177
123 140 170
105 114 123
99 106 83
102 107 68
94 103 67
92 97 64
131 132 139
152 149 194
164 164 219
164 163 213
160 162 212
113 125 164
79 113 153
70 101 137
70 104 144
69 98 134
105 123 146
104 100 121
122 144 166
109 123 145
133 149 172
121 131 152
116 110 174
83 11 159
86 12 162
78 11 151
71 10 138
74 10 142
68 9 122
121 131 168
131 148 172
96 117 132
128 150 172
121 142 162
124 142 165
104 125 137
74 96 86
56 74 60
136 162 181
157 194 228
157 194 228
156 193 228
158 194 228
159 190 216
128 147 171
129 157 157
119 182 66
123 198 34
110 176 30
91 150 29
128 203 35
115 182 31
118 145 140
117 143 152
110 125 148
129 145 168
138 156 181
122 135 158
93 58 65
78 41 86
59 48 175
62 46 157
86 41 40
87 41 42
74 34 34
96 105 118
115 166 107
104 163 75
112 175 87
101 162 76
113 178 88
87 136 66
91 144 70
103 143 99
126 146 163
135 155 181
105 132 151
150 139 138
133 108 88
149 117 91
145 110 101
137 88 125
131 43 154
124 39 146
124 40 147
109 35 129
116 38 151
85 42 130
112 67 142
128 88 142
118 85 125
113 81 111
77 57 70
66 48 37
92 122 110
111 107 122
191 205 230
210 229 255
204 223 249
204 223 249
212 230 255
206 224 249
206 224 249
207 228 245
199 220 233
203 221 242
213 231 255
213 231 255
205 226 243
214 232 255
206 227 243
215 232 255
214 232 255
207 225 249
159 163 175
107 107 120
93 123 94
107 119 92
164 164 152
180 178 176
186 183 181
186 183 181
185 182 181
185 182 181
184 182 181
184 182 181
184 182 181
184 182 181
183 182 181
183 181 181
183 181 181
183 181 181
183 181 181
183 181 181
182 181 181
182 181 181
182 181 181
182 181 181
182 181 181
182 181 181
181 181 181
181 180 181
181 180 181
181 180 181
181 180 181
181 180 181
181 180 181
181 180 181
181 180 181
181 180 181
181 180 181
181 180 181
181 180 181
181 180 181
181 180 181
181 180 181
181 180 181
182 181 181
182 181 181
182 181 181
182 181 181
182 181 181
182 181 181
182 181 181
182 181 181
182 181 181
183 181 181
183 181 181
183 181 181
184 182 181
184 182 181
184 182 181
184 182 181
185 182 181
185 182 181
185 182 181
186 183 181
180 177 176
169 167 166
115 119 123
111 107 117
92 74 89
116 52 69
79 70 73
62 87 148
8 54 166
11 62 179
98 92 108
95 88 84
94 85 81
106 96 91
96 95 93
98 107 116
126 146 171
131 153 177
131 148 172
139 157 181
101 112 131
126 141 162
128 145 166
124 130 155
110 117 130
90 98 64
86 87 56
94 96 60
147 141 168
183 178 230
174 174 230
169 171 230
169 171 230
174 173 230
169 167 217
112 131 172
68 99 137
78 112 153
90 122 159
98 117 149
114 122 147
126 136 157
137 156 181
124 139 163
127 139 163
126 130 166
78 73 122
66 49 117
70 9 133
74 10 143
87 70 139
78 68 131
113 122 145
136 155 181
132 148 172
124 141 164
127 147 172
131 149 172
127 140 164
75 92 86
121 146 159
171 202 228
155 188 216
139 174 204
152 186 216
162 196 228
145 171 193
116 143 126
113 137 136
89 149 26
115 187 32
114 181 31
114 181 31
95 150 28
122 193 35
101 159 27
126 164 141
130 150 176
131 150 172
125 144 170
137 156 181
63 62 147
22 52 228
29 71 237
27 68 225
51 55 220
78 42 85
72 35 33
91 99 114
108 134 133
99 155 72
110 172 81
109 169 81
89 137 65
92 141 66
107 164 77
88 124 56
120 139 145
121 141 162
126 133 150
153 121 92
146 114 91
135 101 83
140 83 125
111 36 135
113 38 149
124 40 142
107 34 125
110 36 130
110 41 128
144 94 165
130 91 166
157 110 181
152 106 172
131 90 154
117 83 125
81 59 70
85 108 96
105 133 131
193 197 219
195 215 242
189 209 236
210 229 255
210 229 255
204 223 249
211 230 255
211 230 255
212 230 255
207 225 249
202 221 243
213 231 255
213 231 255
204 226 243
212 230 255
213 231 255
213 231 255
213 231 255
114 126 130
82 93 93
99 83 74
131 80 99
101 106 134
110 107 100
105 104 105
151 151 158
175 172 171
180 177 176
180 178 176
185 183 181
185 182 181
185 182 181
185 182 181
185 182 181
185 182 181
184 182 181
184 182 181
184 182 181
184 182 181
184 182 181
184 182 181
184 182 181
184 182 181
183 181 181
183 181 181
183 181 181
183 181 181
183 181 181
183 181 181
183 181 181
183 181 181
183 181 181
183 181 181
183 181 181
183 181 181
183 181 181
183 181 181
183 181 181
183 181 181
183 181 181
183 181 181
183 181 181
183 181 181
184 182 181
183 181 181
184 182 181
184 182 181
184 182 181
184 182 181
184 182 181
184 182 181
184 182 181
184 182 181
185 182 181
185 182 181
185 182 181
186 183 181
186 183 181
180 177 176
147 149 151
153 154 156
131 132 140
121 131 133
76 64 68
82 92 108
96 78 74
109 41 63
65 38 94
16 53 154
51 61 130
84 74 93
98 90 86
96 88 82
107 96 91
98 86 84
93 84 81
88 79 77
130 141 158
135 155 181
137 156 181
113 131 152
133 149 171
117 122 146
111 99 130
114 93 119
113 88 110
104 84 99
87 84 70
85 84 55
178 165 207
178 170 218
183 177 230
181 177 230
183 178 230
183 177 230
188 180 230
123 128 161
109 123 159
66 95 128
91 120 155
127 143 166
121 137 159
122 129 141
128 140 158
126 142 164
133 147 173
130 149 173
129 140 177
93 85 147
70 49 110
28 28 63
102 110 144
100 109 141
127 143 166
120 135 158
124 140 168
111 126 145
123 141 163
125 142 163
138 156 181
121 139 161
135 159 177
134 159 177
23 53 17
23 51 16
56 79 74
119 146 162
130 150 163
123 155 133
112 150 97
94 156 26
101 163 26
87 147 25
121 192 33
102 159 27
110 178 31
113 177 32
119 149 141
121 137 158
125 142 165
123 140 179
90 101 181
27 68 224
47 127 170
53 143 167
52 143 167
42 116 170
41 109 174
61 77 155
72 76 92
94 110 116
101 153 87
99 155 75
87 129 60
73 117 45
69 105 51
78 112 55
86 111 91
120 132 154
116 130 155
107 111 121
126 100 86
142 111 85
111 78 78
123 53 127
104 33 123
116 38 138
121 39 144
117 84 126
120 96 133
120 109 123
154 118 165
163 112 184
161 112 184
140 96 161
165 113 184
144 100 168
123 83 131
71 75 77
79 106 93
131 149 165
197 208 232
202 222 249
208 228 255
196 216 242
209 229 255
209 229 255
203 223 249
205 223 249
211 230 255
211 230 255
211 230 255
204 223 249
211 230 255
211 230 255
202 220 242
212 230 255
212 230 255
134 137 136
50 67 62
64 64 74
106 112 110
115 102 133
104 105 92
78 97 84
79 58 98
104 121 91
113 124 126
119 117 122
128 123 135
128 122 132
155 155 156
157 151 152
170 164 162
175 172 171
186 183 181
174 172 171
186 183 181
186 183 181
186 183 181
185 182 181
185 182 181
185 182 181
185 182 181
185 182 181
185 182 181
185 182 181
185 182 181
185 182 181
185 182 181
185 182 181
184 182 181
184 182 181
184 182 181
184 182 181
185 182 181
185 182 181
185 182 181
184 182 181
185 182 181
185 182 181
185 182 181
185 182 181
185 182 181
185 182 181
185 182 181
185 183 181
185 183 181
186 183 181
186 183 181
180 178 176
180 178 176
180 178 176
157 162 161
165 169 166
140 142 145
121 129 133
132 139 145
109 112 114
108 108 111
108 120 110
103 94 106
76 76 75
68 76 64
87 91 112
88 87 69
107 40 62
91 59 76
49 86 157
58 92 133
93 91 123
70 94 81
96 84 80
107 96 91
97 86 81
95 86 81
96 88 85
91 91 99
131 153 181
128 151 174
138 156 181
107 96 119
88 66 88
112 83 110
103 77 103
103 76 101
109 81 108
100 90 85
82 83 96
112 108 147
110 100 138
158 139 178
142 136 181
161 154 195
175 167 210
160 155 189
138 132 169
59 80 111
84 110 143
119 139 165
121 137 160
134 154 181
98 89 80
109 102 98
127 143 164
130 148 172
118 132 155
109 121 150
110 121 150
91 99 126
119 134 156
92 99 126
120 132 157
116 129 162
126 142 163
117 130 162
123 140 165
135 151 172
132 149 172
123 135 164
113 132 149
51 70 59
22 49 16
24 53 17
22 49 16
23 52 16
21 48 16
58 78 73
84 127 50
159 194 182
109 164 84
107 172 29
105 168 29
106 169 29
100 160 27
104 162 28
79 122 21
108 133 130
131 151 171
117 133 152
117 133 179
60 110 189
46 123 149
47 129 135
53 145 152
54 149 156
49 137 136
49 137 144
68 103 197
99 110 141
116 132 158
94 116 107
90 136 81
82 131 58
89 141 65
70 113 50
93 113 106
85 98 101
129 147 171
121 133 157
125 136 154
122 98 88
126 95 78
119 92 78
121 46 127
115 37 134
97 32 111
99 87 103
105 127 93
110 130 102
111 127 94
123 124 109
156 118 139
155 105 156
136 92 146
146 97 158
160 110 179
126 87 136
117 147 149
70 99 92
87 125 118
135 138 140
198 216 243
196 216 242
206 227 255
201 221 249
194 215 237
203 222 249
208 228 255
209 229 255
199 219 242
209 229 255
210 229 255
204 223 249
211 230 255
210 229 255
210 229 255
211 230 255
136 128 133
64 64 79
88 114 97
115 121 123
78 101 110
53 77 75
99 99 107
107 98 87
44 92 69
74 90 91
129 109 144
60 73 82
84 86 36
103 110 108
101 113 112
120 108 110
100 117 100
86 82 88
100 101 115
103 124 84
97 118 105
107 123 108
123 125 131
127 130 134
132 136 140
132 136 140
154 155 156
139 142 145
141 143 145
168 167 166
142 143 145
168 167 166
150 150 151
148 149 151
147 149 151
154 155 156
168 167 166
173 172 171
147 148 151
175 173 171
161 161 161
124 129 134
148 149 151
156 156 156
181 178 176
149 149 151
142 143 145
139 142 145
147 149 151
154 155 156
113 121 121
121 127 134
122 127 141
123 124 128
77 91 108
101 101 130
70 89 67
111 116 123
81 83 117
91 97 111
102 106 117
87 104 90
111 95 113
106 104 110
59 77 67
89 95 80
84 99 95
77 56 80
93 50 60
75 95 81
57 117 94
57 119 96
55 113 90
57 117 95
77 98 85
86 83 79
91 83 80
89 82 80
86 75 70
105 109 116
137 156 181
135 155 181
128 137 163
106 80 107
89 69 92
99 74 99
104 77 101
91 69 98
113 83 110
85 65 89
90 79 96
102 99 129
118 115 153
99 94 124
123 119 156
123 119 154
102 100 127
83 91 98
104 95 140
101 95 146
93 80 136
104 118 147
127 142 163
129 148 173
97 86 76
103 92 82
104 97 93
133 146 166
109 121 153
129 147 171
118 141 168
90 121 153
102 127 156
90 121 153
107 124 153
135 155 181
137 156 181
139 157 181
135 155 181
132 150 172
129 147 173
139 157 181
96 116 128
21 46 15
21 46 15
22 50 16
64 57 59
59 58 52
19 42 14
21 49 15
89 122 102
164 194 206
66 102 59
89 145 24
78 126 20
90 147 25
84 135 22
71 108 19
107 137 108
128 148 162
139 157 181
127 143 167
88 114 195
62 134 143
48 130 135
45 126 128
46 126 131
49 136 144
49 134 140
43 118 123
45 118 126
116 131 151
114 128 141
118 138 157
86 98 101
57 57 63
66 95 67
89 119 92
66 82 63
131 148 172
125 140 162
114 126 133
104 104 107
97 94 99
115 90 70
126 95 76
73 28 100
104 34 124
104 39 122
108 130 96
115 138 101
120 121 93
146 97 85
155 95 86
153 91 79
162 97 86
155 95 98
138 90 126
139 96 152
102 68 111
106 101 124
80 96 100
77 97 99
86 99 123
176 185 209
188 203 230
194 214 242
205 227 255
206 227 255
195 215 242
207 227 255
202 222 249
208 228 255
208 228 255
209 229 255
189 209 236
203 223 249
209 229 255
209 229 255
208 228 255
146 137 150
80 82 109
98 128 103
101 108 114
107 127 126
75 84 86
99 82 104
107 118 122
115 117 119
100 141 129
109 116 120
106 114 121
79 87 126
99 98 96
108 72 77
78 41 80
94 94 90
80 99 58
74 94 88
59 91 106
103 118 95
99 112 93
77 75 75
97 99 103
81 72 82
142 143 142
93 106 119
112 117 126
137 95 88
94 88 103
97 102 129
102 109 122
96 102 120
113 120 128
120 121 131
115 121 128
115 121 128
114 120 128
114 121 128
118 120 128
114 120 128
116 121 128
93 112 121
116 121 128
111 114 130
101 94 126
114 116 130
124 123 145
104 117 106
121 93 107
82 101 83
70 80 94
75 93 98
66 104 76
61 98 64
84 81 83
89 106 93
112 114 127
77 68 80
104 109 117
73 77 109
72 60 78
126 116 130
63 66 77
62 72 67
91 82 94
82 83 88
92 75 81
69 111 91
49 103 84
51 108 88
52 111 85
56 117 93
53 109 89
56 116 93
66 92 82
83 74 70
95 85 81
72 63 60
113 138 169
133 149 172
115 137 165
104 95 113
98 75 99
94 70 92
76 58 80
90 66 87
97 70 95
91 68 90
100 75 101
92 74 96
89 82 105
115 110 148
115 113 147
113 112 150
127 124 162
123 118 156
106 97 144
94 59 146
82 24 134
83 24 132
84 25 141
93 56 145
116 132 158
85 74 66
90 78 69
81 75 61
110 115 122
137 156 181
56 93 126
43 92 129
44 94 132
45 95 132
37 79 111
78 104 133
114 136 162
128 147 173
133 154 181
136 155 181
139 157 181
135 155 181
140 157 181
46 62 58
36 52 33
67 55 61
95 68 88
99 69 92
88 63 83
84 61 77
65 54 59
81 94 104
134 152 176
110 136 138
76 113 81
80 131 22
78 128 23
75 123 20
88 137 61
120 145 151
135 155 181
118 129 143
112 126 146
83 143 156
48 131 145
48 131 137
43 116 119
42 116 127
50 136 142
42 117 122
49 136 144
48 137 137
119 143 163
124 140 162
109 121 140
103 126 131
117 139 142
111 133 131
115 125 142
116 135 143
126 142 162
133 152 172
126 141 162
119 133 152
104 108 119
133 113 107
103 81 63
96 49 91
90 52 107
87 93 87
97 120 89
123 126 93
160 96 86
150 91 82
159 92 83
145 90 77
141 81 77
153 93 84
148 93 82
148 94 119
137 106 153
113 111 132
95 104 116
88 93 120
97 93 143
130 138 171
174 194 222
167 187 214
203 225 255
182 202 228
199 220 249
205 227 255
205 227 255
192 211 237
206 227 255
195 215 242
207 228 255
207 228 255
201 221 249
202 222 249
207 228 255
171 181 199
99 117 102
86 102 103
102 111 114
113 86 104
105 90 105
91 88 100
103 109 118
113 127 133
97 111 113
147 138 144
105 112 124
68 73 95
105 99 91
98 86 93
98 101 108
111 95 110
59 61 46
82 117 43
84 89 105
100 109 100
99 107 104
114 121 128
154 153 154
104 99 110
116 127 132
79 96 88
72 80 69
118 47 66
101 86 110
94 85 106
87 87 100
107 124 123
134 115 145
123 117 137
82 27 103
109 96 124
109 116 126
94 121 112
57 73 91
127 115 128
67 91 92
55 86 94
125 125 129
133 118 121
118 104 121
101 96 121
104 99 122
116 121 128
102 92 106
95 138 69
77 86 97
100 49 73
83 62 71
90 107 108
83 111 87
51 74 36
78 70 88
92 94 100
91 95 101
83 95 95
104 104 113
110 110 122
83 60 49
82 86 85
101 93 91
113 97 108
71 86 75
52 106 83
37 76 62
54 114 91
50 106 86
57 119 96
52 110 89
53 106 87
61 101 87
70 72 64
71 74 86
66 109 152
57 123 179
53 137 203
65 138 202
63 120 179
69 106 155
80 62 83
87 60 80
85 61 84
93 68 93
104 75 98
83 62 82
75 58 81
46 52 57
108 105 135
102 94 125
108 100 137
94 85 119
121 107 151
118 89 159
108 66 153
99 54 145
88 25 141
81 24 134
79 23 130
95 73 145
101 89 78
90 80 71
80 67 59
103 108 119
90 115 146
43 90 126
42 89 126
42 89 124
42 88 121
39 84 113
43 91 125
56 95 128
110 133 158
139 157 181
139 156 179
132 149 172
131 150 175
113 131 151
37 58 43
83 63 73
95 66 88
95 66 88
90 63 85
94 66 89
87 60 80
83 62 78
75 62 75
114 135 149
126 145 166
94 114 115
97 123 114
67 100 58
70 95 81
101 124 115
92 108 128
114 131 151
106 125 129
126 144 164
106 124 134
98 89 94
91 85 89
78 92 98
40 110 115
46 125 131
46 126 131
44 122 129
60 130 135
119 147 163
131 149 172
137 156 181
132 149 171
122 137 153
120 128 143
119 138 154
125 141 163
125 139 160
121 133 156
127 147 167
122 139 171
120 133 152
93 100 114
73 55 45
62 59 71
54 57 55
80 97 73
91 105 76
121 101 80
147 88 80
132 78 70
151 91 82
126 79 71
132 80 72
150 91 82
135 81 75
150 91 90
105 91 120
93 93 103
105 117 132
100 107 141
73 69 108
74 65 96
129 142 171
178 200 228
189 212 242
201 224 255
191 213 242
198 220 249
204 226 255
198 220 249
198 220 249
205 226 255
205 227 255
206 227 255
200 221 249
206 227 255
205 227 255
164 181 194
98 118 89
74 93 67
112 124 118
110 85 102
109 77 94
114 120 124
93 111 114
50 123 115
112 117 122
98 99 102
116 119 124
103 97 96
129 101 27
113 114 114
100 104 110
99 72 101
92 50 88
103 103 113
114 102 132
92 95 112
110 116 124
89 121 95
76 146 72
73 128 76
107 114 121
86 93 94
99 73 83
97 26 46
103 104 108
94 87 99
64 65 72
87 103 100
127 131 147
131 158 155
98 114 115
91 93 104
97 118 111
100 136 108
135 166 154
106 124 121
19 56 72
66 83 115
91 97 112
101 96 102
114 117 122
118 122 128
111 121 125
133 137 145
100 114 111
48 112 48
101 107 117
98 62 87
73 56 66
108 118 121
84 107 135
33 78 119
98 101 116
93 92 119
77 62 110
70 54 45
108 114 124
89 81 86
87 65 59
74 91 83
119 78 83
108 105 119
48 80 65
46 96 77
51 104 83
49 103 84
51 106 85
44 95 77
50 99 78
40 85 69
43 88 81
68 93 89
70 118 148
64 109 132
70 121 152
59 125 173
45 116 169
52 136 204
50 123 179
71 89 134
88 65 85
90 68 91
86 65 90
87 65 87
86 65 91
103 100 122
110 121 143
83 87 106
93 99 117
91 77 116
115 83 143
125 88 160
123 88 159
124 88 160
131 92 164
120 78 157
69 19 111
79 23 127
81 23 128
79 70 62
92 81 71
80 71 63
71 77 86
38 82 117
43 87 119
42 90 125
39 83 115
41 87 120
39 86 116
34 71 105
39 80 112
105 125 150
134 152 174
131 149 174
133 152 175
131 147 163
132 149 169
92 79 90
95 68 88
94 67 90
94 65 85
92 63 83
81 57 81
88 60 79
93 63 82
85 59 80
113 130 146
113 131 141
96 116 125
90 111 115
107 124 139
129 150 164
106 124 140
116 137 147
118 135 152
121 136 157
104 96 104
103 88 92
93 80 85
96 83 89
95 81 89
81 95 100
43 117 121
49 130 129
45 121 126
38 99 102
108 135 154
135 150 172
132 149 172
125 145 171
134 154 181
120 132 165
130 148 171
131 149 171
120 133 158
137 155 179
128 146 173
129 144 170
136 155 181
117 131 154
112 118 132
106 111 141
107 123 138
73 89 68
101 122 92
138 87 76
148 89 79
126 74 68
142 84 75
142 87 77
149 89 79
141 85 78
138 83 74
122 72 65
139 125 139
104 114 130
127 142 165
80 81 116
68 60 85
53 51 88
70 66 100
147 165 196
186 211 242
182 205 236
200 224 255
195 218 249
195 218 249
196 219 249
191 213 242
192 213 242
203 226 255
195 218 243
204 226 255
205 226 255
204 226 255
154 171 187
85 101 88
85 103 90
79 108 63
100 49 77
75 57 66
100 88 96
97 101 110
29 94 89
97 109 113
102 109 114
111 118 126
107 111 114
116 90 23
101 88 71
112 119 128
87 87 95
100 95 103
135 128 142
141 129 147
108 108 111
114 120 128
99 121 107
43 149 8
42 139 7
114 120 128
124 82 115
122 9 98
120 38 99
113 120 128
112 115 122
113 120 125
99 103 110
101 106 113
90 98 112
99 109 112
114 120 128
124 124 128
125 115 125
103 109 111
90 101 112
52 69 136
36 51 139
90 97 115
105 111 117
113 120 128
114 120 128
109 115 121
116 121 128
58 96 68
50 93 71
72 72 107
81 75 107
98 102 109
72 90 111
21 76 118
79 97 123
113 120 128
76 68 113
51 38 85
69 68 70
109 115 122
92 72 69
56 53 36
70 56 69
107 93 100
103 110 117
64 91 84
46 96 76
46 98 79
47 95 76
41 87 70
50 100 81
42 88 69
51 98 90
71 109 118
70 105 110
70 107 116
72 110 119
70 109 119
74 113 123
67 119 149
51 131 194
51 128 189
41 106 162
64 80 118
90 68 91
68 50 68
87 64 85
90 76 96
132 149 173
131 146 171
128 142 166
117 116 157
109 80 143
115 80 144
122 87 157
127 88 156
118 84 150
126 89 160
120 85 153
113 75 148
65 17 102
77 22 121
64 56 52
72 64 57
90 86 85
58 82 101
39 84 118
39 85 117
38 80 111
41 88 122
40 83 114
34 74 95
38 80 111
32 66 95
78 101 127
130 149 173
135 154 179
138 156 181
130 149 173
125 137 159
89 61 85
85 61 79
85 60 80
94 103 92
104 177 107
99 169 100
103 179 104
100 158 103
89 129 89
117 132 142
123 142 162
113 133 142
131 149 172
132 149 180
122 140 179
131 150 175
121 139 166
114 117 137
105 89 92
89 81 81
86 78 80
85 76 75
101 87 92
91 76 81
83 72 115
58 65 158
33 53 187
35 69 188
54 87 177
124 140 167
136 155 181
120 138 166
118 133 162
135 155 181
120 139 154
109 121 151
116 130 166
129 148 171
131 144 163
125 143 166
123 139 164
132 148 173
125 143 161
134 149 176
131 148 172
105 118 131
100 122 90
114 154 95
131 173 106
130 150 94
142 102 83
129 77 69
129 76 67
151 91 82
145 87 79
125 77 67
108 77 80
89 81 97
124 140 163
129 143 165
95 103 123
53 47 72
77 61 91
60 57 92
82 86 114
146 165 193
156 178 206
196 222 255
194 218 249
194 217 249
190 212 242
200 224 255
190 212 242
202 225 255
196 219 249
202 225 255
197 219 249
202 225 255
196 218 243
92 114 81
110 115 122
78 97 62
86 45 65
89 61 75
64 26 40
87 83 90
46 103 99
96 50 52
99 40 45
115 110 116
110 115 121
70 64 67
101 101 99
102 105 107
108 112 121
104 107 111
105 94 102
99 94 98
58 100 58
74 116 86
81 109 85
66 100 70
85 114 90
107 108 115
109 102 114
102 8 85
122 40 99
108 114 117
113 120 128
113 120 128
105 108 115
108 117 122
115 121 126
86 99 100
113 120 128
161 129 153
152 119 144
159 124 154
109 115 119
54 68 112
24 34 99
107 113 122
113 118 124
115 121 128
110 116 123
110 117 121
97 107 108
90 96 100
61 68 75
62 53 87
72 60 100
96 105 108
60 74 92
16 58 95
96 103 113
112 116 122
44 32 79
95 96 114
101 107 116
110 115 123
54 31 29
65 33 114
67 60 82
97 93 99
111 125 142
107 125 142
59 104 92
45 95 74
49 101 79
47 92 74
47 98 78
49 90 81
59 95 98
73 111 119
62 95 101
60 94 99
71 108 116
66 98 105
70 109 119
64 98 106
63 102 118
39 98 146
49 119 176
59 101 152
66 47 65
73 53 73
91 86 108
113 124 145
127 142 164
133 149 173
131 149 172
124 103 159
113 79 143
106 75 133
115 80 144
117 80 144
117 82 147
127 87 156
119 85 155
130 91 164
71 34 112
70 20 112
67 59 53
63 57 51
114 127 145
55 89 119
39 83 117
35 76 107
37 77 107
34 74 103
37 79 111
32 70 96
33 70 99
35 73 100
31 67 95
115 134 157
114 131 151
115 131 152
137 156 181
139 152 174
73 65 83
71 50 65
92 133 91
105 187 109
107 197 111
93 172 98
99 188 107
107 197 111
101 184 107
103 189 106
125 157 164
133 153 179
135 155 181
109 123 150
128 147 176
126 142 162
135 155 181
108 116 128
98 84 87
99 85 90
85 81 75
80 72 76
82 72 79
48 50 172
30 41 192
29 39 182
31 41 190
33 43 199
30 40 175
31 41 185
97 115 181
128 147 176
132 148 171
128 142 168
137 156 181
111 128 151
130 148 172
115 132 160
123 142 172
132 149 172
125 143 163
109 120 147
136 155 181
138 156 181
130 149 173
128 168 117
142 192 112
128 179 108
135 191 109
134 188 109
141 194 115
120 144 90
121 72 60
131 78 70
124 74 67
126 78 71
126 87 87
130 150 176
127 162 152
106 162 87
119 178 88
110 170 67
96 152 61
77 85 103
67 78 85
66 71 99
147 167 200
180 204 236
196 222 255
196 222 255
191 216 249
199 223 255
193 217 249
198 223 255
194 218 249
193 216 243
200 224 255
197 217 233
160 183 157
121 138 89
103 110 112
97 109 103
89 51 71
79 58 70
69 28 46
105 79 63
89 94 99
89 59 64
89 34 36
109 79 80
112 115 121
103 111 115
100 103 107
110 114 122
111 116 124
109 111 118
104 106 114
41 109 47
27 115 35
25 111 34
88 111 100
103 113 114
88 97 99
97 100 108
97 105 102
88 89 95
107 87 109
101 103 104
109 111 120
111 110 115
112 119 128
107 117 121
110 116 123
115 117 121
113 120 128
119 108 121
95 74 97
102 88 103
102 108 121
111 120 125
67 63 89
99 101 119
74 55 112
101 107 118
109 119 119
108 115 126
105 109 115
100 104 118
86 89 99
68 66 74
105 110 121
112 118 125
94 101 110
78 58 83
101 60 99
106 83 104
91 96 110
97 101 116
105 109 115
108 112 118
109 114 124
51 17 149
91 87 126
112 115 121
89 108 116
131 147 171
83 116 118
35 76 60
35 73 57
42 90 74
44 91 74
44 80 76
61 97 104
68 104 113
64 99 108
68 103 110
60 92 103
67 103 109
66 98 103
68 102 110
63 97 108
48 98 142
38 98 149
47 96 142
88 97 115
86 90 107
79 87 102
107 121 142
124 140 163
109 122 143
114 119 155
106 76 136
96 68 121
116 80 140
133 91 160
104 73 141
106 71 127
121 86 155
108 76 134
121 83 147
96 59 128
68 19 108
62 62 66
94 98 107
132 149 172
100 122 146
33 70 98
36 78 108
37 79 109
35 75 106
37 77 108
35 73 101
25 54 76
33 68 96
47 67 88
128 144 165
120 138 161
125 142 166
131 149 171
94 103 119
91 93 112
81 101 76
87 162 94
97 183 104
96 180 102
99 185 105
89 164 97
106 193 108
102 188 105
97 179 99
102 175 114
126 156 169
106 121 140
115 132 154
135 155 181
124 141 170
122 140 163
95 88 96
83 73 76
74 67 73
95 82 87
81 70 73
33 43 199
29 39 179
30 40 181
29 39 173
32 42 194
30 39 178
31 41 189
27 36 169
28 38 174
115 133 154
138 156 181
132 150 173
129 149 173
120 140 164
132 151 173
133 149 171
135 155 181
128 146 171
124 141 172
133 152 173
130 148 171
122 139 154
138 183 128
134 179 108
140 191 112
140 191 112
131 185 109
132 183 109
136 186 109
138 190 112
121 156 93
110 66 59
124 74 67
118 73 64
103 89 96
99 136 93
113 172 87
105 174 38
104 171 37
98 165 36
113 182 39
109 179 39
57 89 47
50 48 77
47 51 77
106 116 146
155 176 206
188 214 249
183 209 242
187 211 242
189 212 243
182 205 236
192 217 249
198 223 255
188 211 232
160 172 100
145 156 91
139 156 102
92 69 92
104 109 115
78 58 69
76 56 64
92 81 71
119 78 4
125 98 70
91 77 84
79 33 36
98 39 42
102 103 107
111 119 128
115 121 128
106 114 121
113 118 124
103 109 117
115 121 128
43 114 51
25 106 33
25 108 32
81 113 93
106 111 118
113 120 128
114 120 128
103 105 112
106 92 110
111 115 122
110 115 122
112 119 128
116 121 128
112 120 128
105 108 120
102 107 114
111 113 119
101 101 111
114 114 122
95 92 105
97 95 105
102 103 114
102 108 114
56 13 97
60 11 105
56 10 103
69 40 115
111 119 128
103 108 134
103 108 121
113 118 124
114 120 128
113 117 124
106 111 119
109 115 122
90 89 102
104 63 96
94 55 85
101 84 106
99 107 116
113 120 128
107 110 118
85 86 105
105 109 124
38 13 98
109 114 131
103 109 118
106 127 147
123 140 162
117 137 154
48 71 70
53 73 69
30 66 54
33 68 54
49 83 80
57 84 86
62 97 103
65 97 101
62 94 101
67 102 110
61 89 89
73 111 119
72 110 119
61 90 98
38 91 136
43 110 162
74 111 157
112 132 154
110 115 137
101 114 132
123 140 162
120 141 163
129 147 172
127 131 163
91 67 121
110 77 135
113 77 133
97 66 118
96 64 116
97 68 122
106 73 136
111 77 137
109 75 132
68 35 98
71 20 114
95 102 116
95 106 122
131 148 171
116 129 152
76 97 121
33 68 93
29 63 89
33 71 99
30 64 91
28 60 85
29 62 86
56 86 109
113 133 157
130 148 172
124 140 163
137 156 181
123 140 161
123 140 161
109 116 137
78 123 78
109 196 108
102 190 105
104 192 108
91 168 97
97 179 101
94 175 99
92 165 91
89 168 96
96 177 100
129 159 167
139 157 181
126 149 175
119 142 165
120 136 153
126 142 163
76 69 69
93 79 82
93 79 82
85 73 77
66 58 100
40 45 170
32 42 189
31 41 180
30 40 181
29 38 173
30 39 179
28 38 172
29 39 169
26 34 166
97 106 171
134 154 181
138 156 181
119 137 168
130 149 172
139 157 181
135 149 172
136 151 172
122 140 170
136 156 181
108 126 143
118 137 158
111 136 128
126 171 102
124 169 100
134 184 109
130 178 106
125 167 96
129 172 99
117 158 94
100 141 76
136 189 106
100 106 58
99 54 50
99 96 113
100 125 103
104 168 36
101 165 35
106 172 37
109 177 38
105 174 38
89 146 32
107 168 35
95 149 31
104 136 108
97 110 132
66 67 86
66 74 97
128 147 173
154 177 206
187 214 249
187 214 249
181 208 242
194 220 255
184 209 242
164 181 144
152 169 99
150 165 93
138 155 90
91 79 60
110 102 111
113 120 128
62 45 56
91 77 72
110 74 4
112 75 4
98 91 81
63 40 28
49 20 22
110 115 121
114 120 128
108 114 121
115 121 128
111 119 128
114 118 124
103 109 112
82 99 91
57 97 62
22 95 29
51 89 60
110 106 115
107 107 113
111 117 124
104 107 110
110 119 121
115 120 123
111 115 119
114 120 128
108 115 123
114 120 128
110 115 124
113 120 128
110 116 124
113 116 123
117 122 128
110 110 120
114 118 126
98 100 106
104 106 113
58 10 99
51 10 91
50 9 97
53 17 117
72 71 131
46 30 139
53 45 128
88 90 123
113 118 124
114 120 128
104 105 110
104 108 116
104 102 110
76 44 68
64 35 57
95 95 105
110 117 124
101 105 113
48 39 79
39 12 74
60 54 113
79 84 112
136 155 169
101 108 111
112 131 152
117 137 155
117 134 153
89 108 120
98 115 130
76 95 105
74 91 102
87 104 114
62 95 101
63 97 100
65 99 106
60 90 96
57 87 92
61 90 95
66 101 110
68 102 110
64 96 102
40 98 145
42 106 159
129 143 164
123 141 166
133 154 181
113 130 157
136 155 181
131 149 172
132 149 173
123 140 165
74 52 97
105 73 130
101 73 131
108 75 133
112 76 133
92 66 116
105 71 128
102 71 127
103 71 122
85 49 117
97 99 136
137 156 181
115 133 156
126 143 164
135 155 181
119 134 157
65 88 112
27 61 84
24 52 73
22 48 69
20 43 69
27 59 84
123 141 164
106 124 144
128 148 174
128 147 171
112 130 151
121 138 162
130 151 175
124 141 163
95 143 110
90 166 93
105 190 105
99 179 99
97 175 97
103 186 103
94 169 93
92 171 94
93 168 96
83 149 89
91 142 113
136 155 181
129 148 173
129 147 172
133 150 171
132 151 176
105 105 116
74 64 64
79 71 72
70 65 62
62 60 139
27 36 160
28 36 165
25 35 155
27 36 167
30 40 178
28 35 160
29 39 175
28 37 164
26 34 145
51 60 168
130 148 177
136 156 181
134 150 171
132 146 168
126 143 164
139 157 181
133 150 172
131 147 172
129 142 163
131 147 172
133 149 172
125 159 136
118 163 96
110 158 90
144 193 112
127 172 102
111 152 89
128 172 97
112 152 89
107 148 79
111 162 84
85 117 59
92 92 107
116 125 128
104 164 37
97 160 35
94 152 32
103 167 35
109 177 38
98 159 34
98 158 35
106 169 36
106 172 37
90 148 30
112 129 153
120 132 152
89 102 126
107 123 148
103 118 141
155 177 206
156 181 214
173 200 236
189 218 255
175 198 206
149 164 95
139 155 82
152 164 96
145 160 90
98 106 97
93 58 72
108 116 121
104 103 108
100 93 92
99 72 42
103 68 3
26 55 9
25 53 8
25 54 9
79 80 76
103 104 109
114 120 128
111 115 122
110 113 118
113 118 126
91 96 101
109 115 118
88 96 95
54 75 59
88 100 95
90 105 102
107 112 119
112 118 124
107 114 118
111 114 124
106 110 116
110 111 117
115 119 124
115 116 124
113 120 128
110 116 120
108 110 120
113 118 126
109 113 120
113 120 128
102 107 117
114 121 128
109 114 124
99 104 112
68 55 93
46 8 81
36 6 69
44 29 142
46 30 147
44 28 132
41 27 123
87 88 138
113 118 123
105 111 118
113 118 124
93 93 104
80 81 93
72 42 65
74 63 80
102 107 116
110 117 124
51 40 75
30 9 53
77 77 94
26 9 80
123 141 155
109 127 139
121 131 141
128 147 171
134 152 176
127 146 171
146 143 118
140 137 117
135 137 126
127 148 173
108 127 150
39 63 66
50 76 79
52 81 88
56 84 91
59 89 95
71 110 121
56 108 137
57 95 103
63 98 110
38 87 126
77 110 145
130 147 174
126 149 177
131 151 177
120 134 163
137 156 181
131 149 172
128 146 174
111 122 147
85 82 111
93 65 117
77 52 95
102 71 128
102 71 128
100 69 123
98 67 119
105 74 132
107 83 129
93 99 127
99 110 132
120 141 167
126 139 158
91 113 133
106 123 145
134 149 172
108 124 144
83 115 114
100 137 133
94 128 124
64 77 92
50 63 80
97 115 138
124 142 164
107 124 146
115 131 154
122 141 165
125 141 163
120 133 154
111 126 145
101 169 108
95 176 97
98 173 96
89 164 93
90 166 94
88 152 84
79 144 77
82 154 86
88 162 93
58 111 62
85 117 99
125 141 162
123 143 165
124 140 163
127 142 162
134 150 172
106 111 127
82 79 87
83 69 76
76 65 68
54 49 107
27 38 164
29 38 176
26 35 149
49 66 165
78 114 127
113 166 110
101 153 115
88 130 118
66 98 146
86 115 148
133 150 172
138 156 181
136 155 181
139 157 181
125 141 163
134 154 181
138 156 181
135 155 181
129 145 164
138 156 181
129 141 165
115 148 103
118 162 95
132 181 106
131 180 106
106 151 83
97 136 73
132 176 100
111 150 81
68 111 46
109 152 85
108 150 101
122 133 153
119 133 149
90 142 63
87 147 31
95 149 32
95 152 32
93 149 32
96 155 32
97 154 32
93 151 31
108 171 36
84 130 26
121 152 141
130 149 175
116 131 154
129 149 166
130 148 173
126 146 172
131 151 178
136 160 189
137 160 189
140 165 168
120 132 72
141 154 87
145 157 95
152 165 95
116 128 108
75 40 59
79 70 76
97 99 106
91 94 106
101 94 90
95 61 3
54 53 7
21 46 7
23 51 8
75 88 81
100 107 114
107 112 119
107 109 115
103 108 112
116 121 128
100 108 114
97 105 107
101 109 111
95 105 107
107 114 121
97 106 107
101 103 108
112 119 128
114 119 124
113 118 124
113 120 128
104 107 120
106 114 123
115 121 128
111 115 124
108 111 119
111 116 121
102 108 119
112 117 123
107 113 121
116 121 128
110 119 128
111 119 128
99 102 115
85 87 92
52 40 68
86 87 100
36 23 106
43 27 133
44 28 137
38 24 114
74 77 113
112 117 123
97 101 111
101 107 115
103 106 117
99 104 112
69 68 76
98 98 103
99 101 112
102 107 117
33 11 63
27 8 55
66 66 88
68 74 93
115 127 138
70 86 92
134 154 181
135 132 125
144 135 90
147 134 74
158 139 74
156 140 76
161 144 78
153 141 92
145 142 118
71 91 107
46 70 74
49 75 78
45 82 99
44 96 132
52 110 147
53 115 154
54 116 154
52 110 146
69 119 159
115 140 169
116 135 157
107 129 160
123 141 167
127 146 171
130 149 174
127 148 174
131 149 173
112 123 147
131 148 175
92 75 114
80 58 112
90 64 113
88 60 108
73 51 96
92 65 116
71 47 92
104 99 130
118 133 155
110 120 150
139 157 181
122 141 165
107 121 143
142 167 181
126 168 163
138 190 182
135 188 182
133 187 182
136 189 182
140 191 182
138 182 174
116 131 154
131 148 171
112 130 148
110 122 144
130 148 172
136 153 176
130 147 170
121 139 162
105 170 118
102 185 102
82 153 87
87 167 90
91 167 90
87 159 87
88 162 90
82 156 82
84 152 85
64 117 75
118 163 144
121 139 161
126 141 163
126 141 162
130 151 172
131 148 172
136 155 181
106 117 135
79 65 72
52 44 47
63 54 54
23 32 139
27 35 166
64 97 145
111 165 91
109 163 91
111 165 91
109 163 91
114 172 96
108 161 91
111 161 103
117 157 135
135 155 181
136 155 181
134 150 172
131 148 172
136 155 181
142 158 181
137 156 173
134 150 172
133 150 172
137 156 181
124 143 151
122 164 97
102 145 82
108 151 86
108 141 83
110 153 83
109 149 87
77 130 46
121 168 100
92 132 77
112 132 133
132 149 172
131 153 171
108 176 36
98 160 33
89 144 31
99 165 34
86 132 28
95 153 32
95 152 32
78 127 27
85 137 28
93 150 32
126 149 142
133 154 181
133 148 173
124 143 172
109 125 145
121 134 159
123 138 166
125 142 169
113 128 154
113 134 146
123 136 74
122 138 72
133 148 90
122 137 79
146 158 90
91 81 128
80 20 44
98 100 108
96 100 103
100 102 108
79 56 40
46 44 6
17 36 6
19 40 6
20 44 7
76 83 81
90 96 99
114 120 128
109 113 118
108 114 118
99 105 110
106 111 114
109 118 121
99 111 110
88 93 94
109 113 120
107 114 121
106 111 118
101 109 114
102 106 115
111 119 128
108 113 126
115 122 126
117 122 128
109 116 123
102 108 119
119 123 128
111 115 126
107 113 124
116 121 128
88 89 107
109 113 120
100 105 116
103 107 117
88 93 101
73 75 96
65 72 82
35 23 107
42 27 123
34 21 101
36 23 111
95 98 104
99 100 107
106 113 122
113 120 128
109 113 118
98 100 106
106 113 121
90 94 106
100 105 111
57 54 70
21 6 37
26 8 49
93 97 114
83 91 108
84 94 112
89 97 104
111 112 101
139 123 66
137 124 72
130 117 65
151 136 74
147 127 67
153 136 74
128 117 66
158 143 78
98 109 106
40 62 65
51 100 127
50 104 131
49 105 140
51 110 147
51 108 143
51 112 152
52 112 153
56 119 159
63 110 145
84 108 133
107 128 156
103 115 136
112 125 145
122 140 163
128 148 174
129 145 170
130 148 173
98 115 140
71 74 95
86 81 110
82 55 100
71 50 92
95 86 115
84 59 108
103 112 138
121 139 163
128 142 168
96 104 129
130 150 174
115 132 155
140 162 181
136 180 170
136 189 182
132 186 182
129 184 182
128 184 182
131 186 182
134 188 182
141 192 182
130 174 165
130 148 172
129 147 172
132 149 172
119 133 153
125 144 169
123 140 162
131 120 151
141 70 121
138 92 115
140 21 110
138 64 112
117 93 96
85 155 84
78 151 80
80 142 76
85 157 86
81 127 105
130 143 163
130 148 172
129 152 170
137 156 181
128 147 172
118 132 154
118 132 152
115 131 153
64 63 70
46 39 42
59 49 53
17 22 86
43 62 148
94 131 97
106 160 91
102 148 84
108 163 91
109 165 93
109 163 91
97 143 81
111 165 91
112 163 88
124 154 150
133 150 172
137 156 181
129 147 171
117 131 153
136 156 181
119 127 145
135 151 171
129 147 171
136 150 172
132 151 173
109 148 97
113 156 91
105 146 86
100 141 82
115 150 87
128 175 100
83 126 64
78 117 57
88 129 77
122 142 157
140 157 181
139 157 181
96 156 31
92 149 31
79 122 23
85 123 38
119 120 66
107 68 72
111 111 70
112 100 68
107 171 35
95 153 32
120 139 154
130 148 171
131 149 175
131 150 168
133 149 171
137 156 181
130 150 176
128 144 165
91 102 195
63 56 199
105 115 148
111 121 68
135 148 85
117 128 74
128 135 79
80 82 106
75 41 94
78 69 73
97 96 101
108 111 114
96 97 99
86 79 76
40 55 41
19 39 6
13 24 3
72 77 75
75 80 81
97 92 96
102 109 114
101 106 111
104 103 109
107 111 114
102 109 114
104 111 116
110 117 124
114 120 128
113 118 124
109 115 121
115 121 128
109 112 120
95 96 110
115 116 126
110 110 115
104 106 117
105 105 122
110 114 119
110 115 126
103 107 119
114 119 124
104 108 117
111 115 121
103 105 117
110 113 118
102 107 113
94 96 110
90 95 99
70 70 85
55 55 73
28 17 82
42 40 78
109 114 121
111 117 124
101 107 122
97 101 106
107 112 118
111 117 124
116 122 128
106 113 122
95 100 107
97 102 111
26 8 46
38 31 49
82 85 98
83 89 100
78 93 108
87 94 96
107 127 142
146 142 111
126 114 63
153 137 74
142 127 71
141 127 69
144 128 70
153 137 74
144 129 72
143 128 70
126 114 62
95 99 90
49 98 118
48 101 131
45 95 127
51 108 150
47 99 132
43 93 125
50 105 140
55 118 158
50 109 146
75 121 155
127 146 173
124 141 163
136 156 181
108 127 152
133 149 173
131 148 173
110 126 145
116 125 147
123 140 166
98 110 133
105 117 134
106 114 136
86 92 108
88 91 113
117 126 149
106 114 138
129 143 166
121 133 156
137 156 181
117 133 155
149 197 182
141 192 182
136 189 182
134 187 182
130 185 182
132 186 182
133 187 182
135 188 182
130 179 170
129 169 158
118 142 144
137 156 181
136 155 181
124 142 168
124 143 163
134 53 116
142 21 113
146 22 113
145 22 116
138 21 110
140 21 113
130 20 105
118 17 93
94 121 88
67 128 68
70 130 82
120 137 152
128 147 172
128 147 172
109 123 144
113 130 155
111 124 142
116 132 152
111 129 151
92 102 117
90 101 116
85 92 105
63 71 83
74 83 107
98 146 120
105 149 84
102 147 81
105 159 87
90 133 74
95 142 78
95 138 79
100 148 81
113 171 96
109 164 92
93 136 91
118 132 153
126 141 169
127 148 165
135 155 181
134 154 181
137 156 181
123 143 168
127 142 162
138 156 181
139 157 181
113 134 127
115 158 93
73 100 62
88 122 66
98 138 80
87 125 73
73 105 63
88 124 72
111 133 134
129 145 167
129 144 162
137 156 181
74 127 25
83 136 29
92 92 54
130 34 88
129 34 88
118 32 81
119 33 85
121 32 85
125 34 89
98 109 89
127 144 164
127 144 167
138 156 181
139 157 181
137 156 181
132 150 168
97 106 192
68 69 215
40 13 216
39 13 213
40 13 224
52 41 217
78 81 146
95 104 80
126 136 77
136 150 82
50 43 138
83 76 84
102 105 111
103 106 110
98 97 99
98 104 110
50 52 40
39 54 40
16 35 5
65 69 70
73 75 75
104 110 116
89 95 102
112 118 124
103 105 111
108 112 119
105 110 116
102 103 107
109 114 126
103 106 113
106 106 109
99 106 111
113 118 124
115 121 128
93 65 148
88 12 145
86 12 153
83 12 143
98 77 136
96 94 117
112 116 121
108 114 124
95 99 111
106 111 119
95 98 106
110 113 118
114 119 124
99 105 113
98 100 104
77 77 109
90 92 104
63 66 79
56 54 69
60 62 83
105 110 117
95 102 113
112 116 121
105 111 118
110 115 121
102 103 110
99 102 107
106 107 113
95 100 108
82 85 91
58 58 66
85 92 103
83 83 97
78 83 89
69 80 92
103 112 122
139 150 160
144 127 68
123 112 66
156 138 74
153 137 75
143 125 68
123 114 63
151 133 73
147 130 70
144 127 69
139 123 71
134 127 94
38 82 107
38 75 85
48 97 129
45 93 123
49 103 135
51 107 146
45 94 123
42 89 127
46 98 129
43 89 122
85 115 139
131 149 173
115 133 157
125 142 168
105 118 139
137 156 181
104 117 141
129 149 173
121 133 158
130 149 174
112 126 151
131 148 175
132 153 181
128 147 172
132 148 175
128 147 173
118 127 152
130 148 173
137 156 181
131 154 158
149 197 182
143 193 182
140 191 182
139 191 182
138 190 182
137 190 182
139 191 182
141 192 182
139 188 178
137 183 170
93 111 106
137 156 181
125 144 163
137 156 181
144 22 113
134 21 110
144 21 109
137 21 110
131 20 105
141 21 111
147 22 116
93 16 84
140 21 111
125 49 98
54 102 56
91 110 127
92 118 119
124 143 164
131 150 173
120 136 157
130 148 171
115 130 161
127 146 177
113 130 158
113 130 161
128 147 171
107 126 142
131 148 172
126 141 164
110 162 88
100 144 82
96 139 78
114 158 88
103 153 84
93 134 77
107 155 86
97 139 77
85 117 67
101 120 82
106 128 87
122 106 128
128 66 116
125 93 131
117 65 112
124 114 143
124 139 166
126 144 167
115 133 155
136 155 173
121 139 154
139 157 181
118 153 124
89 121 85
84 120 64
113 154 86
73 107 58
88 125 77
115 147 135
131 148 163
125 145 163
135 155 181
130 148 163
99 128 116
110 55 77
127 34 87
132 36 92
108 29 77
120 31 78
106 27 67
111 29 76
106 28 74
117 31 78
122 138 162
126 143 163
136 155 181
129 147 171
132 148 173
76 79 195
35 11 183
40 13 219
41 14 235
33 11 183
40 13 229
39 13 219
38 13 218
69 71 142
94 102 63
100 110 62
102 108 98
66 66 83
93 91 96
96 99 104
106 112 118
113 118 124
87 94 96
89 91 92
58 56 51
69 75 71
73 76 70
95 98 103
101 108 114
109 114 121
107 113 121
113 118 124
108 115 123
113 118 124
107 110 116
108 112 117
103 104 113
103 101 112
115 117 121
71 55 100
85 12 149
87 12 153
78 11 144
85 12 151
84 12 150
80 11 140
107 107 135
110 115 121
98 102 108
101 107 114
95 99 105
91 94 102
110 114 118
97 100 105
97 101 114
82 80 95
93 96 103
99 102 120
108 114 123
84 85 104
103 108 117
94 98 107
98 103 114
93 98 105
103 104 113
98 103 111
99 102 110
79 82 91
105 107 117
72 76 84
96 100 107
112 118 124
89 95 104
80 87 103
79 73 81
130 149 172
130 131 124
126 111 60
126 111 60
134 117 61
121 106 57
143 127 68
153 138 76
145 126 67
138 119 65
141 127 69
130 118 65
117 111 61
46 98 126
35 73 92
51 104 130
48 100 130
47 100 133
41 85 111
49 105 141
53 113 150
73 116 147
141 179 211
115 149 187
155 186 219
138 161 188
128 147 171
137 156 181
132 151 176
129 149 174
134 152 176
128 147 172
126 143 166
137 156 181
128 147 178
123 143 167
129 147 169
136 155 181
123 140 164
136 155 181
135 155 181
134 152 176
86 116 141
125 163 155
149 197 182
147 196 182
147 196 182
143 193 182
146 195 182
147 196 182
122 132 135
134 169 158
124 176 143
95 126 130
125 144 164
128 148 171
137 86 130
145 22 113
127 20 105
118 18 95
121 19 97
122 19 99
142 21 112
128 18 91
133 20 107
125 18 95
139 21 107
72 62 75
95 116 120
99 122 121
113 143 146
109 127 145
125 144 163
115 131 154
111 136 148
132 145 165
126 141 165
122 139 167
107 125 143
106 121 147
101 117 135
103 124 139
100 148 81
96 141 77
100 146 80
102 153 83
91 130 72
104 149 84
93 133 73
82 123 68
98 139 77
123 54 102
120 45 101
127 47 106
126 47 103
117 43 98
125 46 101
114 42 96
120 113 141
120 127 150
114 133 145
125 142 163
121 142 154
108 127 146
93 110 116
82 96 103
93 107 104
32 46 23
71 98 71
74 96 87
115 131 142
99 119 109
100 121 130
108 127 133
111 133 132
111 79 102
114 29 75
108 25 66
114 29 74
128 34 89
119 32 83
116 31 80
117 31 80
99 26 73
90 23 70
109 29 79
132 144 168
119 137 152
115 134 141
91 98 211
39 13 224
37 11 192
39 12 205
40 13 209
37 12 202
31 10 184
36 12 195
35 11 194
33 10 172
29 27 107
58 64 28
91 98 55
32 30 63
80 81 95
100 100 106
102 109 117
84 87 90
101 107 112
67 70 70
68 70 70
89 91 94
93 96 99
104 108 111
108 107 112
100 85 88
106 102 106
114 119 124
106 111 118
105 112 118
112 114 118
109 107 117
100 100 110
92 84 99
106 98 127
77 10 128
84 11 136
67 9 119
77 11 132
77 11 138
87 12 155
83 11 144
83 54 134
115 121 128
95 97 111
96 99 107
114 120 128
105 110 117
112 115 119
102 105 116
100 104 113
89 94 102
102 105 115
107 110 114
105 109 114
105 112 119
98 100 104
98 109 109
104 108 116
102 106 116
103 108 119
98 101 106
112 116 121
100 105 111
107 113 121
102 105 109
101 105 112
103 106 111
98 102 107
25 14 93
83 99 124
130 146 163
95 98 107
133 119 64
135 120 65
140 124 67
137 126 69
127 112 61
101 90 55
141 124 66
148 130 70
119 105 61
112 105 59
86 91 74
32 67 82
37 80 102
43 87 107
43 91 120
40 83 113
42 86 129
41 91 124
129 167 204
171 212 252
165 208 252
160 205 252
160 205 252
163 207 252
169 207 246
131 145 171
131 147 176
133 150 176
127 147 172
131 148 173
129 145 168
130 148 171
140 158 181
138 156 181
131 149 172
130 148 174
125 142 164
136 151 175
114 121 178
133 154 181
100 130 141
98 121 122
95 120 119
108 150 138
99 131 132
141 181 163
132 169 152
70 66 70
89 22 67
76 101 91
80 126 86
87 120 116
132 153 172
136 156 181
130 19 100
136 20 103
136 21 110
127 19 98
128 19 97
138 21 107
128 19 100
131 20 104
127 19 98
116 16 87
136 20 107
116 17 87
127 149 172
121 147 164
123 143 163
130 148 177
126 148 172
131 149 171
130 148 177
125 146 174
123 141 168
112 132 152
129 148 174
130 148 172
110 122 150
113 133 153
77 118 61
101 149 83
88 114 69
112 118 92
104 97 88
107 82 85
107 80 88
104 90 86
118 46 104
115 43 96
113 40 89
123 45 101
121 46 103
104 38 87
117 43 95
108 41 92
119 44 98
107 95 116
128 148 171
119 144 153
133 152 172
125 147 155
121 136 154
124 145 163
123 145 155
109 129 136
107 127 145
121 145 157
115 137 149
124 143 162
80 103 100
110 133 131
114 133 141
108 27 69
118 31 80
114 29 79
118 32 83
109 30 78
114 30 76
108 28 73
94 25 62
100 26 69
109 29 76
89 23 61
103 118 145
110 127 136
85 98 167
29 8 145
36 11 186
34 11 182
38 12 202
41 14 232
35 12 198
27 8 145
32 10 178
29 9 142
35 11 183
28 9 141
70 72 44
111 125 141
119 135 153
43 43 80
97 101 109
108 114 121
106 107 110
99 100 103
99 98 100
92 95 99
93 84 85
109 102 109
118 48 47
125 53 52
128 54 53
125 51 50
119 69 72
107 89 98
96 98 103
108 114 121
93 91 93
92 93 103
107 110 114
93 88 106
62 8 101
64 8 106
76 11 130
75 10 127
63 8 105
60 8 108
75 10 130
70 9 113
78 75 102
99 101 114
108 110 114
98 104 111
106 110 116
92 97 102
111 114 118
95 100 106
93 99 102
109 114 119
92 96 98
96 101 115
99 102 113
109 112 118
109 112 116
107 110 115
99 104 112
112 118 124
109 115 121
100 105 114
115 121 128
89 88 97
83 86 99
104 107 113
96 103 117
24 13 83
82 93 111
129 145 166
135 155 181
126 127 112
101 91 52
113 99 54
78 70 50
141 126 68
143 126 67
137 123 68
113 98 55
117 103 55
150 135 74
85 78 42
91 86 48
33 66 79
35 78 104
38 81 107
36 78 107
33 70 96
66 99 126
135 169 197
170 211 252
161 206 252
156 203 252
154 202 252
155 202 252
157 204 252
160 205 252
171 212 252
156 183 212
135 155 181
135 155 181
138 156 181
134 152 176
136 157 172
133 154 181
118 134 152
134 152 176
134 150 171
136 148 172
117 130 177
67 24 214
131 149 174
106 133 140
80 109 108
78 103 101
99 133 125
92 127 123
94 132 126
89 125 119
81 114 110
73 61 74
76 101 97
97 133 123
93 129 124
121 145 158
139 139 170
129 19 103
109 17 91
141 21 107
127 19 99
134 20 104
113 17 88
110 16 85
119 18 94
135 20 104
118 18 95
116 17 90
101 14 76
127 132 157
127 150 163
138 156 181
128 147 172
127 147 177
137 156 181
137 156 181
119 138 169
137 156 181
130 148 177
127 147 177
132 153 181
123 140 167
133 149 174
88 128 97
92 126 78
105 73 87
103 50 86
101 51 87
104 50 87
108 52 89
101 47 80
105 51 87
106 47 86
116 43 94
113 39 86
120 45 101
133 48 106
107 40 90
115 39 82
112 42 93
120 45 102
105 99 118
137 156 181
125 147 162
140 158 181
131 151 172
132 153 173
123 144 164
116 133 146
135 155 181
125 142 164
133 155 173
127 150 164
122 142 154
112 129 149
128 130 157
105 27 70
111 27 69
125 33 84
104 26 64
101 26 65
116 31 82
98 26 66
103 26 68
102 27 71
71 19 54
108 28 79
90 82 105
125 147 162
79 85 191
38 12 204
37 11 191
31 10 176
37 12 213
40 13 223
29 10 167
29 9 163
34 11 183
31 10 172
33 11 177
28 9 148
86 92 168
123 138 154
138 154 176
109 121 140
90 93 104
112 118 124
104 107 110
83 81 81
99 102 105
103 108 112
86 80 79
114 68 70
119 48 47
117 47 46
123 51 49
121 50 49
106 42 40
117 60 62
85 66 70
99 99 103
92 89 95
98 101 110
95 97 101
87 75 103
48 30 62
61 8 106
62 8 98
71 9 117
59 8 97
62 8 107
58 8 90
72 10 123
76 72 87
91 97 104
88 86 96
96 98 102
97 98 101
92 92 93
111 117 123
101 109 116
101 107 114
109 114 126
104 106 117
107 112 118
92 94 100
108 113 119
91 90 97
102 102 104
111 116 121
101 104 110
96 102 110
96 97 100
96 99 108
102 107 113
101 105 112
105 111 122
22 12 78
21 12 74
123 139 170
107 121 148
48 50 106
55 54 124
73 63 102
80 67 109
103 89 70
110 96 51
100 89 48
124 110 60
106 94 50
116 103 55
111 99 54
123 110 59
81 92 101
35 70 82
33 67 86
34 67 85
38 84 115
37 80 107
126 153 175
159 196 233
163 204 246
150 188 225
151 191 232
155 203 252
155 202 252
156 203 252
160 205 252
168 210 252
174 214 252
139 165 191
131 150 173
136 155 181
135 153 176
128 149 172
127 142 157
136 155 181
121 135 156
138 149 172
102 101 194
58 20 181
58 20 182
127 148 172
106 130 142
97 134 129
90 128 122
83 117 112
84 115 111
92 127 122
96 133 129
84 114 111
71 79 83
73 89 89
82 112 101
100 132 135
135 156 173
132 147 173
128 19 102
108 16 86
89 119 139
110 107 134
87 145 162
52 188 195
60 169 175
98 135 159
114 17 90
102 15 79
121 18 93
108 16 87
136 153 176
136 155 181
127 147 174
129 147 171
136 155 181
133 147 173
135 153 176
124 144 166
130 151 172
136 155 181
136 150 172
134 154 181
129 147 171
135 155 181
108 126 127
110 53 89
107 51 87
102 50 86
104 50 86
109 52 89
100 48 82
96 44 72
92 44 74
90 41 69
91 42 74
97 37 81
98 35 78
107 40 90
121 46 103
100 38 86
92 31 65
110 40 87
100 69 90
124 145 162
124 143 168
132 149 171
130 148 171
136 155 181
137 156 181
141 138 140
134 116 101
145 124 99
139 122 99
147 130 114
136 144 156
131 153 171
127 139 164
103 27 69
105 26 70
93 24 62
122 31 77
101 26 68
118 31 77
106 29 74
106 28 74
105 27 67
81 20 60
80 21 70
102 88 110
124 142 164
77 86 104
33 11 180
28 8 141
35 11 191
34 11 183
32 10 171
28 9 152
25 8 135
31 10 170
33 11 181
28 9 147
30 9 155
95 105 154
126 143 163
127 146 162
141 158 181
115 126 140
103 108 113
95 97 100
103 106 111
96 100 103
90 91 95
84 86 90
106 44 43
87 33 32
115 47 46
100 40 39
97 36 35
105 41 39
105 43 43
114 48 48
79 45 50
97 93 107
70 66 81
88 83 87
71 65 77
77 66 83
59 6 77
40 5 64
55 7 97
43 5 70
61 8 104
67 38 105
44 12 74
102 107 117
97 94 105
90 92 102
95 95 105
98 102 107
93 94 95
94 97 101
95 96 101
94 95 104
96 97 102
105 110 116
99 100 105
102 105 109
104 107 114
116 120 124
109 114 122
96 99 103
116 120 124
91 93 97
98 100 105
107 114 122
87 88 94
40 39 66
21 11 76
24 13 88
76 85 111
22 13 95
25 15 102
25 14 103
30 18 124
29 18 125
25 15 109
30 18 125
81 69 99
98 88 67
114 102 56
70 62 33
79 70 41
100 92 51
120 121 110
112 125 141
70 92 106
28 58 77
29 62 94
29 61 76
65 98 127
127 157 191
164 200 233
136 160 178
122 144 163
151 179 203
161 206 252
162 207 252
162 206 252
164 208 252
169 211 252
176 215 252
164 195 239
134 154 181
134 154 181
134 154 181
130 150 176
135 155 181
138 157 181
136 155 181
113 120 152
53 19 184
63 22 206
61 21 191
132 153 176
140 157 181
104 137 138
95 133 129
89 121 118
91 130 122
80 111 107
87 120 115
77 108 102
74 102 95
87 116 111
88 124 114
136 155 181
116 136 157
131 150 174
123 51 106
76 154 171
47 170 174
51 186 195
47 172 180
50 179 185
52 187 195
49 173 181
50 179 185
85 135 149
103 15 78
100 60 89
134 154 181
135 153 176
135 148 173
132 148 172
139 157 181
123 139 159
138 151 174
127 146 167
130 148 175
125 144 162
136 151 172
139 157 181
130 150 168
121 139 162
98 66 95
92 47 81
104 49 85
100 46 77
106 49 82
105 50 84
103 48 80
95 45 77
96 46 78
94 42 72
90 43 76
104 38 85
86 28 61
98 34 72
110 40 89
111 41 92
111 39 86
97 34 75
91 32 72
120 123 147
135 155 181
129 144 163
127 145 157
140 147 161
158 115 7
162 114 6
152 109 6
165 116 6
136 98 5
151 106 6
147 105 6
124 124 128
133 148 172
97 24 63
105 28 74
107 26 68
104 26 68
103 26 67
98 25 62
103 27 72
112 30 75
78 20 56
93 24 71
64 15 47
113 126 148
129 148 169
97 110 153
28 9 161
27 9 151
31 10 175
35 11 187
31 10 181
22 8 135
31 10 160
25 8 124
26 8 123
27 8 142
30 9 158
99 110 167
132 148 169
131 145 164
128 146 166
129 147 173
111 121 138
106 110 116
81 82 87
101 104 108
98 101 105
109 115 121
86 48 48
110 42 41
112 44 42
87 33 30
64 26 25
107 43 42
114 47 46
115 48 46
92 36 35
81 77 83
85 78 82
85 87 93
90 80 87
61 55 69
51 51 59
55 38 74
74 50 94
40 4 68
57 8 95
79 62 93
67 62 74
94 94 98
100 101 111
99 100 109
97 99 104
99 106 113
104 108 117
91 93 99
111 114 118
81 83 86
102 107 117
105 110 116
101 103 108
110 113 118
84 84 89
77 79 93
107 110 114
92 97 103
74 75 78
89 91 94
110 112 114
95 98 108
83 92 96
16 9 58
23 27 61
18 9 60
16 9 60
23 13 87
29 17 116
23 13 91
29 17 118
29 17 123
29 18 131
34 20 137
28 17 118
73 63 109
94 82 44
65 53 26
81 71 38
95 102 107
121 136 154
114 133 156
97 102 104
66 84 99
33 71 95
35 70 84
74 88 87
121 142 167
117 141 177
103 118 127
103 119 125
151 177 199
171 212 252
167 209 252
162 200 241
143 176 218
83 94 139
71 69 126
48 17 108
63 57 108
82 85 134
107 120 152
130 149 173
131 148 172
134 150 172
130 149 173
78 71 189
54 18 168
63 22 202
65 23 209
126 140 169
131 151 165
127 139 162
103 130 140
67 99 87
65 95 90
82 113 105
85 114 108
60 96 76
69 102 91
71 100 96
108 129 143
121 135 152
135 155 181
125 163 184
49 178 185
51 184 192
46 164 165
49 180 185
51 184 190
48 172 177
51 184 190
51 181 185
45 161 167
51 182 189
95 86 114
118 122 145
133 154 181
139 157 181
132 152 178
132 147 173
133 148 173
128 147 174
121 137 163
131 146 165
126 147 172
115 136 144
123 134 154
129 149 172
126 142 162
106 113 137
94 46 78
97 47 81
105 50 84
106 50 85
92 39 64
100 47 80
95 43 73
94 43 72
101 46 77
90 42 68
89 39 61
105 44 76
85 29 55
93 33 72
95 35 79
108 39 87
104 37 83
107 39 86
91 29 64
112 122 145
134 154 173
137 156 181
133 135 130
151 107 6
151 108 6
162 112 6
155 108 6
156 112 6
147 106 6
152 109 6
147 105 6
148 106 6
136 110 81
107 27 70
87 22 59
102 26 69
106 28 73
102 27 70
50 61 28
53 61 32
78 56 51
77 51 51
70 26 52
51 13 43
114 121 144
136 155 181
129 147 171
26 8 142
25 8 133
28 9 144
26 8 139
30 10 172
32 10 168
26 8 133
29 9 147
28 9 145
24 7 121
28 8 143
124 140 170
128 144 161
126 144 168
118 128 141
132 151 176
116 131 150
90 93 109
95 97 100
100 101 105
97 100 104
80 78 77
81 50 48
94 37 34
97 36 35
90 29 29
106 41 41
89 34 32
118 48 46
91 35 39
92 37 37
113 104 110
80 78 89
86 75 89
76 74 87
80 76 76
80 77 90
75 71 70
79 70 74
83 79 88
73 67 78
80 79 86
87 83 88
82 79 88
89 90 100
82 80 97
95 95 103
102 104 111
85 83 84
93 94 99
90 93 101
86 84 88
94 93 99
100 103 108
105 105 107
81 83 90
114 121 128
92 94 99
108 112 118
95 94 103
80 81 85
95 93 93
101 105 112
81 85 94
11 6 39
18 10 65
60 69 86
20 11 75
23 14 93
24 14 98
27 15 104
29 17 118
31 18 125
33 20 137
33 20 137
29 17 124
32 19 133
30 18 128
49 42 90
77 71 61
73 80 86
66 67 65
81 92 107
49 67 81
75 83 88
86 98 108
40 41 35
13 34 49
74 88 115
145 174 203
96 113 152
56 66 80
84 82 133
143 168 204
176 215 252
128 152 192
86 96 141
44 15 100
44 15 96
44 16 99
47 17 105
48 17 108
48 17 108
47 17 108
70 69 121
137 156 181
124 141 164
124 140 169
55 20 180
64 22 199
52 17 164
59 21 196
128 148 168
124 144 167
118 137 158
116 134 155
108 132 137
68 95 85
23 47 41
49 73 61
52 77 68
93 114 121
96 118 125
105 122 132
111 122 142
118 148 168
86 173 181
52 188 195
49 176 180
49 172 178
52 188 195
48 167 174
48 165 177
45 165 164
48 176 185
46 164 170
46 151 149
41 138 144
118 159 177
137 156 181
122 139 162
132 149 171
135 153 176
123 142 162
131 152 173
123 142 162
130 150 172
133 149 172
125 134 155
136 155 173
126 145 165
107 119 134
100 83 102
80 39 68
101 48 79
90 44 75
101 47 79
88 41 72
91 45 75
96 44 72
119 55 81
128 56 69
132 58 72
126 56 70
122 54 70
121 54 68
128 56 72
104 41 80
76 28 63
92 32 72
95 34 76
84 30 67
129 146 171
138 154 176
133 153 173
149 115 62
155 106 6
164 117 7
137 95 5
161 116 7
152 109 6
129 100 5
131 95 5
153 106 6
136 98 5
147 103 6
128 101 83
82 21 55
85 32 58
52 63 33
31 70 13
31 73 13
29 68 12
30 67 12
30 68 12
28 63 11
49 44 30
130 148 172
139 157 181
128 147 171
66 64 176
31 10 180
29 9 155
22 7 111
28 9 146
37 12 202
25 7 123
24 7 130
22 7 137
30 10 162
49 50 134
121 136 158
137 156 181
131 146 175
133 150 174
132 151 176
129 143 162
128 144 168
118 97 101
118 64 69
141 68 71
131 58 62
120 69 70
96 36 38
74 28 27
81 31 30
84 29 28
101 38 37
82 30 29
91 36 39
102 41 39
61 43 45
79 79 85
89 94 97
73 66 65
70 70 79
71 68 75
75 63 82
78 73 94
96 97 105
76 73 84
75 69 85
90 88 89
92 97 103
108 111 114
99 102 112
93 94 96
94 95 102
101 101 103
103 105 109
94 98 103
100 100 101
95 100 104
94 97 101
103 109 116
102 106 111
93 93 96
112 113 117
97 99 102
102 101 104
102 105 109
114 117 121
68 69 77
54 52 60
12 6 46
94 108 135
68 73 86
15 8 57
18 11 70
25 14 98
25 14 93
24 14 90
29 17 120
25 15 99
30 18 128
34 20 139
27 16 116
34 21 146
39 29 123
95 103 124
102 117 135
98 107 119
84 93 103
98 116 137
102 117 136
62 75 94
89 101 117
100 113 139
91 117 143
104 131 159
87 108 128
87 107 143
55 67 132
125 152 189
81 95 130
36 12 77
46 16 99
44 15 97
41 14 92
41 15 92
46 16 99
41 14 95
48 17 105
46 16 102
49 17 108
73 71 123
138 156 181
117 131 170
54 19 182
55 19 174
48 17 165
49 17 158
135 151 175
120 135 156
113 132 149
112 133 143
108 119 131
78 95 103
93 109 119
66 79 82
77 103 107
99 111 128
102 118 126
118 134 155
123 142 164
94 134 146
52 186 190
48 175 177
50 179 185
49 176 180
38 138 134
48 172 180
45 158 156
44 154 146
49 177 185
48 163 165
43 149 153
44 158 165
113 149 165
129 147 172
128 139 164
130 149 164
119 122 144
126 142 163
126 145 162
123 138 162
128 150 172
112 123 144
127 140 163
129 143 169
123 138 154
126 144 156
104 80 106
91 46 78
76 33 57
78 36 60
96 44 74
81 39 68
101 47 75
116 50 65
132 58 72
131 58 72
131 58 72
130 57 70
130 57 72
122 53 68
115 51 63
120 53 65
100 40 58
74 27 59
92 34 75
99 57 88
124 146 164
135 149 173
127 120 128
137 100 5
150 102 6
135 92 5
152 108 6
149 103 6
135 99 5
158 115 6
146 102 6
141 102 5
111 81 4
130 93 5
137 94 21
83 68 75
28 62 11
29 67 12
31 72 13
31 72 13
31 72 13
30 70 13
30 69 13
30 70 13
32 74 13
67 91 81
128 145 166
127 144 168
109 116 169
27 9 157
22 7 122
21 7 117
27 8 142
19 6 98
22 7 115
23 7 127
21 7 120
24 8 132
112 124 156
97 105 138
125 143 169
112 128 151
130 146 171
106 116 135
133 136 156
147 92 104
144 65 71
151 68 74
154 71 78
149 66 71
137 58 62
132 59 64
121 53 56
83 29 28
63 21 22
75 27 30
81 29 27
74 27 29
47 17 19
61 59 64
60 54 60
86 84 86
78 68 66
79 73 73
101 104 109
87 88 91
64 69 66
65 61 67
75 71 81
86 90 98
77 79 92
91 90 94
92 91 100
99 100 110
86 86 93
93 95 100
75 78 83
94 94 96
99 104 109
85 82 100
92 96 101
81 83 88
83 82 82
95 97 99
99 100 105
94 97 100
99 98 99
75 72 74
86 85 88
62 61 66
81 81 91
37 38 57
106 115 131
133 148 167
44 49 82
17 9 58
21 12 87
26 15 101
24 14 98
24 14 93
26 15 112
24 14 101
31 19 131
28 17 118
33 20 137
31 19 129
30 18 129
96 105 142
128 144 163
113 126 148
109 115 125
114 123 133
131 148 171
137 156 181
98 113 137
131 147 167
125 142 164
102 132 162
108 138 171
108 138 169
86 111 144
104 134 167
65 68 112
43 15 93
39 13 81
41 14 90
44 15 91
46 16 102
39 14 92
46 16 101
46 16 102
43 16 101
47 17 108
40 14 89
72 71 117
127 143 174
49 16 142
53 18 164
57 20 182
52 17 172
132 153 176
131 148 169
127 150 171
119 141 155
128 149 169
126 147 173
124 138 163
110 124 142
108 110 133
126 144 165
129 147 172
129 152 171
130 148 172
81 136 150
52 184 190
47 164 168
48 168 169
50 177 180
46 167 173
49 172 175
48 161 168
46 154 159
44 148 149
39 148 145
47 142 155
42 148 151
47 143 150
97 87 109
112 124 144
114 129 143
123 141 168
121 128 156
133 147 173
113 120 145
123 142 162
127 141 163
126 141 164
117 126 144
132 153 173
129 146 163
107 82 106
85 40 69
87 39 66
97 48 80
91 43 70
86 41 68
124 54 72
129 57 70
129 57 72
126 55 68
129 56 70
124 53 65
114 52 64
131 57 70
125 53 67
117 52 64
131 58 72
109 45 59
79 26 59
118 121 146
133 154 181
113 121 144
129 90 57
159 112 6
145 102 6
156 107 6
148 105 6
129 91 5
158 113 6
117 86 5
141 101 6
118 91 4
106 78 4
93 66 3
77 60 5
29 67 12
28 65 12
28 67 11
31 73 13
31 71 13
30 70 13
32 73 13
26 59 11
28 63 11
28 62 11
26 60 11
55 73 61
95 109 129
100 111 137
101 110 134
66 70 168
26 9 143
25 8 139
23 7 132
21 7 143
16 5 92
62 69 140
125 140 161
99 111 141
125 145 175
120 136 161
118 130 154
113 129 160
100 102 140
154 82 92
157 70 77
139 60 62
146 65 71
134 62 63
137 61 67
141 63 67
129 60 60
144 63 65
123 50 53
74 27 28
53 16 14
41 13 13
49 18 18
64 43 44
43 27 26
60 51 58
63 59 63
76 67 76
76 74 76
97 96 99
77 66 70
81 79 83
82 83 91
97 98 100
74 71 70
92 90 95
95 103 103
99 102 105
74 74 79
101 103 108
100 103 108
82 85 92
107 108 116
88 88 97
95 94 99
101 102 103
87 90 98
84 85 93
81 85 84
88 90 93
85 87 90
97 96 98
97 98 101
61 60 62
76 74 77
96 97 101
131 141 156
118 137 156
113 125 143
13 7 54
18 10 67
19 11 83
18 9 63
25 14 95
31 18 123
25 15 105
24 15 101
28 17 118
28 17 118
29 17 121
23 14 101
21 12 90
113 131 164
125 143 170
131 147 167
125 141 162
132 149 175
127 147 172
123 138 169
116 128 148
134 152 176
133 150 172
100 124 150
105 135 164
104 135 166
96 120 147
97 122 152
32 11 74
42 14 84
39 13 87
43 15 93
45 15 98
48 16 101
43 15 94
38 13 89
40 14 92
43 15 92
45 15 100
41 14 94
45 16 102
114 131 158
38 16 134
42 16 146
36 13 129
48 17 157
126 148 172
132 153 176
133 154 181
125 139 163
117 133 157
117 132 155
127 148 169
134 151 175
130 146 168
137 156 181
134 149 172
109 120 137
105 111 132
79 163 171
39 133 134
45 158 163
51 181 185
36 138 143
45 165 171
46 164 169
49 173 175
47 169 174
43 147 153
47 166 169
48 170 177
43 152 151
43 155 158
111 102 128
94 99 117
122 132 160
131 152 173
121 139 162
133 147 173
136 155 181
134 152 176
129 144 165
127 139 164
130 145 167
128 143 164
131 149 171
106 92 115
80 38 65
79 36 60
80 37 62
76 36 62
100 41 54
116 51 63
113 48 61
119 51 65
121 54 64
128 55 68
124 54 67
123 53 65
133 57 70
119 51 63
118 53 64
128 56 70
111 47 63
111 102 122
108 114 133
121 124 145
124 135 159
132 88 5
127 91 5
139 97 5
135 91 5
133 84 5
121 87 5
123 89 5
125 85 5
102 72 4
120 90 5
131 94 5
118 85 4
75 66 7
31 70 13
27 61 10
28 67 12
32 73 13
29 69 13
28 69 12
31 71 13
29 68 12
28 63 11
24 53 10
26 60 10
23 52 9
97 110 135
88 93 114
68 75 105
100 101 126
16 6 73
18 6 109
9 6 51
46 50 97
64 71 102
72 72 106
68 73 105
67 72 127
66 72 105
73 80 127
94 101 120
122 137 166
147 81 90
146 65 69
157 71 78
142 64 68
137 61 67
150 68 75
158 71 76
149 67 74
137 61 65
128 55 61
138 60 72
122 59 61
92 67 69
61 58 59
77 76 78
58 56 52
59 54 56
58 55 58
61 41 92
99 67 169
87 34 165
97 41 185
106 70 176
91 59 151
80 80 92
53 42 57
82 80 86
77 81 82
79 80 91
97 100 103
77 74 87
91 92 95
68 65 66
92 94 98
83 81 82
89 88 88
86 87 97
85 87 93
102 100 107
76 76 78
68 65 74
82 81 84
74 75 76
77 80 86
89 92 97
81 80 81
96 99 104
109 122 139
129 145 167
127 147 173
129 147 167
11 6 42
20 12 85
21 13 87
19 11 77
19 12 83
25 15 103
25 15 105
27 16 116
24 15 106
28 17 118
27 17 118
24 15 111
26 16 109
108 117 148
130 148 171
128 146 169
121 138 165
125 143 168
125 144 168
136 156 180
125 143 169
124 143 170
125 143 166
122 138 158
90 114 136
93 123 153
111 140 169
72 87 121
33 11 72
33 11 80
37 13 80
39 13 84
41 14 88
44 15 97
37 13 84
43 15 93
46 16 100
40 14 92
40 14 90
43 14 90
39 13 90
83 86 127
119 138 162
57 19 175
49 17 155
75 42 169
130 148 171
134 154 176
133 150 173
127 145 167
131 151 175
133 151 176
130 150 176
124 130 156
123 145 167
124 131 153
135 155 181
131 149 175
133 147 173
69 147 152
43 150 152
44 149 149
49 178 180
44 157 163
39 141 145
45 161 167
47 164 163
47 164 166
35 125 126
43 151 151
39 139 146
43 144 138
56 118 125
135 155 181
107 108 130
131 148 172
133 154 181
133 148 172
123 135 158
135 155 181
138 156 181
121 131 155
128 146 163
117 123 143
124 145 171
115 132 151
125 139 163
71 33 57
81 41 68
88 41 69
74 35 57
107 47 59
118 51 62
119 54 67
135 59 72
123 52 64
122 53 64
130 57 70
123 55 64
111 50 62
130 56 68
105 45 57
112 46 58
89 41 48
110 90 107
123 139 162
102 102 118
101 105 126
124 83 4
133 93 5
116 82 5
147 103 5
148 100 5
115 80 4
126 90 5
120 84 4
135 95 5
108 75 4
71 52 2
71 50 2
27 61 11
32 73 13
26 63 11
30 69 13
27 65 11
30 68 12
30 69 13
30 71 13
30 69 12
29 66 12
24 54 9
26 60 11
26 55 11
65 73 71
96 109 140
91 99 120
88 87 121
92 101 142
36 41 68
118 132 151
74 78 112
96 103 135
99 108 138
109 119 137
92 97 111
103 115 137
108 120 147
134 151 174
123 115 150
129 58 63
142 64 69
140 64 71
144 68 69
144 66 71
150 68 74
132 62 64
149 68 73
157 72 78
135 61 64
146 63 71
126 54 62
107 57 59
61 54 52
75 71 70
65 60 61
77 75 74
101 67 176
93 14 198
93 15 203
102 16 214
101 16 211
106 16 223
107 17 223
106 16 217
78 63 116
80 76 78
104 106 108
63 57 58
88 87 90
91 91 96
79 76 81
84 79 76
84 83 83
84 81 84
89 91 91
80 79 80
87 91 96
76 77 80
86 85 86
85 80 85
88 89 90
101 102 103
73 75 79
83 84 86
100 108 119
117 128 144
135 153 176
126 141 161
120 134 152
128 145 166
42 40 72
12 7 55
16 10 66
20 11 78
18 11 71
24 14 94
28 17 118
25 15 108
23 14 97
24 15 109
28 17 120
29 17 119
22 13 96
117 134 163
126 143 165
112 130 155
123 138 157
126 141 164
124 143 166
131 146 170
127 144 168
122 143 166
128 147 171
112 126 142
116 136 161
74 97 118
83 105 132
70 85 116
39 14 87
32 11 70
41 14 89
38 13 84
36 13 83
37 12 83
39 14 90
36 12 82
45 16 104
38 13 84
46 16 102
45 16 103
44 15 98
81 86 124
137 151 178
70 70 151
93 56 132
132 84 146
135 155 181
132 151 174
138 151 172
123 139 162
140 158 181
128 149 171
136 155 181
127 147 168
131 148 172
131 138 155
142 141 131
148 135 89
152 144 105
149 153 95
125 136 95
71 125 117
67 145 139
48 170 174
39 143 147
36 131 131
46 164 169
40 146 151
41 144 145
44 155 159
36 126 133
40 146 152
56 125 130
126 146 168
126 143 165
128 146 172
127 144 166
135 155 181
136 155 181
137 156 181
124 142 166
129 141 163
136 155 181
117 143 167
130 148 172
138 157 181
124 139 162
102 102 121
80 39 66
79 39 67
90 43 69
116 53 64
113 49 60
97 43 53
113 48 58
119 51 62
135 57 68
93 37 49
118 52 64
124 54 66
109 49 58
125 54 69
75 31 38
112 50 62
84 36 48
109 118 146
109 121 141
118 131 152
101 79 57
113 84 4
134 92 5
111 71 4
110 75 4
113 82 4
130 91 5
128 89 5
67 50 2
126 89 5
101 73 4
109 83 6
27 56 9
28 64 12
27 63 11
30 68 12
29 65 12
30 70 13
31 71 13
27 62 11
24 55 10
30 71 13
25 54 10
29 66 12
25 58 11
21 46 8
119 137 170
120 133 159
120 133 156
92 102 129
101 112 136
107 118 146
124 137 158
125 138 161
119 139 158
129 145 171
93 101 124
105 112 129
123 142 163
138 149 172
123 85 97
133 63 65
131 58 63
135 63 67
150 67 72
139 64 68
130 60 63
131 58 65
133 59 63
129 52 67
116 51 58
133 58 63
108 47 49
78 30 38
64 59 63
74 70 70
80 78 94
75 14 156
102 16 217
94 15 199
100 15 214
108 17 229
105 17 229
101 15 203
108 17 229
108 17 229
104 16 217
86 48 147
84 75 110
79 80 83
93 96 100
77 77 85
85 80 76
100 100 102
72 69 72
67 68 74
85 86 95
75 74 73
81 83 87
82 80 84
82 82 83
84 82 83
90 90 88
80 79 81
73 74 76
104 111 126
112 124 144
97 111 128
126 139 157
125 141 161
128 145 167
117 130 149
78 87 107
17 10 64
13 8 61
25 15 106
22 13 98
24 14 99
25 15 114
24 14 98
22 13 96
17 10 73
28 17 114
22 12 100
48 51 111
134 152 176
129 148 171
107 119 141
129 142 163
117 135 161
106 122 142
131 144 161
122 136 159
99 111 128
87 100 124
100 118 139
123 133 153
95 105 117
65 78 106
60 72 92
32 10 68
36 12 78
38 13 86
37 13 81
39 14 90
35 12 80
44 15 94
32 11 75
40 14 87
33 11 74
40 13 83
39 13 86
39 14 90
102 115 146
111 123 149
122 89 141
111 70 118
119 75 125
129 146 173
135 155 181
127 144 162
138 156 181
136 155 181
127 149 174
136 155 181
136 156 181
151 141 121
162 143 69
161 139 41
149 131 40
163 138 40
156 131 39
162 140 41
157 140 39
154 133 39
84 143 131
61 133 131
48 170 174
42 154 147
31 115 115
36 132 136
41 147 151
32 115 118
39 143 147
108 141 159
135 155 181
127 138 165
136 156 181
130 148 172
137 156 181
126 142 166
138 157 181
117 138 158
129 147 167
119 143 159
127 144 165
124 123 147
119 131 154
122 145 168
130 148 171
101 111 132
50 24 41
79 36 52
119 49 60
117 50 59
129 55 66
114 47 54
110 50 60
130 56 68
116 53 61
118 51 62
89 38 48
116 51 62
87 39 48
112 49 58
111 45 51
98 89 104
120 134 155
132 148 172
114 126 146
142 134 128
99 64 3
121 93 5
136 96 5
91 62 3
117 83 5
108 75 4
85 60 3
121 84 4
101 73 4
116 83 5
88 67 6
31 69 12
27 63 11
28 66 12
23 54 9
28 64 11
26 62 11
29 66 12
26 60 11
26 61 11
28 62 11
22 46 8
29 66 11
26 60 11
60 74 81
123 137 166
101 112 129
121 135 163
122 138 160
126 141 158
128 145 167
108 118 136
113 126 148
111 126 152
117 132 155
121 134 152
101 112 128
104 112 124
110 121 133
133 76 84
139 63 68
132 60 67
159 72 78
137 61 67
139 63 68
144 64 73
108 51 59
132 60 67
140 61 69
111 46 59
128 57 61
96 36 43
112 45 54
87 63 64
64 64 64
72 55 91
87 14 189
99 16 211
97 15 201
98 15 202
100 16 217
97 16 211
110 17 229
98 16 212
102 16 217
106 16 223
97 15 201
96 44 184
76 75 78
81 82 85
52 50 55
80 76 83
65 61 62
87 88 90
88 89 91
61 58 60
89 90 90
86 87 89
108 110 112
67 64 64
90 89 91
88 90 95
96 102 110
95 102 114
124 134 152
118 131 150
111 124 144
106 117 134
106 120 140
106 115 130
116 123 134
106 121 152
69 73 93
15 9 63
21 12 84
20 11 94
26 16 110
17 10 76
24 15 102
24 14 101
22 13 92
19 11 85
25 14 106
119 135 171
85 90 167
92 93 204
62 49 211
89 92 191
92 98 189
87 93 187
118 125 157
128 148 173
123 138 156
101 116 140
94 109 117
120 139 162
95 108 126
72 81 100
65 71 96
30 10 69
34 11 73
33 12 76
39 13 85
37 13 83
40 14 86
35 11 77
31 10 71
36 12 87
43 15 96
35 12 77
40 14 87
39 14 86
88 99 126
110 122 152
94 68 111
113 70 117
101 66 117
133 152 176
135 155 181
131 148 172
133 153 178
133 150 175
139 157 181
144 153 162
153 141 104
161 140 41
153 134 39
164 140 41
155 135 40
162 133 39
160 137 40
155 135 40
148 126 38
157 134 40
145 124 36
96 117 66
38 132 127
39 136 139
43 157 164
37 135 138
40 148 150
32 122 127
76 125 140
124 146 167
118 132 153
129 144 166
134 150 174
124 141 162
124 146 173
130 154 177
131 152 174
108 124 145
124 139 163
124 140 163
128 152 177
122 132 154
109 121 142
126 140 163
120 127 150
100 112 128
88 77 93
73 56 71
120 52 64
110 48 59
102 44 53
105 45 56
117 50 61
108 48 58
118 52 62
101 46 50
125 53 64
118 50 61
106 42 55
105 46 55
81 38 41
96 40 58
118 129 147
129 145 166
110 120 142
119 136 157
92 62 24
93 59 3
115 84 4
99 70 4
108 74 4
95 69 4
115 79 4
116 82 4
89 64 3
22 25 0
72 49 2
29 67 12
23 51 9
27 60 11
28 78 20
29 67 12
25 77 19
25 57 10
25 59 11
29 66 11
25 52 10
24 55 11
25 59 10
25 59 11
84 98 99
123 135 158
116 125 147
128 144 164
121 135 157
123 135 152
122 138 159
132 150 174
130 148 171
127 143 164
116 131 153
101 109 120
121 133 148
112 126 150
121 133 150
99 46 48
117 54 59
131 59 63
124 56 63
147 65 70
144 65 69
122 53 58
144 65 69
120 53 63
139 62 67
137 63 69
128 57 63
128 57 62
106 44 55
84 88 101
48 14 103
97 15 193
109 17 229
98 16 204
100 16 205
99 15 211
97 14 206
102 15 215
102 16 223
98 15 207
94 14 195
95 15 204
103 16 211
105 16 220
84 67 123
77 77 79
53 51 48
74 71 74
86 85 91
84 82 82
74 72 70
81 80 80
72 69 68
63 64 64
65 63 67
63 63 63
92 96 104
102 106 115
97 107 121
92 99 112
111 118 129
98 106 120
120 132 149
82 87 97
93 102 118
106 117 138
107 123 145
132 148 169
104 117 135
56 58 69
20 12 84
18 11 72
17 10 71
22 13 92
25 15 104
21 12 91
25 15 105
24 14 92
129 145 180
59 47 206
58 42 215
57 40 206
52 36 187
60 43 221
60 43 221
56 40 208
70 63 208
77 79 171
115 127 187
109 119 142
129 148 171
118 135 157
95 108 128
105 122 142
107 119 139
30 10 70
24 8 58
34 11 70
35 12 75
34 11 74
35 12 83
33 11 74
33 11 74
41 14 90
26 9 57
28 10 68
29 10 67
31 10 72
116 128 163
118 107 142
73 46 81
104 67 112
131 84 141
131 154 177
131 147 170
137 156 181
138 156 181
137 156 181
137 156 181
143 133 103
156 134 39
157 136 40
151 129 39
149 126 37
161 137 40
146 125 37
155 139 39
158 141 39
165 141 41
160 139 41
158 132 39
148 127 37
96 119 86
39 137 133
33 118 118
41 146 151
35 130 133
67 133 142
117 140 161
120 143 164
124 140 162
136 151 171
121 133 153
118 136 157
138 156 181
111 127 143
128 147 171
117 144 164
111 132 152
131 147 172
130 148 172
119 133 152
116 138 159
91 98 118
98 110 129
106 112 131
94 101 116
69 55 66
107 46 55
107 47 58
109 48 58
127 55 66
102 44 53
105 45 55
118 51 63
104 45 54
111 48 58
103 46 56
103 45 55
102 44 53
99 44 54
113 104 118
119 131 154
130 150 176
107 115 133
107 112 130
117 117 131
111 87 57
79 65 3
134 94 5
62 45 2
115 84 4
94 63 3
100 68 4
59 37 2
67 42 2
74 88 24
30 130 42
34 157 52
32 144 48
34 160 53
32 138 45
31 138 45
31 130 42
27 88 26
29 66 12
24 54 10
23 50 10
17 40 8
23 51 9
101 114 128
123 135 154
137 156 181
129 146 169
108 120 141
117 135 156
112 123 137
119 132 148
127 141 159
122 134 150
105 108 120
123 136 154
117 133 151
114 126 141
122 135 154
131 75 83
122 55 58
131 57 61
123 57 59
136 62 65
134 61 65
105 46 52
120 55 59
132 58 61
128 55 68
125 54 63
114 50 54
106 46 52
109 47 51
42 25 28
100 84 144
104 16 211
106 16 223
110 17 223
102 16 217
94 14 199
93 14 194
98 16 205
98 15 204
100 16 211
103 16 216
104 16 211
94 15 207
99 16 221
91 14 199
90 90 93
34 29 29
75 69 72
40 36 32
32 36 30
71 71 79
57 53 55
44 41 40
76 78 82
93 99 109
90 97 109
111 116 130
76 80 89
78 81 87
104 113 125
88 97 113
76 86 102
118 129 148
91 100 113
98 105 127
80 87 99
53 57 67
99 110 127
93 104 122
72 80 100
60 64 79
45 50 76
14 8 60
19 11 83
17 10 84
46 50 76
14 8 69
95 102 177
58 38 195
59 41 209
56 40 207
53 37 199
61 42 215
59 43 221
60 43 221
60 43 221
61 43 221
60 43 221
90 93 198
103 115 164
127 147 171
117 135 156
125 145 169
112 129 153
119 141 169
78 86 117
33 11 72
29 10 71
34 12 76
33 11 72
29 10 63
37 13 80
34 12 74
32 11 72
38 13 84
27 9 65
34 12 76
93 101 133
128 144 174
86 84 121
116 73 123
116 74 128
106 67 115
130 149 167
140 157 181
135 153 176
140 158 181
139 157 181
125 126 117
150 128 37
150 127 37
147 125 35
150 126 36
160 139 41
162 136 39
151 126 38
150 129 38
157 134 39
140 124 35
158 137 40
136 119 34
157 133 38
113 109 57
64 147 145
35 128 128
24 88 86
62 101 111
114 137 157
107 132 148
134 153 174
132 149 171
128 150 174
112 134 152
132 149 171
125 144 164
132 148 172
128 146 171
128 146 170
127 146 171
129 147 172
136 155 181
119 138 158
112 130 144
94 99 119
115 124 141
133 150 171
95 96 111
121 132 154
99 79 93
106 46 58
107 47 57
111 48 59
121 51 61
100 41 52
101 43 51
114 49 61
127 54 65
86 38 47
79 34 45
102 45 55
66 30 34
126 131 154
115 127 147
117 130 153
127 142 162
131 148 171
105 110 120
110 114 128
113 76 4
90 64 3
85 51 2
93 66 3
101 72 4
84 60 3
67 70 17
54 136 44
35 162 53
53 161 76
34 161 53
34 160 53
33 154 51
35 161 53
35 160 52
33 158 53
28 123 40
25 85 25
21 52 8
24 55 10
21 43 7
17 39 7
112 127 145
108 112 128
111 122 153
128 142 161
113 124 140
135 153 176
116 130 148
133 150 171
118 124 141
116 127 143
120 131 148
120 137 154
120 134 152
109 123 143
110 119 132
110 90 100
121 54 59
136 60 66
131 57 61
131 59 66
140 63 67
111 48 57
98 39 50
124 53 63
104 46 57
112 51 56
129 57 62
91 37 43
76 55 64
96 103 113
104 42 202
93 14 198
106 16 217
102 16 212
94 14 192
99 16 217
98 15 202
97 15 203
97 15 202
98 16 205
96 15 204
91 14 188
95 14 199
99 15 206
77 12 158
56 35 87
32 46 25
55 52 52
37 28 44
68 70 73
54 56 62
42 42 42
62 65 70
52 52 63
60 60 59
94 102 102
90 99 111
80 84 92
69 70 73
100 113 131
69 74 84
105 115 129
96 109 116
108 118 134
78 79 92
69 76 105
76 74 82
61 56 70
52 54 58
59 64 72
62 65 76
41 40 40
9 5 37
49 52 78
22 25 34
102 113 132
44 42 134
58 40 204
60 43 221
55 40 207
51 32 174
65 39 210
69 29 186
63 29 180
65 30 185
54 38 204
58 42 221
59 43 221
55 39 208
78 77 187
104 119 162
130 144 163
136 155 181
121 138 164
130 149 171
105 120 142
36 24 62
31 11 70
24 8 65
25 8 55
34 12 76
25 9 70
33 11 75
26 8 61
29 10 62
35 12 79
89 98 126
115 130 157
117 134 159
117 94 130
107 66 114
113 72 120
114 71 117
132 151 174
130 154 177
137 156 181
136 155 181
123 141 162
150 133 68
155 133 39
146 126 37
133 110 33
152 129 37
152 130 38
142 121 36
153 131 39
144 132 36
150 132 36
159 135 39
139 116 34
143 123 35
127 104 30
144 118 35
84 107 97
24 88 89
62 77 80
77 91 97
99 121 137
91 112 128
111 139 157
128 152 177
79 113 123
98 119 134
124 143 164
108 133 152
127 148 172
130 148 171
123 135 158
127 141 163
108 120 143
122 130 154
130 154 177
113 133 152
119 130 153
118 136 153
115 127 146
116 128 146
114 114 132
125 139 163
98 43 53
103 44 53
90 44 48
107 47 58
94 41 51
80 35 41
106 45 55
101 43 53
120 51 62
85 37 47
95 41 48
94 88 104
88 92 106
127 146 172
119 132 151
112 116 129
125 134 153
92 93 99
108 115 128
105 107 114
89 82 80
20 15 14
49 29 1
77 44 2
39 24 1
44 121 38
32 148 49
32 156 51
33 153 50
33 155 52
34 161 53
36 161 53
31 145 46
32 155 52
34 156 51
33 154 52
33 153 51
29 121 38
17 43 8
19 44 8
92 106 114
111 124 140
110 123 142
116 119 132
120 134 152
110 124 140
120 133 151
126 143 164
115 125 142
120 133 151
107 113 117
112 120 134
114 123 145
119 131 148
120 133 151
120 132 148
112 126 146
131 57 62
111 47 52
127 56 65
99 44 47
116 49 56
94 41 48
105 45 53
94 41 49
112 48 58
126 56 62
110 49 53
104 44 53
61 39 42
56 52 54
91 51 175
89 13 181
93 15 192
106 16 217
99 15 198
94 14 193
100 16 211
98 15 210
95 15 203
94 14 206
98 15 208
90 14 189
89 13 186
103 16 209
76 12 168
59 58 82
61 54 66
30 27 39
67 73 81
28 25 23
50 50 51
76 81 89
64 65 85
81 85 94
57 56 59
84 89 97
83 85 91
92 98 110
75 81 92
89 93 100
101 106 129
100 109 122
82 89 102
112 123 137
58 63 89
104 110 120
79 82 92
110 114 123
73 78 95
27 33 68
67 73 88
72 80 93
84 90 106
110 120 135
80 88 101
9 5 38
75 76 163
53 36 181
54 37 198
72 27 178
76 21 169
79 21 169
76 15 156
78 16 163
76 20 169
75 18 162
71 23 174
58 38 206
50 35 194
52 37 195
107 115 165
98 111 130
115 130 155
97 110 138
123 139 163
113 122 136
72 74 93
102 116 135
15 5 39
26 9 57
37 12 80
33 11 73
33 11 71
29 10 64
28 10 65
76 85 108
134 152 176
123 137 166
122 135 171
99 79 114
97 60 102
109 70 115
111 71 122
131 146 173
131 145 160
135 153 174
129 153 177
126 130 124
150 125 36
159 137 40
146 121 36
148 123 35
153 130 38
148 129 38
147 128 38
151 131 37
142 121 36
130 113 34
129 106 33
146 123 36
138 117 35
128 108 31
150 129 38
122 123 107
70 75 89
116 135 152
99 105 125
86 94 108
116 128 145
123 140 162
115 137 158
123 135 153
128 150 174
131 154 177
114 127 146
130 150 176
120 143 163
129 148 175
123 136 157
130 147 172
117 132 155
122 138 162
127 136 152
132 153 181
122 128 147
141 149 173
161 165 195
135 137 164
157 159 187
149 135 162
124 94 111
96 38 43
92 37 46
92 40 51
83 36 41
93 38 45
86 37 49
100 43 53
93 40 49
100 76 90
107 114 130
130 148 171
120 130 154
131 148 171
129 148 171
97 91 99
85 89 99
113 116 128
97 102 114
103 106 114
62 53 59
81 77 84
68 77 85
72 97 62
34 146 48
32 154 51
34 161 53
28 136 45
33 157 52
31 146 48
33 154 51
32 148 49
32 150 48
32 146 48
31 145 48
32 152 51
27 120 40
27 71 42
87 106 114
119 130 145
102 114 131
115 126 140
122 140 164
118 131 148
104 114 125
110 123 140
122 133 152
105 113 129
120 136 154
121 135 154
115 125 140
124 136 155
113 121 136
109 116 129
115 122 143
120 134 154
113 104 121
90 38 39
128 52 57
119 57 57
117 53 57
126 56 60
124 56 59
128 55 63
96 44 51
103 46 50
80 33 47
102 79 89
88 95 104
59 61 65
79 14 162
98 14 200
101 16 211
92 14 191
85 12 172
94 14 187
91 14 187
86 13 180
106 16 219
85 13 190
68 10 156
77 12 166
83 13 180
77 11 163
76 11 170
38 31 51
56 58 65
52 51 54
65 61 65
90 98 110
83 87 94
85 91 104
64 64 65
41 42 44
91 98 109
100 109 122
87 93 101
68 71 92
79 82 93
84 90 100
77 80 84
66 71 77
94 101 116
104 115 129
52 52 63
106 112 122
99 103 109
114 125 140
120 137 162
114 128 148
107 118 134
93 103 120
97 110 129
119 133 151
121 132 155
100 109 157
46 33 175
61 30 179
76 20 161
76 15 155
78 16 163
79 16 158
74 15 155
78 16 163
77 16 163
80 16 163
77 16 163
74 15 149
61 29 179
55 39 193
57 41 209
104 119 159
103 115 136
105 120 144
115 128 147
95 104 123
102 112 130
67 75 91
66 75 84
64 71 82
21 7 48
16 5 35
54 54 67
66 72 90
111 125 142
106 117 138
92 100 122
109 122 144
110 119 144
98 95 128
90 56 95
91 58 101
92 58 101
131 156 171
141 158 181
127 150 168
127 152 177
127 135 138
135 115 33
149 123 36
131 107 33
124 109 30
154 127 38
150 125 36
111 100 28
136 114 33
153 128 37
151 130 38
138 118 34
154 131 39
141 120 35
147 124 36
130 114 32
138 142 133
125 149 169
117 143 162
127 148 172
122 141 162
114 129 152
126 145 174
113 139 160
120 142 165
136 155 181
123 142 166
121 139 161
116 135 155
121 139 162
131 152 174
130 153 172
137 156 181
120 132 157
125 140 161
145 154 182
168 166 198
197 188 226
190 185 226
185 182 226
183 181 226
181 180 226
187 183 226
169 157 191
126 102 118
92 65 78
95 40 49
88 37 45
68 28 34
102 44 54
90 74 87
80 72 84
100 102 128
110 120 142
81 85 100
98 106 119
118 131 151
124 133 152
117 131 148
123 139 162
108 120 140
117 124 140
103 119 140
94 91 111
112 124 140
113 123 140
54 136 71
31 147 49
30 131 45
31 142 46
35 163 53
35 162 53
32 146 49
33 160 51
32 151 51
31 151 46
27 133 42
35 150 51
28 141 45
33 153 50
51 129 61
106 117 131
87 101 114
115 126 140
117 127 140
85 93 104
114 131 149
110 122 135
132 149 171
124 138 159
120 129 146
108 123 143
127 145 169
115 133 154
121 139 161
122 132 152
89 98 111
118 131 151
98 102 116
112 114 126
94 85 94
91 41 44
86 39 39
104 46 50
111 48 52
99 39 42
72 38 38
72 25 41
94 40 44
94 39 55
40 35 36
102 111 124
95 102 116
90 58 158
103 16 211
81 12 173
78 13 166
79 12 166
88 13 181
97 15 204
95 14 195
102 16 214
96 15 198
95 14 200
87 13 181
90 14 196
63 9 144
76 30 147
66 65 66
72 78 87
89 96 108
91 97 108
88 95 106
78 83 91
98 105 117
79 84 93
99 106 117
117 129 145
87 91 103
107 117 131
89 95 108
120 131 148
93 105 124
108 112 124
113 130 152
103 111 121
105 113 129
78 83 96
122 131 143
112 118 131
135 146 161
103 113 132
111 123 140
94 99 110
120 133 152
112 127 151
121 134 153
108 118 135
61 60 146
62 30 186
65 13 130
76 16 163
76 16 150
74 15 157
76 15 153
80 16 163
75 15 154
77 16 163
73 14 150
77 16 157
63 13 133
77 16 158
69 33 194
61 39 204
104 118 137
126 142 165
98 107 132
105 119 138
92 101 119
97 113 139
116 129 149
59 64 81
62 64 75
77 85 104
68 73 89
45 49 64
91 102 120
66 71 91
66 71 92
68 72 93
76 85 108
115 130 155
99 102 127
118 76 127
97 61 103
115 75 128
138 156 181
131 151 174
136 153 178
121 144 166
149 150 142
143 121 35
144 120 35
136 115 33
143 122 36
147 119 36
129 112 32
161 135 39
144 123 37
149 125 37
118 98 29
133 117 33
126 107 32
139 118 33
128 109 32
139 118 35
128 134 149
137 156 181
128 147 171
129 151 174
134 154 181
134 150 172
131 148 171
129 146 173
128 150 174
127 154 173
122 146 167
124 145 169
136 155 181
131 153 181
120 138 157
132 149 172
137 156 181
123 139 158
116 130 152
161 163 193
190 185 226
183 181 226
179 180 226
179 180 226
177 179 226
177 179 226
181 180 226
182 181 226
180 175 215
185 169 196
95 77 90
52 21 25
54 29 18
67 54 62
77 82 91
112 116 129
83 89 99
107 110 123
107 112 130
130 148 171
101 107 122
104 111 121
121 137 157
79 77 83
112 124 141
104 121 140
103 112 123
124 140 161
123 137 156
77 141 106
34 155 51
31 140 46
27 138 40
34 150 49
24 125 38
32 154 51
34 155 51
33 156 52
33 149 48
35 162 53
31 144 48
33 150 49
33 152 51
30 133 44
30 130 43
70 119 90
100 108 118
91 100 107
86 97 107
128 133 148
133 144 162
116 129 147
102 112 128
114 126 144
138 156 181
124 137 157
113 121 139
119 129 147
120 133 155
117 131 145
108 108 124
102 110 124
110 119 135
120 124 138
98 96 112
87 76 86
107 48 51
112 47 53
87 33 36
72 24 30
88 37 39
74 32 35
84 57 59
49 38 50
78 78 87
73 63 76
69 69 83
76 72 109
82 12 166
80 12 163
92 14 186
85 14 179
98 16 198
68 12 147
72 11 161
89 14 187
83 12 179
88 13 178
82 12 180
70 10 150
75 11 157
82 65 139
94 100 125
92 97 111
95 106 121
101 109 120
98 100 108
96 105 120
106 114 132
114 122 140
97 103 116
94 94 99
110 121 137
97 105 127
112 120 131
100 111 124
109 119 133
91 101 120
106 117 131
84 87 100
116 126 140
123 136 158
129 142 159
124 140 161
127 139 156
105 118 137
105 117 139
121 137 159
121 134 154
107 118 140
113 126 144
112 127 146
80 70 128
61 24 158
71 14 148
72 14 147
73 15 153
75 15 154
75 15 153
70 14 149
74 15 156
83 17 163
68 14 137
75 15 157
73 15 152
72 15 161
71 15 158
57 32 177
101 114 185
115 130 155
123 141 165
133 152 176
122 136 158
110 123 141
101 115 137
114 130 153
88 93 108
86 98 119
95 102 122
106 117 137
99 108 124
116 131 153
104 119 143
112 124 148
98 110 131
114 130 153
79 86 107
102 98 124
86 53 92
90 56 92
131 140 169
133 156 178
134 151 175
131 149 171
138 147 152
146 123 35
124 102 30
131 111 32
140 120 34
129 107 31
150 135 38
128 102 29
142 121 34
125 104 31
143 121 37
142 122 35
127 122 32
114 92 27
123 104 30
139 113 32
126 134 141
132 149 171
129 147 172
135 155 181
134 154 181
136 156 181
129 145 167
124 142 166
116 131 151
138 157 181
124 140 164
132 148 172
133 154 181
131 147 172
129 141 163
123 139 162
128 142 162
133 142 165
187 174 208
190 184 226
187 183 226
181 180 226
175 178 226
174 177 226
174 177 226
176 178 226
178 179 226
178 179 226
178 171 209
178 173 212
136 126 147
70 69 78
72 72 82
58 52 60
72 71 83
108 115 129
109 114 130
111 129 151
106 112 130
112 115 130
116 122 142
126 141 161
114 127 146
130 147 172
114 126 143
115 131 151
120 137 156
111 130 151
122 139 161
98 127 129
29 136 45
30 141 45
32 145 48
33 156 52
32 150 49
32 152 51
32 149 49
27 125 41
31 133 42
27 134 42
33 154 51
34 155 51
31 146 48
31 139 45
35 160 52
62 103 85
105 121 140
102 107 119
87 100 132
105 115 128
114 131 151
129 148 171
118 134 154
126 146 171
132 149 171
123 140 161
118 130 150
118 129 146
124 133 152
111 122 140
104 102 117
116 122 142
111 105 128
99 101 116
104 109 122
71 55 60
61 25 26
67 72 81
76 73 82
57 52 58
54 49 63
86 92 109
47 49 58
59 35 37
82 84 93
108 121 140
93 100 112
69 66 80
80 18 165
76 12 165
78 12 165
86 13 173
88 14 185
74 12 159
85 13 177
62 10 148
84 12 173
82 12 172
87 13 186
86 13 178
72 11 151
111 117 141
112 125 144
97 109 124
83 85 105
107 115 126
82 88 100
117 125 138
72 74 79
119 128 146
119 133 149
127 141 170
86 88 100
123 133 145
95 97 112
119 128 140
129 144 163
119 133 152
115 124 137
113 126 143
109 112 124
108 118 128
118 131 148
127 143 165
122 136 160
91 104 123
111 124 141
112 124 140
120 133 151
125 142 165
133 150 171
124 140 162
75 54 127
79 16 158
73 14 146
76 15 146
69 14 141
73 15 149
72 14 148
74 16 154
72 14 144
79 16 158
79 16 158
76 15 154
77 16 158
79 16 163
68 14 144
73 20 158
104 110 168
129 149 174
122 137 156
128 143 164
130 143 162
120 136 156
123 139 166
121 139 165
114 124 148
134 152 176
122 139 162
114 135 155
125 140 164
127 144 168
120 134 154
115 130 155
120 132 152
132 147 167
112 124 150
124 137 156
105 79 114
94 59 98
115 92 138
127 136 164
136 153 176
136 155 181
129 147 171
127 111 44
150 127 37
144 119 35
132 108 31
102 85 24
133 110 33
153 129 38
129 113 32
149 125 36
135 114 33
144 123 35
138 115 34
126 109 32
102 89 26
146 128 66
126 135 152
139 157 181
133 152 176
136 155 181
116 137 151
134 155 181
129 153 177
129 142 162
135 151 171
133 150 172
135 155 181
122 142 165
106 111 130
116 136 158
128 141 163
130 148 172
138 156 181
162 151 171
194 186 226
192 186 226
185 182 226
180 180 226
176 178 226
177 178 226
175 178 226
178 179 226
177 179 226
183 181 226
182 181 226
180 174 216
152 152 176
116 127 133
97 111 122
123 132 152
103 119 140
119 138 161
112 121 142
107 123 130
109 119 135
110 119 134
105 121 140
116 130 146
123 138 159
127 142 161
128 140 163
129 147 172
128 143 162
115 130 152
134 154 181
68 130 92
24 133 36
28 123 41
29 138 45
31 134 45
32 146 50
29 136 47
28 135 45
31 144 48
26 125 40
27 135 43
27 130 41
30 143 48
31 143 49
33 150 49
30 140 47
75 130 97
126 141 161
123 134 151
97 91 114
101 112 141
128 147 171
129 139 157
95 109 114
121 137 156
127 137 158
138 156 181
118 127 147
123 137 157
118 125 141
135 150 172
118 132 154
130 147 172
89 95 108
112 123 140
108 120 140
106 102 123
107 111 134
86 75 88
74 71 83
87 89 102
108 113 129
100 102 116
102 105 119
82 76 84
113 116 146
87 99 117
94 93 112
116 124 145
82 75 97
72 11 157
83 12 166
87 13 178
62 10 138
77 12 163
89 14 184
90 14 188
75 11 161
71 11 152
69 10 148
72 10 156
96 74 162
87 89 99
115 126 147
105 113 128
109 114 127
79 83 88
103 110 118
101 111 127
123 135 151
124 131 154
116 130 148
117 132 151
113 124 142
108 118 139
113 124 141
117 126 152
114 126 143
117 129 147
112 123 141
112 123 141
108 122 144
96 108 121
124 138 160
119 132 151
118 131 148
97 103 127
105 116 132
94 98 123
105 117 135
116 129 145
118 134 161
121 131 157
68 13 135
60 12 122
70 14 143
78 15 156
71 14 144
74 15 151
75 15 156
74 15 150
75 15 151
74 15 144
68 13 135
72 15 153
63 13 135
69 13 135
68 13 134
72 15 146
102 99 156
131 144 163
118 134 158
127 144 167
113 124 152
126 138 160
115 131 160
118 132 155
107 120 145
121 139 162
120 130 155
103 114 133
115 127 156
116 130 152
113 130 155
126 146 172
121 139 162
123 136 160
96 111 135
96 101 125
108 121 151
86 79 109
106 42 113
117 47 127
111 103 140
139 157 181
132 150 171
124 119 110
130 110 32
124 109 32
142 118 34
122 104 30
118 97 30
130 98 31
120 101 30
111 95 27
133 112 33
121 100 30
129 107 31
132 109 31
129 109 32
118 116 101
137 154 176
135 155 181
121 133 152
126 142 162
137 156 181
131 154 177
132 149 171
121 141 173
138 156 181
139 157 181
124 139 162
116 123 143
133 154 181
138 156 181
128 147 171
139 157 181
122 139 161
189 179 217
195 187 226
189 184 226
183 181 226
183 181 226
180 180 226
179 180 226
178 179 226
181 181 226
181 180 226
179 180 226
187 183 226
190 183 218
175 165 196
158 152 177
114 124 136
121 130 146
134 152 176
121 132 152
131 143 162
134 149 172
131 146 166
124 139 154
127 151 172
130 147 172
134 152 176
122 138 150
127 144 166
133 154 181
125 139 162
122 137 157
129 147 171
69 141 91
34 153 49
29 134 43
30 133 44
26 123 40
29 129 44
27 133 41
32 149 48
29 135 45
31 145 48
33 150 49
29 138 45
27 127 42
30 137 44
30 141 45
33 147 48
74 119 92
118 127 146
119 132 151
134 150 171
121 136 154
121 131 152
110 125 148
130 148 172
120 140 161
115 126 146
132 151 176
129 146 172
133 150 171
126 146 171
120 124 142
121 136 154
125 139 162
120 132 151
114 123 141
115 130 152
128 141 162
127 144 166
103 120 132
112 123 141
96 89 110
111 111 130
98 103 119
98 105 123
100 86 110
110 118 135
114 125 140
118 130 160
115 124 142
68 70 100
94 90 130
89 13 178
65 9 132
68 11 143
66 9 152
69 10 152
86 13 179
80 12 168
83 12 170
71 10 154
86 71 133
98 104 122
89 101 127
101 110 127
116 124 145
111 113 129
121 132 150
110 117 128
111 123 141
127 144 166
121 137 161
111 125 144
124 140 164
121 134 151
133 147 170
107 111 130
113 124 140
116 130 152
133 150 174
117 127 140
138 154 176
123 140 164
131 149 172
133 147 174
100 113 136
131 146 166
113 126 143
131 149 174
131 147 169
125 138 160
126 143 166
130 148 172
111 116 153
69 14 141
76 15 150
63 11 130
69 14 143
76 15 151
73 15 145
71 14 144
76 14 145
67 14 145
65 13 140
66 13 137
77 15 152
74 15 150
75 15 151
69 14 141
75 15 150
94 85 152
116 128 146
131 148 169
124 134 156
127 143 165
119 133 161
120 136 165
128 145 166
128 145 167
120 138 163
107 115 135
117 129 150
112 125 147
127 146 173
107 120 148
112 126 152
115 128 147
113 126 153
115 130 155
115 126 147
62 55 79
101 106 127
127 51 141
126 51 139
122 87 137
129 140 168
132 149 171
129 147 180
125 115 85
129 106 31
121 101 29
107 94 26
102 87 24
124 105 31
129 109 32
106 97 24
118 100 29
111 96 27
125 110 30
110 94 30
116 102 62
143 153 162
124 136 151
134 151 171
128 150 174
132 148 175
122 142 164
136 155 181
131 147 168
130 154 177
138 156 181
131 140 152
139 157 181
131 146 172
126 141 170
139 157 181
125 140 162
124 141 165
141 144 169
171 153 182
198 188 226
192 179 218
190 184 226
189 184 226
182 181 226
181 181 226
188 184 226
187 183 226
188 183 226
189 184 226
191 185 226
192 185 226
162 163 189
88 123 94
98 116 116
117 147 151
110 134 133
127 146 172
129 141 166
130 154 178
129 147 171
132 146 167
123 139 162
135 152 174
123 138 157
124 137 157
135 153 176
132 146 167
132 150 172
128 146 169
139 157 181
70 139 94
29 132 45
29 136 45
28 127 44
32 148 48
30 145 48
25 124 37
27 131 44
27 117 39
28 139 43
26 128 39
30 140 46
30 138 45
28 125 41
31 135 45
26 123 40
109 134 141
133 152 176
131 149 171
115 128 145
127 140 162
122 138 159
131 149 171
130 146 166
123 137 158
120 140 162
129 140 157
134 154 181
135 155 181
119 127 140
116 134 151
127 144 167
133 145 167
111 124 135
127 140 159
111 126 149
131 149 171
128 144 164
124 139 157
132 147 166
135 153 176
119 133 158
99 104 129
128 145 166
99 102 131
128 142 161
87 87 115
119 126 148
90 95 109
94 96 126
89 100 122
89 88 100
84 73 115
53 7 111
71 10 143
64 10 138
53 7 117
51 7 118
76 51 145
55 46 77
77 73 116
103 113 140
105 118 138
109 119 144
102 110 135
118 130 149
93 94 119
102 108 131
103 108 142
118 132 151
120 134 151
99 106 120
116 124 146
120 133 155
107 115 134
106 108 138
129 147 172
133 149 169
105 118 141
115 125 142
102 110 124
123 136 158
132 148 169
137 152 171
128 142 161
124 139 161
117 130 147
124 136 160
100 108 139
123 140 164
128 142 165
122 137 157
116 123 162
61 12 119
72 14 148
74 15 145
71 14 151
74 15 150
69 14 144
73 15 151
71 14 146
77 16 158
76 15 155
72 14 150
78 15 152
62 12 130
77 15 151
49 10 113
68 14 139
72 39 132
133 150 171
133 149 171
122 136 160
132 149 171
130 148 171
123 141 164
120 136 157
125 142 168
130 146 168
118 131 150
121 136 166
124 140 162
107 121 144
128 139 161
135 155 181
113 130 150
103 112 131
111 124 144
109 121 145
78 81 100
64 69 83
95 43 133
102 42 117
104 41 115
110 107 131
127 144 168
128 145 175
134 137 141
103 89 26
109 87 25
108 93 28
94 73 22
108 89 26
132 111 32
110 86 24
119 101 29
104 90 28
112 96 27
110 105 87
110 118 128
124 141 162
122 135 151
133 150 171
122 135 151
122 140 152
126 136 155
132 149 171
131 148 172
128 148 171
120 134 151
123 140 162
128 149 171
127 146 167
131 149 171
130 148 171
135 155 181
135 150 174
137 134 162
174 165 198
178 159 201
198 188 226
196 187 226
188 183 226
195 187 226
191 185 226
192 185 226
194 187 226
195 187 226
190 173 219
189 178 217
193 184 220
168 169 190
105 143 109
106 139 122
111 180 140
80 206 81
107 161 128
117 161 151
116 160 151
108 155 140
113 140 142
134 150 171
118 134 151
115 131 151
134 150 171
129 154 171
134 151 175
135 155 181
134 154 181
136 155 181
110 129 140
25 115 40
25 114 38
22 106 33
29 133 44
26 121 40
25 118 37
28 130 43
30 139 45
24 113 36
24 130 38
28 127 41
22 104 34
24 123 36
24 100 36
29 136 45
129 153 172
129 142 164
120 140 157
118 138 157
125 139 158
120 140 162
137 156 181
138 154 176
130 148 173
129 145 167
130 144 174
123 139 157
129 146 166
132 147 172
124 140 165
132 145 167
113 126 147
133 147 166
125 143 162
113 123 141
128 146 175
120 132 156
122 132 160
119 131 160
110 124 143
129 140 159
114 126 156
111 118 140
119 128 155
116 128 150
124 139 166
108 114 143
81 85 111
86 99 126
91 110 125
86 88 119
69 71 102
57 55 72
27 3 53
50 51 76
52 50 80
67 71 97
80 78 101
101 106 133
91 94 127
75 75 108
84 89 111
102 115 143
93 101 135
122 133 155
109 117 151
92 97 126
121 135 160
98 102 119
119 131 165
94 100 143
117 133 154
118 128 145
113 129 153
132 151 176
114 128 150
81 91 109
136 153 176
119 132 159
135 153 176
127 144 170
102 113 133
134 148 170
119 133 156
112 123 143
126 138 157
116 131 153
132 147 170
160 148 182
135 122 153
157 134 177
168 144 191
159 129 195
103 75 143
103 69 143
94 55 153
74 15 148
67 14 141
70 14 141
59 11 124
70 14 142
71 14 144
63 13 129
73 15 152
64 13 130
75 15 152
61 13 128
65 13 136
100 99 155
134 150 171
123 137 162
125 140 167
132 151 176
134 152 176
110 122 143
115 129 153
135 153 176
119 132 155
127 143 170
119 138 162
135 153 176
115 132 161
125 143 166
121 134 158
133 150 174
107 123 146
105 118 132
104 113 142
91 91 114
88 89 113
63 43 159
65 43 155
99 48 147
114 78 134
129 143 162
139 157 181
131 151 174
126 141 163
123 122 116
99 88 61
100 80 20
106 87 24
100 81 23
126 99 27
101 86 25
92 78 22
110 112 108
104 113 128
123 141 157
104 118 128
132 145 162
118 132 153
127 142 162
113 125 140
118 128 144
132 150 171
131 145 162
131 142 162
121 135 155
120 133 152
138 152 171
125 144 171
126 139 157
135 153 176
126 144 166
131 143 162
132 126 154
145 128 157
143 128 167
156 142 191
147 137 186
178 169 202
190 181 218
179 170 202
174 181 196
185 181 215
176 150 192
173 159 185
191 171 210
185 173 207
144 186 158
112 159 126
54 203 12
58 214 12
57 213 12
59 216 12
68 207 58
68 208 58
82 205 81
106 160 128
131 146 166
130 144 167
124 142 162
124 145 163
137 156 181
136 153 176
124 141 164
128 142 161
118 139 157
134 154 181
48 139 69
24 112 37
22 108 35
22 104 35
26 124 41
31 132 44
23 106 33
31 144 46
27 131 41
26 117 39
27 127 41
27 124 41
55 100 60
22 97 36
119 94 121
149 127 171
144 123 168
152 100 163
149 119 174
135 140 170
128 144 166
136 155 181
130 148 171
132 148 169
117 135 161
130 148 172
136 155 181
130 148 171
123 140 163
117 130 153
136 156 181
128 147 171
132 153 181
129 147 173
140 153 171
123 137 157
121 139 162
129 147 171
123 134 160
119 133 160
116 126 150
110 121 146
117 126 157
117 130 159
113 128 160
102 110 147
123 137 162
110 111 152
111 111 157
72 49 133
98 109 141
105 112 146
105 111 154
103 111 145
74 70 123
85 87 127
109 116 145
80 84 122
94 99 140
117 131 155
125 138 161
81 82 125
108 118 139
112 123 145
123 136 154
111 122 160
125 137 162
113 125 141
128 140 158
135 150 173
120 134 151
124 135 162
118 126 156
116 130 160
123 137 157
132 147 166
129 147 173
128 146 169
121 136 162
134 152 176
129 145 170
120 133 156
123 139 165
119 135 155
122 136 160
111 123 142
147 132 160
191 162 216
183 155 204
179 153 204
182 159 216
188 163 221
175 151 204
186 158 210
176 145 203
138 104 170
92 56 149
65 13 132
62 12 131
57 11 117
71 14 145
59 11 124
72 15 148
63 13 130
66 13 139
69 14 146
61 12 127
64 13 131
115 120 152
129 148 174
107 121 152
128 147 174
129 145 168
131 148 173
129 148 175
126 142 170
131 148 172
118 129 159
124 146 165
128 143 162
123 140 162
129 147 173
135 150 171
127 144 169
98 107 134
108 119 140
136 153 176
117 135 160
116 128 148
125 140 165
49 43 165
48 44 168
49 45 161
88 65 154
103 113 143
110 119 128
132 150 171
125 140 161
91 94 103
115 127 142
97 92 82
99 94 82
83 75 59
68 50 14
61 59 57
83 85 82
93 95 99
101 110 118
106 113 121
110 109 100
134 151 175
124 136 151
121 134 151
102 113 122
104 111 121
137 156 181
131 149 171
126 142 162
129 147 171
134 150 171
116 126 144
135 153 176
136 155 181
135 151 171
138 156 181
134 150 174
125 120 145
99 94 118
104 96 137
113 106 151
149 140 167
146 139 168
162 156 185
175 168 199
163 171 182
130 152 143
90 138 85
126 155 138
112 174 118
93 206 88
75 192 68
58 215 12
58 211 12
56 212 12
58 214 12
58 214 12
55 203 12
59 215 12
55 207 12
55 207 12
84 179 99
119 148 155
125 144 167
129 148 171
123 139 165
132 152 170
113 134 147
131 147 173
133 149 171
124 144 162
98 122 129
24 114 38
29 141 43
23 106 37
31 141 46
26 122 38
24 102 35
28 130 42
21 104 33
26 120 40
28 121 41
78 115 82
110 88 101
152 13 146
157 63 157
163 41 160
164 14 159
170 14 163
161 14 147
158 86 168
145 111 164
138 112 156
131 147 169
116 134 165
136 155 181
131 147 172
133 149 171
122 138 156
121 143 164
128 145 166
129 147 171
135 153 176
125 140 169
126 141 163
117 123 152
122 132 160
122 135 165
131 146 170
122 133 161
116 130 143
127 142 164
128 149 176
130 151 172
117 128 154
124 139 170
124 139 166
118 128 156
109 123 141
122 139 166
137 156 181
126 141 165
122 131 167
116 129 163
122 138 167
116 130 158
105 109 156
125 139 173
117 130 164
109 117 154
128 141 173
107 114 139
124 140 169
116 126 159
122 133 160
104 106 150
113 123 153
132 145 161
119 133 153
118 128 143
130 149 174
132 149 172
128 148 170
127 144 166
134 152 176
121 136 161
119 135 164
123 137 156
117 132 159
110 121 151
137 152 171
125 143 169
132 147 166
117 130 160
129 145 167
131 133 168
160 132 171
172 140 178
187 163 221
186 162 221
183 161 221
179 160 221
178 159 221
181 160 221
185 162 221
189 164 221
187 158 210
162 131 193
107 77 147
57 12 120
61 12 124
55 11 117
45 9 101
69 14 141
70 13 137
57 12 121
69 14 140
70 14 141
64 13 127
124 139 176
128 147 172
130 148 175
130 146 170
118 134 160
114 129 154
128 147 171
126 136 159
118 134 160
109 123 151
129 147 169
122 143 163
129 147 173
135 155 181
136 155 181
106 118 145
114 134 162
127 146 172
128 143 167
133 150 171
120 138 171
124 137 158
49 43 165
46 42 148
50 45 170
48 43 163
53 46 147
121 134 156
104 114 128
127 138 152
94 105 109
80 76 87
94 93 90
56 46 13
95 105 110
64 60 58
77 72 66
76 65 42
102 101 100
80 69 49
112 111 115
107 107 120
135 151 171
106 113 120
119 137 156
124 140 152
128 143 165
132 151 176
133 150 171
138 156 181
124 136 153
125 138 156
119 133 151
139 157 181
134 154 181
135 155 181
132 148 172
133 154 181
116 111 127
107 103 125
118 115 141
78 72 112
134 128 146
121 120 150
133 129 157
139 130 157
128 138 146
80 124 88
84 120 93
77 135 79
74 191 72
58 214 12
57 209 12
57 207 12
58 215 12
59 214 12
56 208 12
59 216 12
57 209 12
57 210 12
58 214 12
59 195 12
58 214 12
73 186 58
108 156 139
129 147 167
132 153 172
136 155 181
127 149 170
127 145 167
124 140 162
119 142 162
121 138 159
100 136 135
19 101 29
21 105 33
23 113 36
25 120 38
23 111 34
27 121 40
26 122 39
23 110 35
21 104 33
157 37 155
169 14 163
167 14 155
169 14 163
173 14 163
170 14 163
161 13 160
168 14 163
168 14 163
166 50 165
137 114 157
145 139 177
113 134 156
138 154 176
122 136 156
108 126 137
129 145 166
132 149 171
123 145 162
138 156 181
129 152 172
125 143 166
129 147 171
135 153 176
131 149 175
138 152 171
119 137 156
132 147 166
130 143 163
127 140 164
136 155 181
143 159 181
130 145 170
124 139 170
134 152 176
137 156 181
137 156 181
136 149 172
132 147 179
128 144 170
126 140 172
127 144 167
128 147 175
124 136 159
130 148 172
87 92 129
136 155 181
131 149 174
115 127 156
130 147 175
113 123 153
126 140 170
114 127 151
121 135 168
116 129 164
121 136 157
122 139 163
127 144 170
111 120 146
130 147 179
113 127 159
119 133 161
127 144 167
124 139 171
122 128 149
126 142 163
125 141 162
105 119 137
118 134 156
132 147 166
128 145 174
115 125 148
145 140 176
168 141 181
182 153 201
189 164 221
185 162 221
182 161 221
179 160 221
177 159 221
177 159 221
180 160 221
181 161 221
184 162 221
192 165 221
194 166 221
178 146 205
109 78 156
52 9 105
59 11 118
72 13 138
68 14 136
55 11 118
68 13 134
52 10 110
52 11 111
80 70 134
96 108 133
101 112 152
110 122 162
120 138 169
116 130 155
126 144 166
116 131 155
113 129 161
121 136 164
123 140 168
136 155 181
128 141 168
121 137 161
132 149 171
128 143 166
112 126 154
134 152 176
130 148 172
115 131 153
130 149 174
135 150 174
134 152 176
47 42 161
49 43 161
48 42 159
49 43 165
43 38 140
84 92 141
97 104 139
121 135 157
120 128 142
111 120 134
103 109 115
110 116 122
114 121 128
117 126 143
120 129 140
105 115 130
117 131 151
124 140 162
109 112 117
132 149 171
111 123 141
126 141 163
107 126 136
114 132 152
131 146 167
127 142 163
134 150 171
136 155 181
132 145 167
130 148 173
129 140 152
136 155 181
133 152 176
131 146 166
117 127 154
138 156 181
119 125 154
125 118 146
103 84 115
100 97 124
115 116 145
118 116 144
108 107 139
114 112 139
116 121 141
110 110 137
106 130 124
83 171 88
58 212 12
55 204 12
59 216 12
58 210 12
55 203 12
55 200 12
50 185 11
54 204 12
56 206 12
53 196 11
56 208 12
60 217 12
53 196 11
70 211 58
62 175 58
132 154 181
119 132 146
126 145 167
122 140 157
137 154 179
107 124 140
124 139 169
122 142 162
100 120 131
74 115 101
54 110 70
24 116 38
29 133 44
16 88 24
23 108 36
22 105 34
73 81 77
164 14 155
159 13 147
173 14 163
169 14 163
163 14 154
171 14 163
164 14 163
173 14 163
167 14 161
158 13 154
166 14 156
166 14 163
157 52 150
138 135 168
132 150 174
131 148 171
135 153 176
129 149 174
131 141 170
129 142 170
138 154 176
131 153 172
115 131 155
109 120 144
124 140 169
138 156 181
137 156 181
135 155 181
120 136 147
134 154 181
128 147 172
127 137 166
134 152 176
123 146 169
126 143 169
124 140 165
137 156 181
121 138 162
116 132 155
129 147 171
137 154 176
131 143 165
139 157 181
126 141 162
122 132 158
139 155 176
127 143 164
138 156 181
111 123 161
121 133 155
118 132 152
135 150 175
112 120 162
132 144 170
132 151 176
132 149 171
114 126 149
121 135 158
122 136 155
123 137 162
128 144 170
129 143 165
128 144 164
132 146 168
130 148 177
113 127 154
122 132 160
123 138 173
128 144 170
114 130 158
123 137 160
121 138 171
123 118 149
131 98 162
200 166 216
195 166 221
190 164 221
185 162 221
180 160 221
178 159 221
178 159 221
179 159 221
178 159 221
179 160 221
185 162 221
192 165 221
196 167 221
198 162 214
164 132 189
77 55 106
54 11 108
53 11 113
58 11 119
52 10 117
63 13 131
56 11 116
54 11 115
88 82 133
115 131 156
98 107 152
125 140 167
135 153 176
105 117 149
120 138 167
123 141 165
109 119 152
124 139 161
131 148 174
127 139 167
125 139 166
132 149 171
129 147 173
118 130 152
128 147 174
121 135 161
113 128 184
113 130 179
117 136 197
100 116 188
103 122 200
48 43 165
48 42 161
48 43 161
44 39 150
47 40 155
86 92 156
101 120 165
131 148 171
131 142 157
119 126 144
121 134 152
110 128 153
122 133 151
105 111 115
136 152 174
121 130 144
123 141 166
117 132 151
131 149 171
135 155 181
133 150 171
127 142 162
120 131 153
126 142 162
117 129 140
129 147 171
136 153 179
128 149 171
136 151 171
133 147 169
138 154 179
136 155 181
133 148 169
132 150 172
132 149 173
133 148 172
123 135 157
129 126 158
124 116 138
113 106 135
130 125 156
127 119 147
119 123 143
123 126 152
107 120 135
123 122 152
83 178 88
68 200 52
60 214 12
51 188 11
59 216 12
54 201 12
52 190 11
58 214 12
56 202 11
59 215 12
50 187 11
58 211 12
54 194 11
60 218 12
53 194 11
54 197 12
49 170 13
124 154 159
118 138 156
118 140 160
97 122 130
114 139 154
112 133 151
99 131 128
113 137 152
86 118 116
90 114 115
132 151 171
20 95 30
18 81 26
20 96 29
22 107 34
81 82 78
158 23 146
165 14 155
163 13 156
166 14 159
169 14 163
176 14 163
166 14 159
169 14 163
159 13 148
165 14 159
174 14 159
170 14 163
161 14 155
164 14 161
153 72 154
122 139 161
122 143 162
118 134 150
127 142 159
126 141 165
134 152 176
130 150 171
131 151 171
133 151 173
135 155 181
128 146 173
122 135 152
127 145 166
133 151 173
135 155 181
129 144 167
133 146 174
123 137 157
121 132 150
128 145 166
134 152 176
123 141 164
123 137 167
132 149 175
131 144 170
136 155 181
131 148 171
116 129 163
137 154 176
132 149 175
135 153 176
134 148 166
128 142 165
118 127 162
132 149 171
130 146 167
135 153 176
127 143 168
135 153 176
133 152 176
123 138 158
119 132 160
132 147 166
136 153 176
120 135 158
130 145 170
131 147 169
131 150 174
119 130 162
121 136 157
135 153 176
135 155 181
131 148 172
119 135 158
122 138 166
122 139 162
116 128 146
121 136 157
113 92 126
166 135 176
197 167 221
194 166 221
189 164 221
189 164 221
187 163 221
183 161 221
179 160 221
184 162 221
181 160 221
183 161 221
187 163 221
189 164 221
196 166 221
196 167 221
190 154 199
108 85 132
51 10 106
54 11 115
57 11 116
64 12 128
60 12 123
47 9 100
66 50 118
97 110 144
105 119 153
107 121 148
122 139 162
115 130 162
135 150 175
119 139 165
98 112 143
127 142 166
117 125 152
127 142 172
134 154 181
135 155 181
133 152 176
128 144 170
132 145 169
121 135 176
93 114 205
74 97 221
61 85 220
60 86 226
48 75 224
62 88 226
46 39 150
45 40 152
45 39 148
41 37 140
42 36 139
44 39 151
108 117 158
133 150 171
98 103 115
128 141 165
137 156 181
127 140 157
127 143 162
127 148 162
133 147 172
123 139 163
129 143 162
120 131 146
127 147 166
136 153 179
126 134 158
123 134 157
130 141 152
130 148 171
129 142 162
137 154 176
134 154 181
132 147 169
138 156 181
124 140 163
132 149 171
134 154 181
132 147 174
132 149 174
128 147 171
125 140 166
127 135 155
117 125 146
126 124 154
116 116 144
116 115 143
115 112 141
124 121 150
129 128 160
105 98 126
95 104 115
52 191 11
55 201 12
57 206 12
50 178 10
52 186 11
58 211 12
60 217 12
54 198 11
51 183 11
51 185 11
58 206 12
56 206 12
61 219 12
57 207 12
57 200 12
54 195 11
50 185 11
59 163 59
114 137 152
103 127 144
112 134 146
117 134 151
122 140 160
110 131 143
117 136 151
122 144 162
88 102 114
82 96 103
63 83 81
105 122 131
82 98 100
46 64 58
134 18 129
147 13 141
164 13 152
172 14 159
162 13 154
168 14 155
162 13 154
167 14 159
155 13 154
165 14 156
152 13 147
167 14 159
169 14 155
166 14 154
154 13 147
161 52 161
131 84 144
138 117 164
130 149 174
115 133 150
133 148 172
123 135 166
129 147 171
135 155 181
136 155 181
135 153 176
129 149 174
132 148 173
124 143 166
128 146 175
126 144 166
132 140 163
125 140 156
130 147 174
133 150 170
127 137 165
135 150 171
129 145 167
128 142 169
122 136 164
129 146 175
123 130 151
131 150 172
124 137 163
136 153 176
131 148 171
137 156 181
127 144 170
133 150 178
135 153 176
129 145 167
118 133 160
124 139 161
125 143 166
133 150 172
136 155 181
134 152 176
138 157 181
123 137 157
131 147 168
130 146 168
129 143 163
128 147 178
133 149 172
122 136 158
109 123 150
135 155 181
132 148 179
129 145 167
131 145 174
137 154 176
136 153 176
110 126 149
105 119 145
119 101 130
179 148 192
193 153 203
198 167 221
195 166 221
190 164 221
189 163 221
187 163 221
189 164 221
187 163 221
186 162 221
187 163 221
186 162 221
191 164 221
194 166 221
204 170 221
190 156 207
175 143 194
44 9 91
52 11 108
50 9 101
51 10 107
58 50 105
57 51 112
94 99 135
105 120 143
88 97 127
112 129 163
123 141 164
115 130 165
134 154 181
114 129 157
130 148 175
127 143 174
123 139 171
126 140 166
131 150 174
142 159 181
133 151 174
116 133 176
102 121 200
45 70 217
46 74 224
47 76 230
48 76 230
48 76 230
48 76 228
50 78 230
42 38 145
46 40 152
48 43 165
43 39 138
46 40 152
47 42 159
66 73 127
108 118 159
121 128 144
132 148 173
126 148 161
128 142 162
123 141 165
124 141 163
128 147 172
128 144 168
122 142 165
124 141 149
134 149 174
128 147 173
136 149 167
128 147 171
131 148 172
120 133 154
131 148 173
129 149 175
130 151 171
124 137 157
127 146 172
125 145 166
128 145 169
138 156 181
137 154 176
134 152 176
138 156 181
133 147 167
129 148 173
127 143 167
118 114 145
130 128 160
124 118 148
124 116 146
126 120 148
128 125 155
125 117 146
107 141 121
68 196 51
56 202 12
52 187 11
55 197 11
55 200 11
58 211 12
56 206 12
56 209 12
60 219 12
55 200 11
54 195 11
58 208 12
58 211 12
55 203 12
57 205 11
50 184 11
49 178 10
75 172 81
116 142 151
117 139 156
122 144 162
105 132 140
79 100 103
123 138 160
104 130 141
109 123 138
109 125 138
107 128 140
89 118 116
78 103 100
98 110 121
116 47 110
158 14 150
153 13 147
155 13 145
153 13 141
160 13 154
152 13 146
156 13 147
157 13 150
164 13 152
161 13 149
163 13 149
159 13 154
161 13 154
162 14 156
152 13 149
167 14 159
152 50 156
142 127 167
131 150 171
123 138 162
135 153 176
137 154 176
132 149 171
137 156 181
133 144 172
125 142 168
131 148 171
137 156 181
135 155 181
129 146 169
109 125 152
136 155 181
135 155 181
130 147 170
129 147 171
129 144 174
128 140 170
135 155 181
138 152 171
133 147 168
126 140 169
137 152 178
133 147 172
135 153 176
134 145 176
138 156 181
135 149 174
130 148 175
126 144 166
131 149 172
131 150 171
132 149 171
135 151 171
137 156 181
135 151 171
136 155 181
133 152 176
125 143 168
138 153 178
138 152 171
131 148 175
125 140 159
123 139 166
124 140 167
117 128 158
129 147 167
133 151 174
128 139 162
110 119 141
129 145 167
135 151 171
122 137 159
129 147 171
132 141 168
132 112 154
172 143 187
194 166 210
199 168 221
198 167 221
196 167 221
195 166 221
199 168 221
189 163 221
190 164 221
193 165 221
192 165 221
191 164 221
196 166 221
199 168 221
191 164 211
183 153 210
164 136 184
90 68 126
36 8 77
54 51 88
61 51 107
109 115 143
85 88 128
112 123 158
98 110 136
107 122 140
102 111 145
114 130 162
116 130 163
128 147 171
104 119 145
122 139 167
120 138 165
139 157 181
136 155 181
123 139 166
123 140 170
122 141 178
93 113 205
64 88 226
44 71 218
46 73 224
47 76 218
49 77 230
47 76 230
49 77 230
48 76 230
44 39 145
48 40 151
41 38 133
46 41 155
45 40 150
37 35 126
76 80 163
121 136 176
135 150 174
133 154 181
123 140 163
131 143 165
124 140 170
135 153 179
131 151 171
131 139 154
126 137 155
131 149 171
139 157 181
123 143 165
137 156 181
133 150 171
131 151 172
119 138 157
120 135 157
129 145 166
132 150 175
132 145 172
122 136 161
125 145 171
123 134 153
131 145 169
132 149 171
125 136 157
129 141 164
117 132 156
134 144 169
126 137 160
130 148 171
116 117 139
113 105 135
113 103 132
84 99 104
112 102 131
129 125 154
84 155 90
58 208 12
47 174 10
55 192 11
51 185 11
52 194 11
49 180 10
55 193 11
53 197 11
55 200 11
56 205 12
55 196 11
52 188 11
51 195 11
55 201 11
49 166 10
51 175 10
48 168 10
62 161 58
113 142 138
110 126 145
119 138 152
122 142 167
119 140 162
130 147 167
106 121 134
118 136 156
98 126 129
105 130 141
113 137 141
106 125 138
105 131 141
146 69 150
156 13 147
160 14 146
170 14 159
167 14 155
167 14 159
164 13 153
157 13 150
170 14 159
163 14 154
171 14 163
163 13 150
169 14 159
170 14 159
157 13 148
166 13 152
155 13 146
135 50 143
152 69 161
129 139 166
132 150 174
124 142 162
132 147 169
128 147 171
133 152 176
132 150 171
129 146 179
131 143 170
131 148 172
131 149 172
128 146 167
127 144 169
136 155 181
126 141 165
135 155 181
129 147 167
140 157 181
123 138 165
137 156 181
121 137 153
133 154 181
126 145 175
138 156 181
131 146 170
131 147 169
131 141 160
137 156 181
129 143 163
138 156 181
131 149 174
138 157 181
132 148 169
131 149 173
135 147 169
128 141 167
137 150 174
135 153 176
129 147 171
127 146 173
128 146 179
121 134 154
129 145 167
135 150 179
133 149 173
120 138 162
124 145 162
128 147 172
122 140 171
124 139 167
121 135 165
125 139 164
117 132 154
119 132 165
127 146 175
129 125 155
150 125 170
165 134 178
179 145 191
193 161 210
196 153 204
185 158 206
200 168 221
195 167 219
201 168 221
203 169 221
195 166 221
200 168 221
202 169 221
194 160 218
120 105 198
170 144 210
152 127 199
151 131 165
111 98 133
57 60 79
69 84 100
116 131 154
65 70 94
92 101 145
115 130 154
115 130 155
109 121 147
112 123 149
115 130 156
113 129 163
127 146 173
129 147 175
118 134 166
135 155 181
127 146 173
125 140 165
137 156 181
108 114 149
102 120 188
42 65 191
47 71 217
44 71 211
47 75 221
43 69 206
48 75 224
46 76 224
47 76 230
47 76 230
49 42 156
41 37 139
41 39 138
43 38 144
40 35 136
42 37 144
42 37 142
111 123 155
111 121 149
139 151 167
122 140 162
130 148 171
136 155 181
127 146 173
127 137 163
131 147 174
134 150 171
127 143 165
123 139 163
118 132 154
122 141 163
127 142 168
115 131 158
138 154 179
136 156 181
126 141 168
132 151 176
130 147 173
130 148 172
135 152 175
123 133 156
123 139 167
139 157 181
125 141 161
124 141 165
118 134 158
131 146 169
112 126 147
129 139 161
122 139 165
107 109 129
93 86 105
90 80 101
105 92 118
113 113 134
64 166 55
42 156 9
47 162 9
51 194 11
55 196 11
47 174 10
51 186 11
55 204 12
58 212 12
52 190 11
52 191 11
50 173 10
55 200 11
45 165 10
55 197 11
47 161 10
50 160 10
46 168 9
52 192 11
93 155 114
122 145 162
114 134 154
135 151 175
129 138 163
112 132 149
127 148 171
124 141 164
91 121 116
119 137 151
129 147 169
127 149 171
133 124 158
141 12 131
159 13 145
156 13 146
143 12 136
166 14 154
165 14 154
161 13 146
161 13 152
147 12 142
152 12 141
157 12 142
157 13 146
153 13 143
150 13 146
164 13 150
133 11 128
149 12 141
161 13 150
150 80 155
128 130 162
132 151 176
131 150 171
128 144 165
121 137 162
120 139 157
138 154 176
125 143 165
135 151 171
133 146 169
116 139 152
132 151 171
134 150 171
131 147 173
136 156 181
132 148 174
133 152 176
128 141 170
133 150 175
132 149 171
139 157 181
132 149 171
131 150 174
123 131 157
127 146 173
124 138 166
138 157 181
137 156 181
136 155 181
124 139 169
133 150 174
137 153 178
127 146 171
136 153 176
127 143 174
132 151 176
135 153 176
132 151 176
135 153 176
126 143 167
138 157 181
132 148 172
132 149 171
130 147 173
121 136 162
134 152 176
134 152 176
130 145 168
116 130 160
126 140 173
128 147 171
135 153 176
137 156 181
126 141 161
137 156 181
114 126 148
140 115 155
122 94 118
161 134 175
152 123 164
173 134 182
194 161 209
185 143 189
191 163 213
178 150 201
192 160 212
173 149 192
176 151 196
193 162 211
195 162 208
184 153 208
160 136 181
153 129 178
130 113 161
100 99 123
121 133 155
91 99 128
106 114 136
94 101 124
100 111 136
93 99 131
107 121 144
96 109 138
99 110 136
117 131 157
125 140 167
121 138 165
135 155 181
114 130 157
131 148 173
135 155 181
132 149 176
123 137 162
121 142 191
40 63 190
40 63 186
47 74 221
45 74 216
47 73 219
46 74 223
48 77 227
47 74 224
46 74 226
46 74 220
38 35 126
49 43 161
39 35 134
36 34 122
43 37 140
43 41 142
78 88 131
126 143 163
125 133 158
118 130 154
123 138 163
131 149 171
116 124 145
127 146 171
134 143 161
134 154 181
134 148 174
128 147 171
117 130 150
123 139 164
136 155 181
114 133 153
134 150 171
120 131 151
127 143 165
124 137 165
139 157 181
135 153 179
140 157 181
132 148 167
138 152 177
128 140 161
124 139 164
123 136 155
118 130 154
128 146 173
139 152 177
99 105 126
126 142 165
91 99 114
113 113 136
106 115 132
86 83 97
94 96 112
78 78 93
54 138 48
50 189 10
49 182 10
52 189 11
53 189 11
47 174 10
52 184 10
56 205 12
54 194 11
56 199 11
48 171 10
52 188 11
47 172 10
51 189 11
48 175 10
48 161 10
47 157 9
48 161 10
52 97 57
114 165 144
132 151 171
138 157 181
138 154 179
137 156 181
135 147 175
137 156 181
114 142 152
137 156 181
108 132 141
127 148 169
121 132 158
93 110 121
148 85 156
134 12 126
149 12 141
168 14 159
174 14 162
135 11 122
155 12 142
142 12 136
164 14 155
148 13 144
138 11 132
148 13 146
162 13 154
154 13 144
156 13 145
145 12 134
155 13 144
159 13 146
139 109 160
138 145 170
133 152 176
133 154 181
134 152 176
128 145 166
131 152 171
135 153 176
135 153 176
127 145 164
138 156 181
137 156 181
136 156 181
136 156 181
134 152 176
136 155 181
132 148 172
136 154 176
137 156 181
127 139 167
134 154 181
126 144 166
133 146 167
137 156 181
137 156 181
131 144 169
130 149 175
132 151 176
130 145 171
131 145 165
129 146 169
136 155 181
131 148 178
134 152 176
125 145 174
126 140 162
132 154 176
130 148 171
126 144 168
134 152 176
135 151 171
131 145 169
133 154 181
134 155 181
129 145 167
127 144 174
137 152 178
129 144 171
131 146 170
130 147 173
126 142 163
121 140 158
123 135 156
131 149 175
139 157 181
127 141 165
120 116 148
125 103 139
133 109 148
150 128 171
138 111 156
132 107 147
179 147 191
153 125 166
176 150 203
159 135 177
147 131 169
162 148 181
158 132 170
163 138 178
144 116 152
135 110 179
67 74 152
95 86 144
139 116 160
116 123 146
98 109 138
126 141 165
125 141 163
110 121 151
102 111 139
116 130 161
123 134 155
125 140 164
129 147 173
137 156 181
121 138 165
124 140 167
131 148 173
132 145 172
137 156 181
120 138 163
120 134 167
124 139 169
114 133 183
47 73 218
41 64 191
36 56 172
43 69 213
45 73 218
42 65 197
42 69 206
41 67 196
49 77 227
45 71 210
44 40 144
42 38 142
44 39 144
47 41 155
48 42 157
38 35 126
82 91 155
116 130 153
130 148 173
124 137 156
128 147 171
120 131 160
112 134 147
125 148 164
128 141 165
131 147 174
130 147 173
130 148 171
138 156 181
138 156 181
124 140 161
129 147 171
135 155 181
138 154 176
136 150 171
135 155 181
123 139 163
131 147 170
131 142 163
125 140 163
133 151 175
128 148 172
129 142 165
124 135 155
134 145 164
120 138 154
129 142 166
125 145 165
113 117 138
111 121 139
94 99 116
96 111 116
105 105 124
109 125 130
95 105 113
66 122 71
42 157 9
45 165 10
46 164 9
47 181 10
47 181 10
45 167 10
50 187 11
49 180 10
51 183 10
48 179 10
51 184 10
53 189 11
49 182 10
52 188 11
46 159 9
47 172 10
44 151 10
58 154 57
119 149 153
128 148 169
126 140 169
128 148 171
126 146 170
132 149 172
124 156 161
113 142 152
129 139 168
126 146 167
135 155 181
135 155 181
133 139 171
152 13 147
156 13 146
158 13 146
143 12 136
159 13 146
164 13 152
141 11 132
153 13 143
164 13 150
160 13 150
166 14 154
166 13 150
156 13 146
145 12 141
137 11 124
159 13 150
150 12 141
158 13 147
138 98 152
123 139 165
132 147 167
134 158 171
135 155 181
135 155 181
129 147 172
139 157 181
135 144 173
136 148 175
118 130 155
131 147 169
130 148 171
138 156 181
137 154 176
133 154 181
134 139 161
135 155 181
122 141 160
139 157 181
133 154 181
132 149 171
137 154 179
134 149 173
135 155 181
132 156 171
130 151 173
127 147 171
130 147 174
136 155 181
128 145 174
139 157 181
135 152 178
130 146 168
132 148 175
139 155 176
133 152 176
136 155 181
120 130 153
137 156 181
126 141 169
137 156 181
136 152 178
119 136 157
136 155 181
136 152 175
126 144 167
136 152 178
125 135 164
135 155 181
140 157 181
128 144 170
129 149 164
130 148 172
132 150 179
137 156 181
125 135 168
117 99 135
126 108 144
129 106 145
140 120 161
134 112 150
122 108 148
129 116 148
135 123 157
103 98 130
140 116 157
128 117 151
119 105 156
150 127 171
132 116 159
102 89 125
53 53 150
117 100 143
121 106 146
120 117 153
117 130 158
120 136 160
126 141 164
118 132 156
134 150 173
127 142 171
115 124 153
94 100 132
134 155 178
131 148 173
129 147 172
123 139 164
136 155 181
131 148 173
128 147 171
132 150 179
129 144 173
109 125 158
94 111 193
67 96 207
41 67 200
45 71 212
43 70 207
42 68 204
38 63 192
48 75 224
43 71 210
40 66 195
43 70 213
41 36 137
42 37 144
45 40 151
44 39 147
35 32 120
42 37 140
73 77 136
117 126 154
110 120 147
124 141 166
115 129 155
128 139 159
125 140 167
126 148 165
131 148 172
129 147 173
134 154 181
119 129 154
133 148 171
136 153 179
134 154 181
130 149 175
130 141 166
130 142 162
128 145 171
135 155 181
131 148 173
126 142 163
129 141 166
126 145 173
133 150 171
126 144 169
134 151 175
124 137 159
111 122 146
134 148 171
124 133 157
111 119 141
139 156 179
121 129 154
94 125 112
114 131 144
119 129 155
128 141 162
124 139 161
78 182 77
50 177 10
42 160 9
52 188 11
53 183 10
51 186 11
51 187 11
53 192 11
56 196 11
41 153 8
46 161 9
51 186 11
49 171 10
42 150 9
45 167 10
45 152 9
46 160 9
40 133 8
90 130 114
133 153 171
127 148 162
119 136 157
126 146 171
134 154 181
129 148 171
129 149 171
137 156 181
128 144 165
131 147 173
118 131 153
125 141 164
117 123 151
106 10 101
140 11 132
129 10 125
147 12 137
161 13 151
161 13 149
151 12 143
142 11 126
138 11 126
156 13 149
147 11 132
133 11 126
153 13 146
137 11 131
138 11 130
158 13 145
154 12 144
144 12 135
135 98 154
142 140 173
132 147 173
139 157 181
136 155 181
137 154 176
133 154 181
136 155 181
116 129 146
127 145 164
136 156 181
138 156 181
130 145 169
125 131 149
122 139 163
129 136 163
130 153 172
128 142 161
126 135 161
140 157 181
141 158 181
131 149 174
133 150 175
128 143 172
131 148 172
136 155 181
131 149 171
138 156 181
130 147 172
128 144 169
127 144 166
128 155 171
135 150 171
139 150 175
133 154 178
131 150 174
131 147 173
128 147 171
134 152 176
136 155 181
132 153 181
137 156 181
134 151 177
137 156 181
137 156 181
139 154 178
128 145 166
136 155 181
136 153 176
138 154 179
130 148 175
126 142 165
135 151 175
135 155 181
131 153 180
129 148 178
130 142 171
112 107 137
120 103 144
126 111 148
120 103 137
125 109 148
131 115 156
122 106 144
123 108 144
97 92 121
117 98 140
116 103 138
121 105 148
125 114 150
113 99 138
126 110 153
116 100 147
117 104 141
126 109 151
113 116 135
124 140 166
127 142 167
138 157 181
128 147 173
127 146 173
128 148 179
135 152 176
129 147 173
124 139 167
122 139 170
121 138 163
121 138 167
127 146 173
110 121 158
128 147 173
120 139 164
128 149 168
133 152 177
103 129 172
65 89 195
116 150 207
101 134 221
69 97 214
40 64 193
41 65 194
43 68 206
43 71 207
42 68 204
43 67 199
36 32 123
42 36 137
32 29 114
32 30 110
42 37 142
69 71 139
104 111 140
112 121 147
131 146 168
129 144 167
106 117 138
115 127 150
100 110 137
133 148 174
131 147 174
127 146 175
133 154 181
129 141 168
125 141 167
130 147 173
128 147 173
138 156 181
133 148 172
129 148 175
132 148 172
129 140 166
131 151 171
134 152 179
135 153 176
125 139 158
124 139 160
123 141 167
126 138 162
134 149 173
128 143 166
133 151 175
133 150 175
126 138 160
123 144 162
121 127 155
115 136 149
122 141 160
114 133 143
101 112 128
102 109 132
127 145 157
93 158 114
43 161 9
45 166 10
48 177 10
40 139 8
42 159 9
51 183 10
53 189 10
50 182 11
50 186 11
42 157 9
52 189 11
42 159 9
52 194 11
45 160 9
38 122 7
55 145 57
79 134 95
118 127 152
123 134 157
136 155 181
124 143 155
116 137 145
138 156 181
129 144 167
131 147 166
95 127 121
134 154 181
128 143 165
125 134 157
126 144 166
146 100 154
140 12 126
142 11 129
130 10 118
142 11 132
154 13 146
158 13 146
141 11 129
166 13 152
144 11 131
153 12 143
153 13 144
151 12 141
139 11 127
122 10 116
163 13 150
144 12 134
139 11 128
144 131 172
135 152 179
131 148 171
134 154 181
129 152 171
135 155 181
135 155 181
129 147 171
130 146 173
125 139 170
137 154 176
134 154 181
133 154 181
136 153 176
137 156 181
133 149 171
138 154 176
135 153 176
127 142 164
133 149 172
134 147 170
129 147 174
129 148 172
127 142 163
133 142 163
130 149 175
128 151 164
138 149 169
134 154 181
138 156 181
137 154 176
139 157 181
136 155 181
127 142 168
131 148 178
136 153 176
136 153 176
138 157 181
128 147 172
129 142 163
126 145 166
136 154 176
121 141 161
136 166 179
132 159 171
144 173 189
146 177 196
145 172 191
125 143 166
118 140 164
120 130 155
121 140 166
135 155 181
137 156 181
119 130 153
134 151 178
129 148 175
124 130 156
124 114 149
124 103 148
130 105 146
135 116 156
129 112 152
130 115 154
131 115 155
129 113 152
134 116 156
132 115 156
115 103 143
114 96 138
122 109 147
95 86 116
127 107 150
120 101 138
116 112 140
127 140 171
129 147 173
132 150 178
128 147 171
130 147 173
128 147 173
126 146 172
136 156 181
122 138 166
126 145 169
131 148 173
127 146 173
131 148 175
134 154 181
121 139 173
143 177 186
144 169 183
140 170 183
147 182 193
146 188 201
151 196 210
160 207 222
131 171 204
141 185 221
94 127 195
102 132 189
65 93 199
40 68 199
45 72 220
46 73 217
47 41 151
38 34 129
42 36 139
40 36 130
36 33 123
63 58 131
99 111 138
110 121 146
131 155 171
127 146 173
129 147 172
122 138 165
128 147 173
130 148 173
127 142 163
126 137 164
133 150 176
123 139 167
119 135 159
125 140 164
136 156 181
128 143 166
128 147 175
140 157 181
125 144 173
123 134 160
122 133 162
136 156 181
134 152 179
123 140 165
125 139 163
129 147 172
129 146 173
134 151 169
136 156 181
139 155 179
129 150 171
128 144 169
117 124 150
125 142 165
139 149 175
128 145 170
132 150 175
125 137 167
125 147 159
104 144 140
83 172 99
40 148 9
46 166 9
47 173 10
51 174 10
47 174 10
46 164 9
51 185 11
45 160 9
41 149 8
46 169 9
49 177 10
42 162 9
47 170 10
43 144 8
43 147 9
80 141 99
121 147 161
133 154 181
126 147 169
130 147 172
131 149 171
130 149 175
121 138 162
135 155 181
130 150 173
124 144 161
133 154 181
121 143 162
119 142 156
118 144 151
124 85 137
118 10 109
108 8 97
143 11 129
152 13 141
132 10 122
127 10 116
153 12 136
134 11 123
148 12 137
159 13 142
141 11 134
170 14 154
122 9 115
128 10 116
113 10 111
134 11 130
159 13 140
139 144 174
135 147 175
134 154 181
134 145 170
126 141 164
127 141 165
134 152 176
127 140 164
136 153 176
122 133 153
136 153 176
131 149 173
127 141 165
133 147 175
134 151 176
129 141 167
138 156 181
129 148 169
135 153 176
134 154 181
129 147 172
134 154 181
137 156 181
128 136 166
130 149 171
132 148 175
136 149 173
136 153 176
135 150 174
137 156 181
139 157 181
135 155 181
120 137 161
133 152 176
139 157 181
136 155 181
134 152 176
124 146 166
130 143 169
140 164 186
117 135 154
141 182 191
138 173 184
125 149 163
159 209 218
155 205 211
139 182 189
139 183 195
158 203 215
145 181 196
137 153 179
135 166 181
130 146 171
126 142 172
121 140 160
131 148 172
133 149 174
128 143 170
133 135 165
124 104 145
132 112 151
128 101 141
129 108 149
131 109 149
121 104 141
115 98 138
114 92 130
122 103 143
121 105 144
114 97 135
115 98 141
127 110 151
132 115 156
139 122 158
116 122 146
125 143 166
116 127 160
138 150 176
129 147 173
118 133 162
135 155 181
121 134 160
123 140 169
128 147 172
136 155 181
127 146 173
130 148 173
135 152 178
138 158 175
148 173 186
150 189 195
159 194 205
158 208 215
156 207 215
157 210 221
156 209 221
158 208 215
159 211 221
164 215 221
138 180 200
123 157 174
85 116 210
64 89 169
42 68 203
39 64 185
100 102 148
70 71 127
40 37 126
38 34 127
66 73 131
122 139 167
133 149 173
106 120 149
117 131 155
117 130 154
138 156 181
127 146 172
137 156 181
130 146 174
123 139 163
126 148 171
127 142 168
136 153 179
120 136 160
133 154 181
125 141 170
123 139 167
134 152 179
138 151 169
117 131 157
135 147 173
115 134 156
137 154 179
131 153 171
119 132 153
138 154 179
129 148 169
138 157 181
132 152 171
132 150 175
113 130 160
121 139 163
118 132 154
131 146 167
118 139 160
131 146 167
128 147 173
136 153 179
122 133 158
133 154 181
121 135 162
108 152 140
66 134 88
43 165 9
38 146 8
42 163 9
39 148 8
39 147 8
38 153 7
53 180 10
38 155 8
45 162 9
45 164 9
45 159 9
51 183 10
42 167 9
71 132 81
87 129 114
116 138 152
114 138 151
121 136 156
128 146 161
123 140 161
134 154 181
127 150 165
129 151 171
134 146 175
129 146 173
126 132 157
127 143 156
139 157 181
129 152 166
129 127 159
108 9 108
114 9 109
138 11 123
143 12 134
153 12 141
146 12 134
130 11 122
155 12 141
153 13 144
133 11 123
164 13 150
120 10 116
121 10 115
152 12 141
114 9 117
139 11 128
117 69 115
122 129 152
132 149 172
135 147 175
124 142 166
137 148 175
134 154 181
133 154 181
130 139 167
136 148 175
135 149 173
123 130 156
137 156 181
128 147 171
135 155 181
138 153 178
139 157 181
133 151 178
122 141 162
132 148 169
131 147 173
125 146 164
130 149 175
134 154 181
136 156 181
133 150 172
130 137 168
134 149 173
133 149 173
138 156 181
129 143 170
139 150 175
135 155 181
136 153 176
133 154 178
131 151 176
135 152 174
136 155 181
131 150 176
135 155 176
155 192 204
157 198 206
150 193 195
153 205 214
160 217 229
152 212 229
154 213 229
151 204 220
154 213 229
159 216 229
157 212 223
153 202 212
161 210 220
142 172 188
115 129 150
137 154 176
133 147 170
116 120 142
140 158 181
127 139 168
126 110 150
121 101 139
119 101 139
124 103 144
104 83 124
113 98 136
130 111 151
123 102 139
115 104 145
117 97 135
123 99 141
129 110 150
134 113 151
114 96 135
110 99 133
117 132 155
139 157 181
127 142 167
135 148 176
122 134 161
130 148 175
132 140 163
129 148 174
138 156 181
137 156 181
135 155 181
131 151 175
126 147 166
122 142 165
134 162 175
139 174 179
160 209 215
160 209 215
156 209 221
154 208 221
154 208 221
152 207 221
155 208 221
152 207 221
156 209 221
159 211 221
162 213 221
165 215 221
99 135 197
99 132 206
36 59 174
148 153 174
110 115 157
126 133 167
115 116 143
77 87 133
123 139 164
134 152 176
117 131 152
101 111 139
134 148 174
127 147 173
108 121 155
105 119 147
112 128 157
131 148 171
122 139 166
113 127 153
130 147 172
133 154 171
112 128 148
120 138 166
133 151 176
128 141 167
137 156 181
134 150 171
138 156 181
134 154 181
136 148 173
133 154 181
131 149 171
127 144 169
131 151 171
127 154 171
131 156 171
136 153 179
124 140 162
135 149 174
124 148 161
129 153 169
127 138 162
128 148 171
139 157 181
124 148 161
119 135 149
110 127 138
115 145 151
132 147 174
126 150 171
86 165 99
41 153 9
45 162 9
43 159 9
34 142 7
46 162 9
42 168 8
38 146 8
40 143 8
37 134 7
33 119 7
42 141 8
56 148 57
92 155 114
105 148 140
123 151 161
112 130 145
106 119 140
134 154 181
124 152 161
111 133 151
136 155 181
130 149 169
125 136 162
121 135 155
123 146 163
135 155 181
141 158 181
120 131 153
130 129 162
127 77 131
141 12 131
135 11 127
111 9 105
125 10 118
116 10 107
133 11 127
120 9 114
129 10 117
126 10 121
108 9 103
129 11 122
128 10 121
122 9 114
129 11 121
125 51 130
109 98 134
131 147 173
134 154 181
127 139 165
131 135 165
133 147 175
126 139 163
138 156 181
135 148 175
138 156 181
128 144 166
129 140 167
131 148 172
130 142 163
126 139 165
125 134 165
129 143 168
129 142 163
132 151 176
130 155 171
121 134 154
137 156 181
129 147 172
129 144 174
125 131 163
131 149 174
127 138 160
136 155 181
135 155 181
133 145 167
132 154 176
133 150 171
139 157 181
135 149 174
138 154 176
121 139 163
135 155 181
128 142 168
126 145 175
162 206 215
152 203 211
163 215 223
160 216 229
154 213 229
154 213 229
151 211 229
151 211 229
152 212 229
152 211 229
154 213 229
158 215 229
162 218 229
163 218 229
134 167 182
134 155 181
128 143 169
137 152 178
136 156 181
124 133 164
111 110 135
116 124 145
131 126 156
127 94 141
131 100 140
110 91 130
117 93 129
121 103 139
122 99 135
124 107 148
122 102 142
106 86 123
119 95 134
113 97 133
104 113 132
129 135 163
122 135 160
138 153 178
130 148 173
124 141 166
136 155 181
135 155 181
132 153 172
131 145 172
122 130 159
129 147 175
139 157 181
129 147 174
134 153 172
112 136 144
155 195 201
165 212 215
163 214 221
160 212 221
153 208 221
153 207 221
151 206 221
151 207 221
151 206 221
151 206 221
152 207 221
158 211 221
162 213 221
162 213 221
152 196 210
129 164 209
103 133 193
181 195 219
176 186 206
125 133 165
150 158 184
126 147 167
118 129 151
88 100 129
117 132 158
104 120 149
116 131 158
116 131 160
114 129 159
110 123 153
119 137 170
131 153 181
115 131 160
133 151 179
135 155 181
111 132 149
129 148 173
134 154 181
122 139 164
124 140 162
129 140 164
137 156 181
123 139 162
119 136 157
135 155 181
136 155 181
129 145 166
134 147 175
130 155 171
141 158 181
128 146 172
123 145 159
123 144 162
135 153 179
127 140 164
121 143 164
127 149 169
140 158 180
126 146 165
109 134 138
135 155 181
123 145 161
99 130 128
120 138 151
122 138 157
96 152 125
78 148 95
34 130 7
39 152 8
37 132 7
37 134 8
38 144 8
39 146 8
33 131 7
32 124 6
38 150 8
54 129 57
68 118 84
122 143 161
86 124 107
102 132 129
113 131 144
115 130 151
94 136 121
132 149 174
131 146 175
132 153 171
117 140 148
127 144 167
119 144 156
109 133 140
130 146 173
137 156 181
115 128 158
130 127 157
123 132 157
107 48 105
137 11 129
148 12 133
124 10 114
134 11 122
134 11 122
118 9 110
106 8 99
151 12 136
125 9 114
114 9 105
139 11 130
106 9 107
86 6 86
135 51 131
131 147 173
137 149 175
112 122 145
133 154 181
132 147 173
133 152 176
134 143 166
132 137 163
123 132 158
132 147 174
141 158 181
134 145 170
138 156 181
135 155 181
138 156 181
130 139 164
134 154 181
134 147 175
135 153 176
129 146 168
134 141 167
134 152 176
133 147 175
137 156 181
136 155 181
129 149 171
137 156 181
137 156 181
138 156 181
131 149 175
127 142 165
138 156 181
130 148 171
132 144 170
135 152 176
133 141 170
135 155 181
125 143 166
119 159 167
156 204 208
167 221 229
161 217 229
156 214 229
155 214 229
151 211 229
151 211 229
149 210 229
149 210 229
152 211 229
151 211 229
154 213 229
157 215 229
161 217 229
164 216 223
143 179 191
125 154 165
130 143 166
108 115 138
112 121 142
130 142 162
131 137 164
118 123 145
117 106 137
96 90 112
90 58 103
89 72 103
110 93 128
95 74 109
126 98 137
103 79 107
116 101 133
91 72 102
128 134 160
131 145 173
120 119 158
130 142 170
129 148 179
132 149 175
130 144 170
119 134 161
128 144 172
137 156 181
121 135 160
130 149 175
125 132 165
129 143 166
126 149 172
121 141 155
136 169 179
169 218 221
165 215 221
161 213 221
158 210 221
154 208 221
152 207 221
151 206 221
150 206 221
150 206 221
150 206 221
151 207 221
155 209 221
158 210 221
160 212 221
165 215 221
158 205 209
127 164 206
184 202 227
184 202 227
192 206 227
174 180 194
126 133 149
116 120 143
126 131 157
104 113 141
123 140 164
115 131 158
106 121 146
98 121 133
123 137 160
102 113 139
124 140 164
124 140 164
135 152 175
131 156 171
126 146 173
138 156 181
131 149 175
124 143 162
134 154 181
134 151 171
129 150 171
134 155 181
132 153 171
124 139 167
119 136 152
129 153 169
125 146 165
137 156 181
138 156 181
124 152 161
119 142 163
137 156 181
136 155 181
129 148 175
130 152 171
126 151 169
128 147 171
121 142 161
131 153 166
130 156 171
110 144 140
99 122 133
116 135 151
108 151 140
99 132 128
105 123 128
85 160 99
66 129 81
53 131 57
33 126 7
37 136 8
30 124 6
41 155 8
38 139 8
87 128 103
80 127 99
79 107 93
68 103 85
82 103 103
110 128 142
106 129 134
100 120 122
130 152 171
111 126 137
130 148 171
127 140 163
85 102 110
130 148 171
138 157 181
120 134 150
125 142 165
127 141 162
115 111 138
115 138 152
135 155 181
135 121 162
104 69 113
115 9 105
115 10 105
119 9 107
117 10 115
128 11 124
107 9 105
127 10 121
122 10 116
107 8 99
100 7 89
130 70 136
120 102 135
134 138 165
127 139 166
118 130 157
138 149 175
134 149 172
134 154 181
140 157 181
133 151 179
133 152 176
130 148 171
137 154 176
135 153 176
128 151 172
136 155 181
133 152 176
131 148 171
134 147 175
140 157 181
131 147 173
137 156 181
125 147 163
134 151 172
137 156 181
136 155 181
133 154 181
135 155 181
136 155 181
139 155 176
137 156 181
135 155 181
137 156 181
130 140 164
127 139 164
139 157 181
132 147 170
132 152 177
130 148 173
135 155 181
120 142 143
154 199 206
170 223 229
166 220 229
160 217 229
157 214 229
154 213 229
151 211 229
151 211 229
149 210 229
149 210 229
149 209 229
152 211 229
152 212 229
157 214 229
160 216 229
158 212 217
168 217 226
140 168 186
144 172 184
111 125 144
120 130 150
107 106 131
101 96 118
119 121 143
104 101 124
98 94 107
110 105 128
87 73 96
88 76 106
107 80 111
119 107 135
95 73 100
96 98 125
97 97 124
113 116 138
122 131 155
122 133 158
117 128 150
111 118 148
132 142 170
112 129 154
122 133 166
139 153 178
127 145 170
121 131 164
119 136 168
136 155 181
130 149 171
130 148 156
127 155 165
163 211 215
168 214 215
167 216 221
161 212 221
158 211 221
156 209 221
153 208 221
151 206 221
152 207 221
151 206 221
155 209 221
152 207 221
157 210 221
157 210 221
160 212 221
162 213 221
159 205 209
165 212 210
180 200 227
184 201 227
189 204 227
192 206 227
161 169 185
151 158 174
121 131 153
118 129 150
109 122 148
108 131 150
136 153 179
112 124 148
121 137 162
122 139 168
123 139 168
133 154 181
136 156 181
121 139 165
131 148 173
137 156 181
123 140 170
136 155 181
134 154 181
140 155 179
133 154 181
130 148 173
130 148 169
133 153 171
136 156 181
117 138 161
138 156 181
114 138 154
114 142 151
130 153 171
126 147 166
118 140 151
132 156 171
135 155 181
116 135 155
106 127 142
120 150 161
127 149 161
107 132 142
112 141 149
105 137 140
114 139 151
122 139 155
92 126 119
116 137 151
103 132 128
100 123 128
81 115 99
14 83 3
54 76 58
51 85 57
44 80 50
17 88 3
80 100 99
100 113 120
88 114 114
80 126 93
69 101 88
108 131 140
91 110 115
109 126 142
129 148 171
126 140 163
123 142 157
139 149 175
112 113 135
98 125 132
128 154 171
139 157 181
126 141 166
113 131 148
118 131 153
132 152 169
114 121 141
89 95 108
122 129 148
92 77 101
114 110 140
106 8 98
114 9 104
127 10 121
125 10 116
112 9 107
138 11 126
97 8 95
110 50 110
111 50 116
110 111 134
100 96 122
119 118 146
129 136 163
129 141 165
135 155 181
114 120 145
127 144 167
134 150 171
126 134 160
135 151 175
138 154 176
133 146 175
126 130 160
135 155 181
132 142 163
135 155 181
130 147 171
137 156 181
131 147 173
133 130 164
137 156 181
131 147 170
136 153 176
128 146 167
129 148 172
135 153 176
124 133 160
129 138 167
136 155 181
135 155 181
136 148 175
131 149 175
138 156 181
136 156 181
129 152 172
135 153 176
126 146 173
127 143 169
138 158 179
138 171 181
155 194 203
170 223 229
162 218 229
162 218 229
157 215 229
154 212 229
157 214 229
150 210 229
151 211 229
150 211 229
151 211 229
153 212 229
154 213 229
157 214 229
160 216 229
160 217 229
169 223 229
145 196 209
122 149 173
136 148 172
112 120 148
128 136 160
122 137 158
102 91 117
108 108 132
111 114 135
103 89 116
89 80 95
64 52 81
99 94 118
66 49 71
121 120 143
99 102 125
79 74 114
110 110 140
116 118 144
103 106 137
116 125 155
121 135 163
127 136 158
115 126 157
130 146 170
128 145 171
118 130 156
131 146 171
123 139 159
113 122 154
137 157 176
125 152 165
145 177 184
171 216 215
168 217 221
165 215 221
162 213 221
160 212 221
160 212 221
157 210 221
159 211 221
156 210 221
157 210 221
154 208 221
154 208 221
159 211 221
158 211 221
162 213 221
167 216 221
164 215 221
160 203 204
179 199 227
181 200 227
185 202 227
188 201 222
183 190 203
143 141 149
114 116 130
114 127 152
114 128 143
116 139 156
99 121 136
112 129 158
130 148 172
107 120 149
138 154 179
130 148 175
132 149 171
129 147 172
135 155 181
126 146 171
130 156 171
135 153 176
123 137 165
128 152 169
115 140 153
140 157 181
129 151 171
133 151 171
133 153 179
126 144 171
136 155 181
134 152 179
131 156 171
134 155 181
137 156 181
136 154 179
131 151 176
133 154 181
131 153 172
130 152 171
120 131 145
112 137 156
126 145 170
127 145 166
124 145 161
129 151 171
86 115 114
99 135 128
90 127 114
106 129 140
101 130 128
102 125 128
98 97 89
82 114 99
80 53 46
98 78 73
100 90 93
122 87 101
94 86 89
90 105 102
87 110 117
107 122 133
117 140 151
133 150 171
121 138 156
108 145 140
113 140 151
110 137 140
130 152 171
129 149 166
110 123 144
108 111 135
120 129 155
112 112 139
123 131 155
118 132 153
105 116 134
134 149 173
116 128 146
107 111 133
127 132 157
87 69 101
104 86 118
107 87 118
104 51 100
77 6 70
95 52 93
80 6 71
84 50 85
100 8 90
111 109 137
104 100 121
118 113 139
122 129 159
120 128 149
131 149 175
117 121 149
119 120 149
119 129 155
136 148 175
131 147 172
123 132 158
130 148 173
132 148 175
136 148 175
128 139 166
132 141 166
133 151 174
125 138 163
131 148 172
136 155 181
135 155 181
130 142 169
130 153 179
123 136 164
134 154 181
138 149 175
135 147 175
134 154 181
136 155 181
138 156 181
136 156 181
131 151 171
134 154 181
129 145 166
135 155 181
134 155 181
131 145 176
123 140 165
117 136 156
127 150 167
126 170 164
155 189 198
165 220 229
167 221 229
163 218 229
159 216 229
157 215 229
159 216 229
157 214 229
154 213 229
153 212 229
155 213 229
153 212 229
159 216 229
158 215 229
162 218 229
164 219 229
161 218 226
144 192 207
124 163 193
130 153 182
129 152 176
122 135 161
127 132 158
117 118 142
110 114 131
127 125 151
106 104 121
101 101 126
92 95 115
115 116 141
114 122 142
125 133 154
102 109 144
121 120 146
114 121 149
106 117 144
106 112 141
127 139 164
112 119 144
129 142 166
127 142 165
116 119 145
136 152 178
123 140 162
120 138 158
125 134 169
129 140 170
126 148 175
124 158 164
159 203 203
174 221 221
167 206 214
164 206 210
165 215 221
165 215 221
162 213 221
160 212 221
159 211 221
157 210 221
155 209 221
161 212 221
159 211 221
159 211 221
164 214 221
160 212 221
167 216 221
170 218 221
171 219 221
180 199 227
186 202 227
187 203 227
189 201 222
175 191 200
182 190 203
121 127 141
112 127 147
121 134 158
115 135 153
100 122 142
136 154 179
134 149 173
133 154 181
121 142 164
125 141 164
117 131 158
127 147 173
136 155 181
131 149 171
138 156 181
137 156 181
121 140 163
131 155 171
136 155 181
136 153 176
127 147 175
122 147 164
135 155 181
136 153 176
127 147 171
130 152 171
135 155 181
138 156 181
130 156 171
130 153 169
128 147 175
123 151 161
119 134 159
133 153 171
116 140 152
125 142 161
121 151 161
123 147 161
112 143 151
128 148 165
88 128 114
99 122 125
114 133 145
119 145 151
93 122 120
114 82 83
123 74 90
84 58 46
107 75 78
137 70 94
135 71 91
135 104 115
116 75 84
147 81 109
125 105 123
117 95 111
101 126 117
107 135 140
110 129 142
111 136 140
107 136 140
126 146 171
117 139 153
115 135 151
132 153 171
115 130 152
130 145 175
120 130 152
112 117 135
110 123 144
108 111 134
124 136 161
108 98 130
104 110 131
103 116 130
75 49 78
94 91 109
83 99 102
77 40 72
88 72 97
81 71 93
85 88 101
100 101 120
61 51 65
100 91 113
133 146 168
118 122 146
108 108 126
121 137 154
134 149 173
124 131 156
104 97 130
127 139 165
123 111 145
124 128 152
129 143 168
113 120 147
122 135 158
133 151 176
137 156 181
130 146 173
139 157 181
124 139 164
134 154 181
135 149 173
131 148 171
138 156 181
129 144 173
142 158 181
125 140 163
134 152 176
130 146 173
138 156 181
125 144 166
122 144 164
131 147 169
134 154 181
128 146 174
137 156 181
140 150 175
139 157 181
135 155 181
133 149 172
124 136 157
122 144 161
128 176 164
156 202 204
158 205 210
167 221 229
146 188 207
163 209 224
156 209 224
147 200 217
156 208 221
161 212 231
158 215 229
157 215 229
157 215 229
157 215 229
163 218 229
165 219 229
166 220 229
170 223 229
163 220 223
119 150 188
133 158 185
126 138 158
128 133 159
126 135 159
117 128 156
107 109 133
133 150 175
129 134 161
119 126 150
132 147 170
136 148 172
131 146 167
121 127 154
121 129 158
99 112 129
113 116 140
132 145 171
132 143 164
125 138 164
119 126 154
123 136 160
127 147 169
130 144 173
123 138 164
111 122 146
123 137 163
133 150 179
109 125 154
117 147 157
153 181 187
157 198 197
126 176 166
157 206 208
164 217 216
168 217 221
165 215 221
165 215 221
168 216 221
162 213 221
164 214 221
163 213 221
164 214 221
162 213 221
164 214 221
163 214 221
165 215 221
157 206 211
160 206 212
160 207 204
183 201 227
188 204 227
190 205 227
194 206 227
191 203 222
151 171 165
133 166 143
149 160 183
135 155 181
124 140 164
126 141 165
129 147 173
134 150 171
124 139 166
123 140 166
136 155 181
130 148 175
137 156 181
133 150 173
136 155 181
137 156 181
116 128 156
130 148 173
137 156 181
130 155 171
131 147 179
133 152 176
130 148 175
134 154 181
127 152 166
121 144 161
129 147 173
136 153 176
126 149 161
125 144 161
126 150 171
129 148 171
114 134 140
122 143 161
128 146 169
127 149 159
113 135 141
135 158 171
108 136 142
124 149 161
111 128 144
108 139 140
122 145 159
133 145 164
117 106 129
116 113 109
122 84 103
139 65 93
143 47 80
145 43 85
148 75 110
144 42 85
146 63 98
149 43 85
147 80 111
128 84 100
147 92 120
103 109 121
135 132 158
123 140 155
124 148 161
116 140 152
129 145 166
107 119 131
116 134 151
132 149 171
111 132 145
109 121 137
135 155 181
124 133 158
118 120 149
104 118 129
116 121 146
114 139 143
98 85 114
109 100 128
91 75 104
101 100 121
99 93 115
73 49 77
72 61 74
103 101 120
79 71 90
108 99 127
102 101 119
90 74 94
112 110 138
108 85 123
103 98 126
122 123 149
105 98 131
119 126 151
133 144 166
137 156 181
113 120 145
134 152 176
118 123 146
127 143 167
126 137 166
136 155 181
138 156 181
133 145 169
133 148 170
124 145 167
136 155 181
134 151 178
137 156 181
128 144 166
127 147 169
138 156 181
133 155 179
138 156 181
126 134 162
135 153 176
135 155 181
130 148 172
134 155 179
126 141 177
136 155 181
135 155 181
136 155 181
130 142 163
135 153 176
134 152 176
131 148 171
124 145 159
125 153 163
151 194 200
156 199 206
170 218 231
172 211 237
165 204 222
168 182 225
167 189 227
162 207 227
164 208 227
156 198 219
164 212 231
163 219 229
163 218 229
164 219 229
166 221 229
171 224 229
146 202 199
155 210 213
146 197 198
132 175 192
135 151 166
130 141 164
134 143 170
134 144 169
124 124 150
126 140 156
127 138 164
133 145 172
129 140 171
114 128 150
110 124 144
123 136 165
110 117 146
135 144 174
130 144 169
134 147 172
138 149 176
129 144 173
108 109 139
133 149 172
118 130 160
129 140 166
131 146 171
136 156 181
126 142 167
134 145 172
114 128 154
119 148 162
114 162 152
128 161 167
139 167 176
148 194 193
164 208 211
166 205 211
154 207 206
158 201 206
160 206 211
168 217 221
163 215 216
167 216 221
166 216 221
166 215 221
156 208 211
166 217 218
129 176 178
172 219 221
133 173 173
154 195 199
188 204 227
191 205 227
192 206 227
197 208 227
193 204 222
187 192 203
95 138 121
126 141 150
123 138 163
139 157 181
128 146 170
121 141 162
127 144 171
126 139 164
127 144 169
137 156 181
129 149 176
132 153 181
129 145 164
130 150 176
138 156 181
130 149 175
134 154 181
130 152 171
121 143 166
131 145 168
138 157 181
129 151 171
135 154 179
131 147 174
137 156 181
130 147 172
138 156 181
125 145 172
130 152 171
122 143 161
137 155 179
126 157 161
126 143 170
114 143 151
135 155 181
123 147 159
128 147 175
133 154 181
111 143 140
137 156 181
129 147 173
115 135 142
131 115 130
135 77 91
148 65 98
142 41 80
147 43 85
139 40 78
142 41 83
149 43 85
152 44 85
143 41 81
147 43 85
142 41 80
147 43 85
137 97 117
122 111 124
119 117 123
131 140 164
123 153 156
107 122 143
124 138 163
136 155 181
123 143 162
122 126 148
129 143 171
124 126 154
124 148 161
128 145 173
132 149 172
122 132 154
128 143 164
114 120 145
122 131 155
118 122 147
125 113 145
123 131 155
99 70 106
103 100 123
95 86 109
126 139 164
126 135 158
112 112 136
75 61 82
125 131 157
121 122 148
112 129 151
121 127 152
124 133 154
113 121 145
126 139 165
136 148 175
111 110 138
122 129 157
128 146 172
122 141 162
139 157 181
132 147 173
121 128 150
132 141 164
129 145 168
136 155 181
132 149 171
132 151 175
121 133 156
139 149 175
138 157 181
138 156 181
130 149 172
133 147 172
136 155 181
141 158 181
131 151 176
132 144 170
132 148 173
138 154 180
136 155 181
129 141 164
139 157 181
136 153 176
136 156 181
132 148 167
129 144 170
129 150 171
109 138 147
127 119 154
145 153 197
168 185 226
167 162 221
177 176 241
167 169 237
176 187 249
165 176 232
178 186 252
174 185 239
163 193 233
174 206 239
165 199 225
176 222 231
160 212 219
148 202 204
148 211 202
121 173 167
153 211 210
124 174 185
91 127 161
128 143 170
125 137 160
126 144 159
137 156 181
128 147 173
110 122 146
124 137 167
126 138 163
132 148 172
123 132 165
134 148 171
121 130 156
126 136 162
137 152 178
129 147 172
127 141 171
124 139 164
139 153 178
128 147 175
137 152 178
139 157 181
136 152 178
127 142 166
129 147 173
120 139 170
119 136 164
127 147 179
99 120 133
115 145 151
129 179 171
132 177 172
116 161 154
135 184 190
140 180 184
168 210 215
152 199 199
158 207 210
172 216 221
154 213 206
141 209 186
157 216 205
157 212 206
159 218 207
160 212 205
145 202 191
157 211 202
135 173 174
140 185 181
190 205 227
194 207 227
192 200 216
190 198 218
191 201 220
167 167 192
133 149 151
125 140 148
129 147 170
123 144 166
136 156 181
139 155 179
136 155 181
126 145 171
133 154 181
135 155 181
129 147 173
132 141 170
136 153 179
137 155 179
131 145 169
137 156 181
112 129 158
123 146 166
124 140 168
123 143 163
133 152 176
137 156 181
136 154 179
136 156 181
132 156 171
131 149 175
139 157 181
132 151 175
133 154 181
125 152 161
126 146 161
132 150 175
133 151 174
112 148 149
126 149 171
135 155 181
114 143 151
134 154 181
130 155 171
137 150 172
136 125 138
145 115 140
146 68 95
149 80 111
143 41 81
151 43 85
145 42 82
147 43 85
153 44 85
149 43 85
137 40 81
149 43 82
148 42 82
139 39 77
149 43 85
147 42 82
146 64 97
133 78 104
133 102 127
128 140 153
118 140 148
122 147 162
122 138 164
131 147 173
115 147 151
124 131 155
131 139 167
131 155 171
127 146 171
118 127 154
134 148 173
130 139 166
129 146 172
105 100 123
123 110 145
125 132 159
119 137 157
132 140 167
110 111 134
109 115 136
127 135 157
119 121 149
130 140 165
109 116 144
114 110 140
123 122 149
127 137 166
128 138 166
123 132 155
108 117 138
130 147 171
131 139 167
129 140 165
133 144 170
118 131 152
121 135 158
126 132 157
124 140 165
133 154 181
127 141 164
136 155 181
138 156 181
127 139 165
131 146 167
134 147 175
134 152 176
138 156 181
131 147 173
136 153 176
134 154 181
139 157 181
141 158 181
127 145 173
135 153 176
132 149 175
129 150 173
125 136 159
135 147 175
132 153 181
131 139 163
137 156 181
136 155 181
125 141 163
119 136 156
129 142 176
165 171 218
187 184 248
177 180 246
177 177 241
172 177 248
178 180 248
174 180 254
175 181 254
174 178 248
176 181 254
169 174 239
188 191 252
170 192 234
172 191 233
155 203 219
159 212 212
143 194 193
108 167 166
138 183 190
97 138 139
112 145 154
128 147 173
128 145 171
135 152 176
131 147 172
128 147 171
131 147 174
134 147 172
127 140 165
130 149 173
122 142 173
135 155 181
129 145 171
125 146 175
134 147 175
128 139 164
129 144 172
123 138 160
133 150 175
125 139 167
129 148 179
140 151 176
116 134 164
135 151 175
126 138 161
129 147 173
133 154 181
112 131 165
117 134 157
94 118 137
107 130 142
99 154 145
98 144 144
134 183 183
136 173 189
142 185 188
143 188 185
151 201 193
156 201 201
125 188 169
155 210 197
157 218 202
149 216 196
152 213 197
142 209 187
132 185 173
152 219 197
146 202 185
132 191 165
193 206 227
194 198 217
189 198 214
174 183 200
184 193 210
154 159 168
126 128 149
105 132 125
124 139 161
139 157 181
138 157 181
139 157 181
134 154 179
136 155 181
127 144 167
129 146 173
125 145 173
137 156 181
134 147 175
136 155 181
131 149 171
126 138 161
124 143 166
128 147 173
140 157 181
127 150 171
135 154 179
130 150 171
129 148 175
129 148 173
126 147 165
137 156 181
132 148 173
132 149 175
120 142 164
137 155 174
126 152 163
137 156 181
140 157 181
111 129 149
127 144 163
123 150 161
135 155 181
128 145 165
134 153 179
136 132 156
111 100 122
149 43 85
142 40 80
152 43 85
149 43 82
151 43 85
141 41 81
151 43 85
150 43 85
151 43 85
143 42 81
148 42 82
148 43 85
143 41 80
149 43 85
129 37 74
135 38 76
143 42 82
127 93 114
129 114 137
121 128 145
118 129 148
129 147 172
134 149 172
125 135 157
123 139 162
107 130 141
134 148 173
133 148 173
132 149 175
116 129 153
100 93 112
121 145 163
124 137 165
130 147 171
124 139 157
122 139 161
135 147 175
125 123 155
129 131 160
139 157 181
125 131 157
128 131 158
122 138 163
102 116 132
114 109 140
121 140 159
128 142 166
138 154 176
126 139 164
116 120 146
129 130 160
132 154 178
131 147 173
133 154 181
132 145 172
131 148 172
132 142 168
130 148 171
137 156 181
136 155 181
132 148 173
137 156 181
127 146 175
139 149 175
133 150 175
128 147 172
138 156 181
131 155 177
131 147 173
132 148 169
125 144 165
135 155 181
138 154 176
132 145 170
134 152 176
129 153 177
139 157 181
131 143 168
132 149 175
136 153 176
128 153 172
137 151 174
141 148 189
178 175 234
186 183 248
180 180 248
182 184 254
176 181 254
173 179 254
171 179 254
170 178 254
170 178 254
173 179 254
175 181 254
178 182 254
182 184 254
185 185 254
188 188 249
185 201 244
118 171 163
111 170 157
122 185 168
111 156 156
87 141 140
117 144 154
126 149 172
138 150 174
134 152 176
127 141 164
135 155 181
115 131 160
127 147 179
135 151 178
132 151 180
132 146 172
118 133 156
125 143 165
132 150 175
119 135 157
136 151 175
127 147 172
138 156 181
127 143 171
131 149 172
131 150 171
138 156 181
127 150 170
137 149 176
137 156 181
130 148 173
132 153 181
137 152 178
121 138 157
117 144 162
111 143 150
99 143 141
92 130 133
105 141 145
120 145 154
103 122 140
121 150 171
88 136 122
98 156 136
147 210 183
142 217 186
139 209 184
145 217 191
140 214 188
146 218 191
144 216 191
143 215 192
140 210 188
142 211 188
188 198 212
164 150 167
159 149 163
150 127 144
143 152 171
139 151 169
110 116 126
114 136 146
130 146 171
130 148 173
135 155 181
126 146 166
130 155 171
137 156 181
129 144 167
136 155 181
135 155 181
139 157 181
139 157 181
137 156 181
128 147 175
130 148 175
124 139 166
122 135 159
138 157 181
132 152 171
136 156 181
137 156 181
136 149 175
134 154 181
136 155 181
130 154 171
141 158 181
137 156 181
134 154 181
124 152 161
121 142 166
134 153 171
129 155 171
138 156 181
129 149 171
124 145 161
132 150 175
133 150 171
124 127 145
133 132 159
144 62 97
140 78 108
147 43 85
146 43 85
145 42 81
133 36 72
149 43 85
151 43 85
149 42 84
141 41 80
144 41 81
141 40 81
149 42 82
116 34 70
142 41 81
122 35 71
141 39 78
149 42 82
143 62 95
134 114 138
136 114 138
121 139 160
137 156 181
128 147 166
125 139 164
142 159 181
128 147 171
124 129 159
127 143 165
131 148 172
125 140 160
130 147 171
118 123 154
132 150 175
130 146 173
126 122 150
131 147 173
139 157 181
129 142 157
116 128 155
126 141 167
137 146 170
121 122 148
127 147 165
135 155 181
127 146 171
132 146 175
127 123 151
133 141 167
131 146 175
135 147 175
127 139 165
131 130 160
128 136 162
132 147 173
135 149 173
140 157 181
135 149 171
132 154 181
135 153 180
132 148 173
120 142 162
122 133 162
139 157 181
129 147 172
134 150 171
135 141 167
139 155 176
135 149 173
134 155 179
131 150 174
130 149 174
135 145 170
132 151 175
137 156 181
135 155 181
132 146 175
129 150 171
138 156 181
134 152 176
126 141 165
136 152 179
158 162 206
183 174 233
174 172 235
185 185 254
181 183 254
174 180 254
172 179 254
170 178 254
169 178 254
167 177 254
168 177 254
169 178 254
171 179 254
174 180 254
178 182 254
182 184 254
187 186 254
171 170 227
179 175 227
96 148 140
108 161 157
99 150 147
69 96 128
99 128 145
128 143 165
132 149 179
114 130 151
127 154 172
131 151 174
135 153 175
137 156 181
133 151 176
135 155 181
128 141 166
131 149 175
127 142 165
120 140 167
126 149 175
123 141 166
118 135 160
133 154 181
133 144 170
128 147 174
126 143 171
131 145 175
132 154 176
117 127 147
126 146 170
131 148 173
125 140 169
134 155 178
122 146 172
113 139 154
99 133 137
97 134 136
103 141 144
97 130 132
111 148 160
108 134 149
100 133 137
112 153 154
115 173 148
146 218 188
131 197 172
139 210 186
140 213 191
137 212 191
138 212 191
135 210 191
136 211 191
138 212 191
141 214 191
148 153 170
119 102 118
108 81 98
136 130 148
135 138 154
109 123 135
124 135 154
127 140 159
124 142 156
133 150 171
129 149 169
137 156 181
127 146 172
129 148 173
131 148 172
138 156 181
138 156 181
139 156 179
137 156 181
130 149 171
128 140 166
131 155 171
128 152 171
133 150 171
125 136 159
134 154 181
128 147 173
137 156 181
130 146 174
134 150 173
130 151 171
130 148 171
135 155 181
134 151 176
131 148 171
136 155 181
134 154 181
135 155 181
129 144 166
122 148 163
138 157 181
132 156 171
133 154 179
135 150 173
127 150 171
130 102 126
157 44 85
139 40 78
148 42 80
137 39 74
149 42 82
137 39 76
150 43 82
151 43 82
146 41 80
141 40 79
144 41 80
143 42 82
144 41 78
150 43 81
146 42 82
143 41 79
145 41 80
154 44 85
138 39 76
132 37 72
137 148 173
140 149 173
129 152 171
132 140 167
133 148 173
138 156 181
139 157 181
129 141 165
114 129 152
138 157 181
137 148 175
134 148 173
122 134 155
119 147 152
134 154 181
133 148 173
126 146 171
135 149 173
126 139 164
140 158 181
134 158 171
137 156 181
127 138 167
125 131 157
133 154 181
130 148 171
123 141 157
123 142 167
132 153 181
135 155 181
125 137 174
125 147 162
134 153 175
135 155 181
131 148 172
134 154 181
129 149 174
137 156 181
132 147 173
130 147 172
133 153 179
137 156 181
137 156 181
129 138 167
137 156 181
134 152 176
135 149 173
132 148 173
133 154 181
128 141 163
133 150 178
140 158 181
133 148 173
132 151 176
126 145 165
133 145 171
138 156 181
129 148 171
139 158 179
131 154 179
134 152 176
127 139 172
164 162 214
187 184 245
189 187 254
182 184 254
177 181 254
174 180 254
171 179 254
168 177 254
167 177 254
167 177 254
167 177 254
168 177 254
169 178 254
171 179 254
175 180 254
177 182 254
183 184 254
184 184 247
176 178 235
117 145 178
121 144 170
90 129 132
90 128 134
119 150 162
132 152 175
135 152 177
138 156 181
133 155 179
136 155 181
136 156 179
137 146 174
127 147 179
134 151 178
121 140 166
122 146 169
135 155 181
130 150 175
132 150 178
136 155 181
135 155 181
129 147 171
130 148 174
124 143 169
131 154 176
127 148 177
127 147 173
136 150 173
117 130 162
124 141 170
135 155 181
118 142 159
115 142 159
110 139 149
104 138 145
97 124 132
109 149 151
101 134 138
100 137 140
109 140 154
121 172 155
133 188 167
142 209 181
143 216 191
141 211 186
136 211 191
137 212 191
134 209 191
133 209 191
134 209 191
134 210 191
134 209 191
135 210 191
